P3
130 130
255
15 15 15 16 16 16 16 16 16 16 16 16 16 16 16 16 16 16 16 16 16 16 16 16 16 16 16 16 16 16 16 16 16 16 16 16 17 17 17 17 17 17 17 17 17 17 17 17 17 17 17 17 17 17 17 17 17 17 17 17 17 17 17 18 18 18 18 18 18 18 18 18 18 18 18 18 18 18 18 18 18 18 18 18 18 18 18 18 18 18 21 21 21 21 21 21 21 21 21 21 21 21 21 21 21 21 21 21 21 21 21 22 22 22 22 22 22 22 22 22 22 22 22 22 22 22 22 22 22 22 22 22 22 22 22 22 22 22 22 22 22 22 22 22 22 22 22 22 22 22 23 23 23 23 23 23 23 23 23 23 23 23 23 23 23 23 23 23 23 23 23 23 23 23 23 23 23 23 23 23 23 23 23 23 23 23 23 23 23 23 23 23 23 23 23 23 23 23 23 23 23 23 23 23 23 23 23 23 23 23 23 23 23 23 23 23 23 23 23 23 23 23 23 23 23 23 23 23 23 23 23 23 23 23 23 23 23 23 23 23 23 23 23 22 22 22 22 22 22 22 22 22 22 22 22 22 22 22 22 22 22 22 22 22 22 22 22 22 22 22 22 22 22 22 22 22 22 22 22 22 22 22 21 21 21 21 21 21 21 21 21 21 21 21 21 21 21 21 21 21 21 21 21 21 21 21 21 21 21 21 21 21 20 20 20 20 20 20 20 20 20 20 20 20 20 20 20 20 20 20 20 20 20 20 20 20 20 20 20 19 19 19 19 19 19 19 19 19 19 19 19 19 19 19 19 19 19 19 19 19 19 19 19 19 19 19 18 18 18 18 18 18 18 18 18 18 18 18 18 18 18 18 18 18 18 18 18 18 18 18 
16 16 16 16 16 16 16 16 16 16 16 16 16 16 16 16 16 16 16 16 16 16 16 16 16 16 16 16 16 16 16 16 16 17 17 17 17 17 17 17 17 17 17 17 17 17 17 17 17 17 17 17 17 17 17 17 17 17 17 17 18 18 18 18 18 18 18 18 18 18 18 18 18 18 18 18 18 18 18 18 18 18 18 18 18 18 18 21 21 21 21 21 21 21 21 21 21 21 21 21 21 21 21 21 21 22 22 22 22 22 22 22 22 22 22 22 22 22 22 22 22 22 22 22 22 22 22 22 22 22 22 22 22 22 22 22 22 22 23 23 23 23 23 23 23 23 23 23 23 23 23 23 23 23 23 23 23 23 23 23 23 23 23 23 23 23 23 23 23 23 23 23 23 23 23 23 23 23 23 23 23 23 23 23 23 23 23 23 23 23 23 23 23 23 23 23 23 23 23 23 23 23 23 23 23 23 23 23 23 23 23 23 23 23 23 23 23 23 23 23 23 23 23 23 23 23 23 23 23 23 23 23 23 23 23 23 23 23 23 23 23 23 23 23 23 23 23 23 23 23 23 23 23 23 23 22 22 22 22 22 22 22 22 22 22 22 22 22 22 22 22 22 22 22 22 22 22 22 22 22 22 22 22 22 22 22 22 22 21 21 21 21 21 21 21 21 21 21 21 21 21 21 21 21 21 21 21 21 21 21 21 21 21 21 21 21 21 21 20 20 20 20 20 20 20 20 20 20 20 20 20 20 20 20 20 20 20 20 20 20 20 20 19 19 19 19 19 19 19 19 19 19 19 19 19 19 19 19 19 19 19 19 19 19 19 19 19 19 19 18 18 18 18 18 18 18 18 18 18 18 18 18 18 18 18 18 18 18 18 18 
16 16 16 16 16 16 16 16 16 16 16 16 16 16 16 16 16 16 16 16 16 16 16 16 16 16 16 16 16 16 17 17 17 17 17 17 17 17 17 17 17 17 17 17 17 17 17 17 17 17 17 17 17 17 17 17 17 18 18 18 18 18 18 18 18 18 18 18 18 18 18 18 18 18 18 18 18 18 18 18 18 18 18 18 21 21 21 21 21 21 21 21 21 21 21 21 22 22 22 22 22 22 22 22 22 22 22 22 22 22 22 22 22 22 22 22 22 22 22 22 22 22 22 22 22 22 23 23 23 23 23 23 23 23 23 23 23 23 23 23 23 23 23 23 23 23 23 23 23 23 23 23 23 23 23 23 23 23 23 23 23 23 23 23 23 23 23 23 23 23 23 23 23 23 24 24 24 24 24 24 24 24 24 24 24 24 24 24 24 24 24 24 24 24 24 24 24 24 24 24 24 24 24 24 24 24 24 24 24 24 24 24 24 24 24 24 24 24 24 23 23 23 23 23 23 23 23 23 23 23 23 23 23 23 23 23 23 23 23 23 23 23 23 23 23 23 23 23 23 23 23 23 23 23 23 23 23 23 23 23 23 23 23 23 23 23 23 22 22 22 22 22 22 22 22 22 22 22 22 22 22 22 22 22 22 22 22 22 22 22 22 22 22 22 22 22 22 21 21 21 21 21 21 21 21 21 21 21 21 21 21 21 21 21 21 21 21 21 21 21 21 20 20 20 20 20 20 20 20 20 20 20 20 20 20 20 20 20 20 20 20 20 20 20 20 20 20 20 19 19 19 19 19 19 19 19 19 19 19 19 19 19 19 19 19 19 19 19 19 19 19 19 18 18 18 18 18 18 18 18 18 18 18 18 18 18 18 18 18 18 
16 16 16 16 16 16 16 16 16 16 16 16 16 16 16 16 16 16 16 16 16 16 16 16 16 16 16 17 17 17 17 17 17 17 17 17 17 17 17 17 17 17 17 17 17 17 17 17 17 17 17 17 17 17 17 17 17 18 18 18 18 18 18 18 18 18 18 18 18 18 18 18 18 18 18 18 18 18 18 18 18 21 21 21 21 21 21 21 21 21 22 22 22 22 22 22 22 22 22 22 22 22 22 22 22 22 22 22 22 22 22 22 22 22 22 22 22 23 23 23 23 23 23 23 23 23 23 23 23 23 23 23 23 23 23 23 23 23 23 23 23 23 23 23 23 23 23 23 23 23 23 23 23 24 24 24 24 24 24 24 24 24 24 24 24 24 24 24 24 24 24 24 24 24 24 24 24 24 24 24 24 24 24 24 24 24 24 24 24 24 24 24 24 24 24 24 24 24 24 24 24 24 24 24 24 24 24 24 24 24 24 24 24 24 24 24 24 24 24 24 24 24 24 24 24 24 24 24 24 24 24 24 24 24 24 24 24 24 24 24 23 23 23 23 23 23 23 23 23 23 23 23 23 23 23 23 23 23 23 23 23 23 23 23 23 23 23 23 23 23 23 23 23 23 23 23 22 22 22 22 22 22 22 22 22 22 22 22 22 22 22 22 22 22 22 22 22 22 22 22 22 22 22 21 21 21 21 21 21 21 21 21 21 21 21 21 21 21 21 21 21 21 21 21 21 21 21 20 20 20 20 20 20 20 20 20 20 20 20 20 20 20 20 20 20 20 20 20 20 20 20 19 19 19 19 19 19 19 19 19 19 19 19 19 19 19 19 19 19 19 19 19 19 19 19 19 19 19 18 18 18 18 18 18 18 18 18 18 18 18 
16 16 16 16 16 16 16 16 16 16 16 16 16 16 16 16 16 16 16 16 16 16 16 16 16 16 16 17 17 17 17 17 17 17 17 17 17 17 17 17 17 17 17 17 17 17 17 17 17 17 17 17 17 17 18 18 18 18 18 18 18 18 18 18 18 18 18 18 18 18 18 18 18 18 18 18 18 18 21 21 21 21 21 21 22 22 22 22 22 22 22 22 22 22 22 22 22 22 22 22 22 22 22 22 22 22 22 22 23 23 23 23 23 23 23 23 23 23 23 23 23 23 23 23 23 23 23 23 23 23 23 23 23 23 23 23 23 23 24 24 24 24 24 24 24 24 24 24 24 24 24 24 24 24 24 24 24 24 24 24 24 24 24 24 24 24 24 24 24 24 24 24 24 24 24 24 24 24 24 24 24 24 24 24 24 24 24 24 24 24 24 24 24 24 24 24 24 24 24 24 24 24 24 24 24 24 24 24 24 24 24 24 24 24 24 24 24 24 24 24 24 24 24 24 24 24 24 24 24 24 24 24 24 24 24 24 24 24 24 24 24 24 24 24 24 24 24 24 24 24 24 24 24 24 24 23 23 23 23 23 23 23 23 23 23 23 23 23 23 23 23 23 23 23 23 23 23 23 23 23 23 23 23 23 23 22 22 22 22 22 22 22 22 22 22 22 22 22 22 22 22 22 22 22 22 22 22 22 22 21 21 21 21 21 21 21 21 21 21 21 21 21 21 21 21 21 21 21 21 21 21 21 21 20 20 20 20 20 20 20 20 20 20 20 20 20 20 20 20 20 20 20 20 20 20 20 20 19 19 19 19 19 19 19 19 19 19 19 19 19 19 19 19 19 19 19 19 19 19 19 19 18 18 18 18 18 18 18 18 18 
16 16 16 16 16 16 16 16 16 16 16 16 16 16 16 16 16 16 16 16 16 16 16 16 17 17 17 17 17 17 17 17 17 17 17 17 17 17 17 17 17 17 17 17 17 17 17 17 17 17 17 18 18 18 18 18 18 18 18 18 18 18 18 18 18 18 18 18 18 18 18 18 18 18 18 21 21 21 22 22 22 22 22 22 22 22 22 22 22 22 22 22 22 22 22 22 22 22 22 22 22 22 23 23 23 23 23 23 23 23 23 23 23 23 23 23 23 23 23 23 23 23 23 23 23 23 23 23 23 24 24 24 24 24 24 24 24 24 24 24 24 24 24 24 24 24 24 24 24 24 24 24 24 24 24 24 24 24 24 24 24 24 24 24 24 25 25 25 25 25 25 25 25 25 25 25 25 25 25 25 25 25 25 25 25 25 25 25 25 25 25 25 25 25 25 25 25 25 25 25 25 25 25 25 25 25 25 25 25 25 25 25 25 25 25 25 25 25 25 25 25 25 25 25 25 25 25 25 24 24 24 24 24 24 24 24 24 24 24 24 24 24 24 24 24 24 24 24 24 24 24 24 24 24 24 24 24 24 24 24 24 24 24 24 23 23 23 23 23 23 23 23 23 23 23 23 23 23 23 23 23 23 23 23 23 23 23 23 23 23 23 22 22 22 22 22 22 22 22 22 22 22 22 22 22 22 22 22 22 22 22 22 22 22 22 21 21 21 21 21 21 21 21 21 21 21 21 21 21 21 21 21 21 21 21 21 20 20 20 20 20 20 20 20 20 20 20 20 20 20 20 20 20 20 20 20 20 20 20 20 19 19 19 19 19 19 19 19 19 19 19 19 19 19 19 19 19 19 19 19 19 19 19 19 18 18 18 18 18 18 
16 16 16 16 16 16 16 16 16 16 16 16 16 16 16 16 16 16 16 16 16 17 17 17 17 17 17 17 17 17 17 17 17 17 17 17 17 17 17 17 17 17 17 17 17 17 17 17 18 18 18 18 18 18 18 18 18 18 18 18 18 18 18 18 18 18 18 18 18 18 18 18 22 22 22 22 22 22 22 22 22 22 22 22 22 22 22 22 22 22 22 22 22 22 22 22 23 23 23 23 23 23 23 23 23 23 23 23 23 23 23 23 23 23 23 23 23 23 23 23 24 24 24 24 24 24 24 24 24 24 24 24 24 24 24 24 24 24 24 24 24 24 24 24 24 24 24 25 25 25 25 25 25 25 25 25 25 25 25 25 25 25 25 25 25 25 25 25 25 25 25 25 25 25 25 25 25 25 25 25 25 25 25 25 25 25 25 25 25 25 25 25 25 25 25 25 25 25 25 25 25 25 25 25 25 25 25 25 25 25 25 25 25 25 25 25 25 25 25 25 25 25 25 25 25 25 25 25 25 25 25 25 25 25 25 25 25 25 25 25 25 25 25 25 25 25 24 24 24 24 24 24 24 24 24 24 24 24 24 24 24 24 24 24 24 24 24 24 24 24 24 24 24 23 23 23 23 23 23 23 23 23 23 23 23 23 23 23 23 23 23 23 23 23 23 23 23 22 22 22 22 22 22 22 22 22 22 22 22 22 22 22 22 22 22 22 22 22 22 22 22 21 21 21 21 21 21 21 21 21 21 21 21 21 21 21 21 21 21 21 21 21 20 20 20 20 20 20 20 20 20 20 20 20 20 20 20 20 20 20 20 20 20 19 19 19 19 19 19 19 19 19 19 19 19 19 19 19 19 19 19 19 19 19 19 19 19 18 18 18 
16 16 16 16 16 16 16 16 16 16 16 16 16 16 16 16 16 16 17 17 17 17 17 17 17 17 17 17 17 17 17 17 17 17 17 17 17 17 17 17 17 17 17 17 17 18 18 18 18 18 18 18 18 18 18 18 18 18 18 18 18 18 18 18 18 18 18 18 18 22 22 22 22 22 22 22 22 22 22 22 22 22 22 22 22 22 22 22 22 22 23 23 23 23 23 23 23 23 23 23 23 23 23 23 23 23 23 23 23 23 23 24 24 24 24 24 24 24 24 24 24 24 24 24 24 24 24 24 24 24 24 24 24 24 24 25 25 25 25 25 25 25 25 25 25 25 25 25 25 25 25 25 25 25 25 25 25 25 25 25 25 25 25 25 25 25 25 25 25 25 25 25 25 25 26 26 26 26 26 26 26 26 26 26 26 26 26 26 26 26 26 26 26 26 26 26 26 26 26 26 26 26 26 26 26 26 26 26 26 26 26 26 26 26 26 26 26 26 26 25 25 25 25 25 25 25 25 25 25 25 25 25 25 25 25 25 25 25 25 25 25 25 25 25 25 25 25 25 25 25 25 25 25 25 25 25 25 25 24 24 24 24 24 24 24 24 24 24 24 24 24 24 24 24 24 24 24 24 24 24 24 24 23 23 23 23 23 23 23 23 23 23 23 23 23 23 23 23 23 23 23 23 23 22 22 22 22 22 22 22 22 22 22 22 22 22 22 22 22 22 22 22 22 22 21 21 21 21 21 21 21 21 21 21 21 21 21 21 21 21 21 21 21 21 21 20 20 20 20 20 20 20 20 20 20 20 20 20 20 20 20 20 20 20 20 20 19 19 19 19 19 19 19 19 19 19 19 19 19 19 19 19 19 19 19 19 19 19 19 19 
16 16 16 16 16 16 16 16 16 16 16 16 16 16 16 16 16 16 17 17 17 17 17 17 17 17 17 17 17 17 17 17 17 17 17 17 17 17 17 17 17 17 18 18 18 18 18 18 18 18 18 18 18 18 18 18 18 18 18 18 18 18 18 18 18 18 22 22 22 22 22 22 22 22 22 22 22 22 22 22 22 22 22 22 23 23 23 23 23 23 23 23 23 23 23 23 23 23 23 23 23 23 24 24 24 24 24 24 24 24 24 24 24 24 24 24 24 24 24 24 24 24 24 24 24 24 25 25 25 25 25 25 25 25 25 25 25 25 25 25 25 25 25 25 25 25 25 25 25 25 25 25 25 26 26 26 26 26 26 26 26 26 26 26 26 26 26 26 26 26 26 26 26 26 26 26 26 26 26 26 26 26 26 26 26 26 26 26 26 26 26 26 27 27 27 27 27 27 27 27 27 27 27 27 27 27 27 27 27 27 27 27 27 27 27 27 28 28 28 26 26 26 26 26 26 26 26 26 26 26 26 26 26 26 26 26 26 26 26 26 25 25 25 25 25 25 25 25 25 25 25 25 25 25 25 25 25 25 25 25 25 25 25 25 25 25 25 24 24 24 24 24 24 24 24 24 24 24 24 24 24 24 24 24 24 24 24 24 24 24 24 23 23 23 23 23 23 23 23 23 23 23 23 23 23 23 23 23 23 22 22 22 22 22 22 22 22 22 22 22 22 22 22 22 22 22 22 22 22 22 21 21 21 21 21 21 21 21 21 21 21 21 21 21 21 21 21 21 21 21 21 20 20 20 20 20 20 20 20 20 20 20 20 20 20 20 20 20 20 19 19 19 19 19 19 19 19 19 19 19 19 19 19 19 19 19 19 19 19 19 
16 16 16 16 16 16 16 16 16 16 16 16 16 16 16 17 17 17 17 17 17 17 17 17 17 17 17 17 17 17 17 17 17 17 17 17 17 17 17 17 17 17 18 18 18 18 18 18 18 18 18 18 18 18 18 18 18 18 18 18 18 18 18 22 22 22 22 22 22 22 22 22 22 22 22 22 22 22 23 23 23 23 23 23 23 23 23 23 23 23 23 23 23 23 23 23 24 24 24 24 24 24 24 24 24 24 24 24 24 24 24 24 24 24 24 24 24 25 25 25 25 25 25 25 25 25 25 25 25 25 25 25 25 25 25 25 25 25 25 25 25 26 26 26 26 26 26 26 26 26 26 26 26 25 25 25 25 25 25 25 25 25 25 25 25 25 25 25 26 26 26 26 26 26 26 26 26 26 26 26 26 26 26 27 27 27 27 27 27 27 27 27 27 27 27 27 27 27 27 27 27 28 28 28 28 28 28 28 28 28 28 28 28 28 28 28 28 28 28 28 28 28 28 28 28 28 28 28 29 29 29 29 29 29 29 29 29 29 29 29 26 26 26 26 26 26 26 26 26 26 26 26 25 25 25 25 25 25 25 25 25 25 25 25 25 25 25 25 25 25 25 25 25 25 25 25 24 24 24 24 24 24 24 24 24 24 24 24 24 24 24 24 24 24 24 24 24 23 23 23 23 23 23 23 23 23 23 23 23 23 23 23 23 23 23 22 22 22 22 22 22 22 22 22 22 22 22 22 22 22 22 22 22 21 21 21 21 21 21 21 21 21 21 21 21 21 21 21 21 21 21 21 21 21 20 20 20 20 20 20 20 20 20 20 20 20 20 20 20 20 20 20 20 20 20 19 19 19 19 19 19 19 19 19 19 19 19 19 19 19 
16 16 16 16 16 16 16 16 16 16 16 16 17 17 17 17 17 17 17 17 17 17 17 17 17 17 17 17 17 17 17 17 17 17 17 17 17 17 17 18 18 18 18 18 18 18 18 18 18 18 18 18 18 18 18 18 18 18 18 18 22 22 22 22 22 22 22 22 22 22 22 22 23 23 23 23 23 23 23 23 23 23 23 23 23 23 23 23 23 23 24 24 24 24 24 24 24 24 24 24 24 24 24 24 24 24 24 24 25 25 25 25 25 25 25 25 25 25 25 25 25 25 25 25 25 25 25 25 25 26 26 26 26 26 26 26 26 26 26 26 26 24 24 24 25 25 25 25 25 25 25 25 25 25 25 25 25 25 25 26 26 26 26 26 26 26 26 26 26 26 26 26 26 26 26 26 26 27 27 27 27 27 27 27 27 27 27 27 27 27 27 27 28 28 28 28 28 28 28 28 28 28 28 28 28 28 28 28 28 28 29 29 29 29 29 29 29 29 29 29 29 29 29 29 29 29 29 29 29 29 29 29 29 29 29 29 29 29 29 29 29 29 29 29 29 29 29 29 29 29 29 29 26 26 26 26 26 26 26 26 26 26 26 26 25 25 25 25 25 25 25 25 25 25 25 25 25 25 25 25 25 25 25 25 25 24 24 24 24 24 24 24 24 24 24 24 24 24 24 24 24 24 24 23 23 23 23 23 23 23 23 23 23 23 23 23 23 23 23 23 23 22 22 22 22 22 22 22 22 22 22 22 22 22 22 22 22 22 22 21 21 21 21 21 21 21 21 21 21 21 21 21 21 21 21 21 21 20 20 20 20 20 20 20 20 20 20 20 20 20 20 20 20 20 20 20 20 20 19 19 19 19 19 19 19 19 19 19 19 19 
16 16 16 16 16 16 16 16 16 16 16 16 17 17 17 17 17 17 17 17 17 17 17 17 17 17 17 17 17 17 17 17 17 17 17 17 18 18 18 18 18 18 18 18 18 18 18 18 18 18 18 18 18 18 18 18 18 22 22 22 22 22 22 22 22 22 22 22 22 23 23 23 23 23 23 23 23 23 23 23 23 23 23 23 24 24 24 24 24 24 24 24 24 24 24 24 24 24 24 24 24 24 25 25 25 25 25 25 25 25 25 25 25 25 25 25 25 25 25 25 26 26 26 26 26 26 26 26 26 24 24 24 24 24 24 24 24 24 25 25 25 25 25 25 25 25 25 25 25 25 25 25 25 26 26 26 26 26 26 26 26 26 26 26 26 26 26 26 27 27 27 27 27 27 27 27 27 27 27 27 27 27 27 28 28 28 28 28 28 28 28 28 28 28 28 28 28 28 29 29 29 29 29 29 29 29 29 29 29 29 29 29 29 30 30 30 30 30 30 30 30 30 30 30 30 30 30 30 30 30 30 30 30 30 30 30 30 30 30 30 30 30 30 30 30 30 30 30 30 30 30 30 30 30 30 30 30 30 29 29 29 29 29 29 26 26 26 26 26 26 26 26 26 25 25 25 25 25 25 25 25 25 25 25 25 25 25 25 25 25 25 24 24 24 24 24 24 24 24 24 24 24 24 24 24 24 24 24 24 23 23 23 23 23 23 23 23 23 23 23 23 23 23 23 22 22 22 22 22 22 22 22 22 22 22 22 22 22 22 22 22 22 21 21 21 21 21 21 21 21 21 21 21 21 21 21 21 21 21 21 20 20 20 20 20 20 20 20 20 20 20 20 20 20 20 20 20 20 20 20 20 19 19 19 19 19 19 19 19 19 
16 16 16 16 16 16 16 16 16 17 17 17 17 17 17 17 17 17 17 17 17 17 17 17 17 17 17 17 17 17 17 17 17 18 18 18 18 18 18 18 18 18 18 18 18 18 18 18 18 18 18 18 18 18 18 18 18 22 22 22 22 22 22 23 23 23 23 23 23 23 23 23 23 23 23 23 23 23 23 23 23 24 24 24 24 24 24 24 24 24 24 24 24 24 24 24 25 25 25 25 25 25 25 25 25 25 25 25 25 25 25 25 25 25 26 26 26 26 26 26 24 24 24 24 24 24 24 24 24 24 24 24 25 25 25 25 25 25 25 25 25 25 25 25 25 25 25 26 26 26 26 26 26 26 26 26 26 26 26 26 26 26 27 27 27 27 27 27 27 27 27 27 27 27 27 27 27 28 28 28 28 28 28 28 28 28 28 28 28 29 29 29 29 29 29 29 29 29 29 29 29 30 30 30 30 30 30 30 30 30 30 30 30 30 30 30 31 31 31 31 31 31 31 31 31 31 31 31 31 31 31 31 31 31 31 31 31 31 31 31 31 31 31 31 31 31 31 31 31 31 31 31 31 31 31 31 31 31 30 30 30 30 30 30 30 30 30 30 30 30 29 29 29 26 26 26 26 26 26 25 25 25 25 25 25 25 25 25 25 25 25 25 25 25 25 25 25 24 24 24 24 24 24 24 24 24 24 24 24 24 24 24 23 23 23 23 23 23 23 23 23 23 23 23 23 23 23 23 23 23 22 22 22 22 22 22 22 22 22 22 22 22 22 22 22 21 21 21 21 21 21 21 21 21 21 21 21 21 21 21 21 21 21 20 20 20 20 20 20 20 20 20 20 20 20 20 20 20 20 20 20 20 20 20 19 19 19 19 19 19 
16 16 16 16 16 16 17 17 17 17 17 17 17 17 17 17 17 17 17 17 17 17 17 17 17 17 17 17 17 17 17 17 17 18 18 18 18 18 18 18 18 18 18 18 18 18 18 18 18 18 18 18 18 18 22 22 22 22 22 22 23 23 23 23 23 23 23 23 23 23 23 23 23 23 23 24 24 24 24 24 24 24 24 24 24 24 24 24 24 24 25 25 25 25 25 25 25 25 25 25 25 25 25 25 25 26 26 26 26 26 26 26 26 26 24 24 24 24 24 24 24 24 24 24 24 24 25 25 25 25 25 25 25 25 25 25 25 25 25 25 25 26 26 26 26 26 26 26 26 26 26 26 26 26 26 26 27 27 27 27 27 27 27 27 27 27 27 27 27 27 27 28 28 28 28 28 28 28 28 28 28 28 28 29 29 29 29 29 29 29 29 29 30 30 30 30 30 30 30 30 30 30 30 30 31 31 31 31 31 31 31 31 31 31 31 31 32 32 32 32 32 32 32 32 32 32 32 32 32 32 32 32 32 32 32 32 32 32 32 32 32 32 32 32 32 32 32 32 32 32 32 32 32 32 32 32 32 32 31 31 31 31 31 31 31 31 31 31 31 31 30 30 30 30 30 30 29 29 29 26 26 26 26 26 26 26 26 26 25 25 25 25 25 25 25 25 25 25 25 25 25 25 25 24 24 24 24 24 24 24 24 24 24 24 24 24 24 24 23 23 23 23 23 23 23 23 23 23 23 23 23 23 23 22 22 22 22 22 22 22 22 22 22 22 22 22 22 22 22 22 22 21 21 21 21 21 21 21 21 21 21 21 21 21 21 21 20 20 20 20 20 20 20 20 20 20 20 20 20 20 20 20 20 20 20 20 20 19 19 19 
16 16 16 16 16 16 17 17 17 17 17 17 17 17 17 17 17 17 17 17 17 17 17 17 17 17 17 17 17 17 18 18 18 18 18 18 18 18 18 18 18 18 18 18 18 18 18 18 18 18 18 22 22 22 23 23 23 23 23 23 23 23 23 23 23 23 23 23 23 24 24 24 24 24 24 24 24 24 24 24 24 24 24 24 25 25 25 25 25 25 25 25 25 25 25 25 25 25 25 26 26 26 26 26 26 24 24 24 24 24 24 24 24 24 24 24 24 24 24 24 25 25 25 25 25 25 25 25 25 25 25 25 25 25 25 25 25 25 26 26 26 26 26 26 26 26 26 26 26 26 27 27 27 27 27 27 27 27 27 27 27 27 27 27 27 28 28 28 28 28 28 28 28 28 29 29 29 29 29 29 29 29 29 29 29 29 30 30 30 30 30 30 30 30 30 31 31 31 31 31 31 31 31 31 32 32 32 32 32 32 32 32 32 32 32 32 33 33 33 33 33 33 33 33 33 33 33 33 36 36 36 36 36 36 37 37 37 37 37 37 37 37 37 37 37 37 36 36 36 33 33 33 33 33 33 33 33 33 33 33 33 32 32 32 32 32 32 32 32 32 31 31 31 31 31 31 30 30 30 30 30 30 30 30 30 29 29 29 26 26 26 26 26 26 25 25 25 25 25 25 25 25 25 25 25 25 25 25 25 24 24 24 24 24 24 24 24 24 24 24 24 24 24 24 23 23 23 23 23 23 23 23 23 23 23 23 23 23 23 22 22 22 22 22 22 22 22 22 22 22 22 22 22 22 21 21 21 21 21 21 21 21 21 21 21 21 21 21 21 20 20 20 20 20 20 20 20 20 20 20 20 20 20 20 20 20 20 20 20 20 
16 16 16 17 17 17 17 17 17 17 17 17 17 17 17 17 17 17 17 17 17 17 17 17 17 17 17 18 18 18 18 18 18 18 18 18 18 18 18 18 18 18 18 18 18 18 18 18 22 22 22 23 23 23 23 23 23 23 23 23 23 23 23 23 23 23 24 24 24 24 24 24 24 24 24 24 24 24 24 24 24 25 25 25 25 25 25 25 25 25 25 25 25 26 26 26 26 26 26 24 24 24 24 24 24 24 24 24 24 24 24 24 24 24 24 24 24 25 25 25 25 25 25 25 25 25 25 25 25 25 25 25 26 26 26 26 26 26 26 26 26 26 26 26 26 26 26 27 27 27 27 27 27 27 27 27 27 27 27 28 28 28 28 28 28 28 28 28 29 29 29 29 29 29 29 29 29 29 29 29 30 30 30 30 30 30 30 30 30 31 31 31 31 31 31 31 31 31 32 32 32 32 32 32 33 33 33 33 33 33 33 33 33 34 34 34 34 34 34 35 35 35 36 36 36 37 37 37 38 38 38 39 39 39 40 40 40 41 41 41 41 41 41 40 40 40 39 39 39 38 38 38 37 37 37 36 36 36 35 35 35 34 34 34 33 33 33 33 33 33 32 32 32 32 32 32 31 31 31 31 31 31 30 30 30 30 30 30 29 29 29 29 29 29 26 26 26 26 26 26 25 25 25 25 25 25 25 25 25 25 25 25 24 24 24 24 24 24 24 24 24 24 24 24 24 24 24 23 23 23 23 23 23 23 23 23 23 23 23 23 23 23 22 22 22 22 22 22 22 22 22 22 22 22 22 22 22 21 21 21 21 21 21 21 21 21 21 21 21 21 21 21 21 21 21 20 20 20 20 20 20 20 20 20 20 20 20 20 20 20 
16 16 16 17 17 17 17 17 17 17 17 17 17 17 17 17 17 17 17 17 17 17 17 17 17 17 17 18 18 18 18 18 18 18 18 18 18 18 18 18 18 18 18 18 18 18 18 18 23 23 23 23 23 23 23 23 23 23 23 23 23 23 23 24 24 24 24 24 24 24 24 24 24 24 24 25 25 25 25 25 25 25 25 25 25 25 25 26 26 26 26 26 26 24 24 24 24 24 24 24 24 24 24 24 24 24 24 24 24 24 24 25 25 25 25 25 25 25 25 25 25 25 25 25 25 25 26 26 26 26 26 26 26 26 26 26 26 26 26 26 26 27 27 27 27 27 27 27 27 27 27 27 27 28 28 28 28 28 28 28 28 28 28 28 28 29 29 29 29 29 29 29 29 29 30 30 30 30 30 30 30 30 30 31 31 31 31 31 31 32 32 32 32 32 32 32 32 32 33 33 33 33 33 33 33 33 33 33 33 33 34 34 34 35 35 35 36 36 36 37 37 37 38 38 38 39 39 39 41 41 41 48 48 48 50 50 50 49 49 49 46 46 46 43 43 43 41 41 41 40 40 40 40 40 40 38 38 38 37 37 37 36 36 36 35 35 35 34 34 34 33 33 33 33 33 33 32 32 32 32 32 32 31 31 31 31 31 31 30 30 30 30 30 30 29 29 29 29 29 29 26 26 26 26 26 26 25 25 25 25 25 25 25 25 25 25 25 25 24 24 24 24 24 24 24 24 24 24 24 24 23 23 23 23 23 23 23 23 23 23 23 23 23 23 23 22 22 22 22 22 22 22 22 22 22 22 22 22 22 22 21 21 21 21 21 21 21 21 21 21 21 21 21 21 21 20 20 20 20 20 20 20 20 20 20 20 20 20 20 20 
17 17 17 17 17 17 17 17 17 17 17 17 17 17 17 17 17 17 17 17 17 17 17 17 18 18 18 18 18 18 18 18 18 18 18 18 18 18 18 18 18 18 18 18 18 23 23 23 23 23 23 23 23 23 23 23 23 24 24 24 24 24 24 24 24 24 24 24 24 24 24 24 25 25 25 25 25 25 25 25 25 25 25 25 26 26 26 26 26 26 24 24 24 24 24 24 24 24 24 24 24 24 24 24 24 25 25 25 25 25 25 25 25 25 25 25 25 25 25 25 25 25 25 26 26 26 26 26 26 26 26 26 26 26 26 27 27 27 27 27 27 27 27 27 27 27 27 28 28 28 28 28 28 28 28 28 28 28 28 29 29 29 29 29 29 29 29 29 30 30 30 30 30 30 30 30 30 31 31 31 31 31 31 32 32 32 32 32 32 32 32 32 33 33 33 33 33 33 32 32 32 33 33 33 34 34 34 34 34 34 35 35 35 36 36 36 37 37 37 38 38 38 40 40 40 42 42 42 47 47 47 63 63 63 79 79 79 63 63 63 74 74 74 48 48 48 45 45 45 43 43 43 41 41 41 40 40 40 39 39 39 37 37 37 36 36 36 35 35 35 34 34 34 33 33 33 32 32 32 33 33 33 32 32 32 32 32 32 31 31 31 30 30 30 30 30 30 29 29 29 29 29 29 26 26 26 26 26 26 25 25 25 25 25 25 25 25 25 25 25 25 24 24 24 24 24 24 24 24 24 24 24 24 24 24 24 23 23 23 23 23 23 23 23 23 23 23 23 22 22 22 22 22 22 22 22 22 22 22 22 22 22 22 21 21 21 21 21 21 21 21 21 21 21 21 21 21 21 20 20 20 20 20 20 20 20 20 20 20 20 
17 17 17 17 17 17 17 17 17 17 17 17 17 17 17 17 17 17 17 17 17 17 17 17 18 18 18 18 18 18 18 18 18 18 18 18 18 18 18 18 18 18 23 23 23 23 23 23 23 23 23 23 23 23 24 24 24 24 24 24 24 24 24 24 24 24 25 25 25 25 25 25 25 25 25 25 25 25 26 26 26 26 26 26 24 24 24 24 24 24 24 24 24 24 24 24 24 24 24 24 24 24 25 25 25 25 25 25 25 25 25 25 25 25 25 25 25 26 26 26 26 26 26 26 26 26 26 26 26 26 26 26 27 27 27 27 27 27 27 27 27 27 27 27 28 28 28 28 28 28 28 28 28 29 29 29 29 29 29 29 29 29 30 30 30 30 30 30 30 30 30 31 31 31 31 31 31 31 31 31 32 32 32 32 32 32 33 33 33 33 33 33 32 32 32 33 33 33 33 33 33 34 34 34 34 34 34 35 35 35 36 36 36 37 37 37 39 39 39 40 40 40 41 41 41 44 44 44 48 48 48 55 55 55 70 70 70 133 133 133 67 67 67 55 55 55 49 49 49 47 47 47 45 45 45 43 43 43 42 42 42 39 39 39 38 38 38 36 36 36 35 35 35 34 34 34 33 33 33 33 33 33 33 33 33 33 33 33 32 32 32 31 31 31 31 31 31 30 30 30 30 30 30 29 29 29 29 29 29 26 26 26 26 26 26 25 25 25 25 25 25 25 25 25 25 25 25 24 24 24 24 24 24 24 24 24 24 24 24 23 23 23 23 23 23 23 23 23 23 23 23 22 22 22 22 22 22 22 22 22 22 22 22 22 22 22 21 21 21 21 21 21 21 21 21 21 21 21 21 21 21 20 20 20 20 20 20 20 20 20 
17 17 17 17 17 17 17 17 17 17 17 17 17 17 17 17 17 17 17 17 17 18 18 18 18 18 18 18 18 18 18 18 18 18 18 18 18 18 18 18 18 18 23 23 23 23 23 23 23 23 23 24 24 24 24 24 24 24 24 24 24 24 24 25 25 25 25 25 25 25 25 25 25 25 25 26 26 26 23 23 23 24 24 24 24 24 24 24 24 24 24 24 24 24 24 24 25 25 25 25 25 25 25 25 25 25 25 25 25 25 25 25 25 25 26 26 26 26 26 26 26 26 26 26 26 26 27 27 27 27 27 27 27 27 27 27 27 27 28 28 28 28 28 28 28 28 28 28 28 28 29 29 29 29 29 29 29 29 29 30 30 30 30 30 30 31 31 31 31 31 31 31 31 31 32 32 32 32 32 32 33 33 33 33 33 33 32 32 32 32 32 32 33 33 33 33 33 33 34 34 34 35 35 35 35 35 35 36 36 36 37 37 37 39 39 39 40 40 40 40 40 40 43 43 43 46 46 46 49 49 49 54 54 54 65 65 65 99 99 99 76 76 76 60 60 60 53 53 53 50 50 50 49 49 49 48 48 48 46 46 46 43 43 43 39 39 39 38 38 38 36 36 36 35 35 35 34 34 34 33 33 33 33 33 33 32 32 32 33 33 33 32 32 32 32 32 32 31 31 31 30 30 30 30 30 30 29 29 29 29 29 29 28 28 28 26 26 26 25 25 25 25 25 25 25 25 25 25 25 25 24 24 24 24 24 24 24 24 24 24 24 24 23 23 23 23 23 23 23 23 23 23 23 23 22 22 22 22 22 22 22 22 22 22 22 22 22 22 22 21 21 21 21 21 21 21 21 21 21 21 21 21 21 21 20 20 20 20 20 20 
17 17 17 17 17 17 17 17 17 17 17 17 17 17 17 17 17 17 18 18 18 18 18 18 18 18 18 18 18 18 18 18 18 18 18 18 18 18 18 23 23 23 23 23 23 23 23 23 24 24 24 24 24 24 24 24 24 24 24 24 25 25 25 25 25 25 25 25 25 26 26 26 26 26 26 24 24 24 24 24 24 24 24 24 24 24 24 24 24 24 24 24 24 25 25 25 25 25 25 25 25 25 25 25 25 25 25 25 26 26 26 26 26 26 26 26 26 26 26 26 26 26 26 27 27 27 27 27 27 27 27 27 27 27 27 28 28 28 28 28 28 28 28 28 29 29 29 29 29 29 29 29 29 30 30 30 30 30 30 30 30 30 31 31 31 31 31 31 32 32 32 32 32 32 33 33 33 33 33 33 32 32 32 32 32 32 33 33 33 33 33 33 34 34 34 34 34 34 35 35 35 36 36 36 36 36 36 37 37 37 39 39 39 40 40 40 40 40 40 42 42 42 44 44 44 47 47 47 49 49 49 53 53 53 63 63 63 92 92 92 0 0 0 74 74 74 61 61 61 56 56 56 55 55 55 56 56 56 72 72 72 47 47 47 41 41 41 39 39 39 38 38 38 36 36 36 35 35 35 34 34 34 34 34 34 33 33 33 32 32 32 33 33 33 32 32 32 32 32 32 31 31 31 30 30 30 30 30 30 29 29 29 29 29 29 28 28 28 26 26 26 26 26 26 25 25 25 25 25 25 25 25 25 24 24 24 24 24 24 24 24 24 24 24 24 23 23 23 23 23 23 23 23 23 23 23 23 23 23 23 22 22 22 22 22 22 22 22 22 22 22 22 21 21 21 21 21 21 21 21 21 21 21 21 21 21 21 20 20 20 
17 17 17 17 17 17 17 17 17 17 17 17 17 17 17 17 17 17 18 18 18 18 18 18 18 18 18 18 18 18 18 18 18 18 18 18 23 23 23 23 23 23 23 23 23 24 24 24 24 24 24 24 24 24 25 25 25 25 25 25 25 25 25 25 25 25 26 26 26 23 23 23 24 24 24 24 24 24 24 24 24 24 24 24 24 24 24 25 25 25 25 25 25 25 25 25 25 25 25 25 25 25 26 26 26 26 26 26 26 26 26 26 26 26 26 26 26 27 27 27 27 27 27 27 27 27 27 27 27 28 28 28 28 28 28 28 28 28 28 28 28 29 29 29 29 29 29 29 29 29 30 30 30 30 30 30 31 31 31 31 31 31 31 31 31 32 32 32 32 32 32 33 33 33 33 33 33 32 32 32 32 32 32 33 33 33 33 33 33 34 34 34 34 34 34 35 35 35 36 36 36 36 36 36 37 37 37 39 39 39 40 40 40 40 40 40 41 41 41 43 43 43 45 45 45 47 47 47 50 50 50 54 54 54 62 62 62 90 90 90 103 103 103 114 114 114 71 71 71 66 66 66 63 63 63 70 70 70 100 100 100 56 56 56 47 47 47 40 40 40 39 39 39 38 38 38 36 36 36 35 35 35 35 35 35 34 34 34 33 33 33 32 32 32 33 33 33 33 33 33 32 32 32 31 31 31 30 30 30 30 30 30 29 29 29 29 29 29 28 28 28 28 28 28 26 26 26 25 25 25 25 25 25 25 25 25 25 25 25 24 24 24 24 24 24 24 24 24 23 23 23 23 23 23 23 23 23 23 23 23 22 22 22 22 22 22 22 22 22 22 22 22 22 22 22 21 21 21 21 21 21 21 21 21 21 21 21 21 21 21 
17 17 17 17 17 17 17 17 17 17 17 17 17 17 17 18 18 18 18 18 18 18 18 18 18 18 18 18 18 18 18 18 18 18 18 18 23 23 23 23 23 23 24 24 24 24 24 24 24 24 24 25 25 25 25 25 25 25 25 25 25 25 25 26 26 26 24 24 24 24 24 24 24 24 24 24 24 24 24 24 24 24 24 24 25 25 25 25 25 25 25 25 25 25 25 25 25 25 25 26 26 26 26 26 26 26 26 26 26 26 26 26 26 26 27 27 27 27 27 27 27 27 27 27 27 27 28 28 28 28 28 28 28 28 28 29 29 29 29 29 29 29 29 29 30 30 30 30 30 30 30 30 30 31 31 31 31 31 31 32 32 32 32 32 32 33 33 33 33 33 33 32 32 32 32 32 32 33 33 33 33 33 33 33 33 33 34 34 34 35 35 35 35 35 35 36 36 36 37 37 37 37 37 37 38 38 38 40 40 40 40 40 40 41 41 41 42 42 42 44 44 44 46 46 46 48 48 48 52 52 52 56 56 56 63 63 63 71 71 71 86 86 86 160 160 160 86 86 86 80 80 80 151 151 151 117 117 117 80 80 80 59 59 59 48 48 48 45 45 45 40 40 40 39 39 39 38 38 38 36 36 36 36 36 36 35 35 35 34 34 34 33 33 33 33 33 33 32 32 32 33 33 33 32 32 32 31 31 31 30 30 30 30 30 30 29 29 29 29 29 29 28 28 28 28 28 28 26 26 26 25 25 25 25 25 25 25 25 25 25 25 25 24 24 24 24 24 24 24 24 24 23 23 23 23 23 23 23 23 23 23 23 23 22 22 22 22 22 22 22 22 22 22 22 22 22 22 22 21 21 21 21 21 21 21 21 21 21 21 21 
17 17 17 17 17 17 17 17 17 17 17 17 17 17 17 18 18 18 18 18 18 18 18 18 18 18 18 18 18 18 18 18 18 23 23 23 23 23 23 24 24 24 24 24 24 24 24 24 25 25 25 25 25 25 25 25 25 26 26 26 26 26 26 24 24 24 24 24 24 24 24 24 24 24 24 24 24 24 25 25 25 25 25 25 25 25 25 25 25 25 25 25 25 26 26 26 26 26 26 26 26 26 26 26 26 26 26 26 27 27 27 27 27 27 27 27 27 27 27 27 28 28 28 28 28 28 28 28 28 28 28 28 29 29 29 29 29 29 29 29 29 30 30 30 30 30 30 30 30 30 31 31 31 31 31 31 32 32 32 32 32 32 33 33 33 33 33 33 32 32 32 32 32 32 33 33 33 33 33 33 34 34 34 34 34 34 35 35 35 35 35 35 36 36 36 37 37 37 37 37 37 38 38 38 39 39 39 41 41 41 41 41 41 42 42 42 43 43 43 45 45 45 47 47 47 51 51 51 54 54 54 58 58 58 62 62 62 70 70 70 80 80 80 103 103 103 147 147 147 131 131 131 113 113 113 86 86 86 66 66 66 56 56 56 50 50 50 47 47 47 43 43 43 40 40 40 39 39 39 38 38 38 37 37 37 36 36 36 35 35 35 34 34 34 33 33 33 33 33 33 32 32 32 33 33 33 32 32 32 31 31 31 30 30 30 30 30 30 29 29 29 28 28 28 28 28 28 27 27 27 26 26 26 26 26 26 25 25 25 25 25 25 25 25 25 24 24 24 24 24 24 24 24 24 23 23 23 23 23 23 23 23 23 23 23 23 22 22 22 22 22 22 22 22 22 22 22 22 22 22 22 21 21 21 21 21 21 21 21 21 
17 17 17 17 17 17 17 17 17 17 17 17 18 18 18 18 18 18 18 18 18 18 18 18 18 18 18 18 18 18 18 18 18 23 23 23 24 24 24 24 24 24 24 24 24 25 25 25 25 25 25 25 25 25 26 26 26 26 26 26 24 24 24 24 24 24 24 24 24 24 24 24 24 24 24 25 25 25 25 25 25 25 25 25 25 25 25 25 25 25 26 26 26 26 26 26 26 26 26 26 26 26 26 26 26 27 27 27 27 27 27 27 27 27 27 27 27 28 28 28 28 28 28 28 28 28 29 29 29 29 29 29 29 29 29 30 30 30 30 30 30 30 30 30 31 31 31 31 31 31 31 31 31 32 32 32 32 32 32 33 33 33 32 32 32 32 32 32 33 33 33 33 33 33 33 33 33 34 34 34 34 34 34 35 35 35 35 35 35 36 36 36 37 37 37 38 38 38 38 38 38 39 39 39 41 41 41 41 41 41 42 42 42 43 43 43 44 44 44 46 46 46 48 48 48 53 53 53 56 56 56 60 60 60 64 64 64 70 70 70 80 80 80 93 93 93 148 148 148 105 105 105 84 84 84 72 72 72 62 62 62 56 56 56 51 51 51 48 48 48 45 45 45 42 42 42 40 40 40 39 39 39 38 38 38 37 37 37 36 36 36 35 35 35 34 34 34 34 34 34 33 33 33 32 32 32 33 33 33 32 32 32 31 31 31 30 30 30 30 30 30 29 29 29 28 28 28 28 28 28 27 27 27 26 26 26 26 26 26 25 25 25 25 25 25 25 25 25 24 24 24 24 24 24 24 24 24 23 23 23 23 23 23 23 23 23 23 23 23 22 22 22 22 22 22 22 22 22 22 22 22 21 21 21 21 21 21 21 21 21 
17 17 17 17 17 17 17 17 17 17 17 17 18 18 18 18 18 18 18 18 18 18 18 18 18 18 18 18 18 18 23 23 23 24 24 24 24 24 24 24 24 24 25 25 25 25 25 25 25 25 25 26 26 26 26 26 26 24 24 24 24 24 24 24 24 24 24 24 24 25 25 25 25 25 25 25 25 25 25 25 25 25 25 25 25 25 25 26 26 26 26 26 26 26 26 26 26 26 26 27 27 27 27 27 27 27 27 27 27 27 27 28 28 28 28 28 28 28 28 28 28 28 28 29 29 29 29 29 29 29 29 29 30 30 30 30 30 30 30 30 30 31 31 31 31 31 31 32 32 32 32 32 32 33 33 33 33 33 33 32 32 32 33 33 33 33 33 33 33 33 33 34 34 34 34 34 34 35 35 35 35 35 35 36 36 36 36 36 36 37 37 37 38 38 38 38 38 38 39 39 39 40 40 40 41 41 41 42 42 42 43 43 43 44 44 44 46 46 46 47 47 47 52 52 52 55 55 55 59 59 59 63 63 63 68 68 68 76 76 76 91 91 91 111 111 111 0 0 0 113 113 113 85 85 85 72 72 72 64 64 64 58 58 58 54 54 54 49 49 49 46 46 46 43 43 43 41 41 41 40 40 40 39 39 39 38 38 38 37 37 37 36 36 36 35 35 35 34 34 34 34 34 34 33 33 33 33 33 33 32 32 32 32 32 32 31 31 31 30 30 30 29 29 29 29 29 29 28 28 28 28 28 28 27 27 27 26 26 26 26 26 26 25 25 25 25 25 25 25 25 25 24 24 24 24 24 24 24 24 24 23 23 23 23 23 23 23 23 23 23 23 23 22 22 22 22 22 22 22 22 22 22 22 22 21 21 21 21 21 21 
17 17 17 17 17 17 17 17 17 18 18 18 18 18 18 18 18 18 18 18 18 18 18 18 18 18 18 18 18 18 24 24 24 24 24 24 24 24 24 25 25 25 25 25 25 25 25 25 26 26 26 26 26 26 24 24 24 24 24 24 24 24 24 24 24 24 25 25 25 25 25 25 25 25 25 25 25 25 25 25 25 26 26 26 26 26 26 26 26 26 26 26 26 26 26 26 27 27 27 27 27 27 27 27 27 27 27 27 28 28 28 28 28 28 28 28 28 28 28 28 29 29 29 29 29 29 29 29 29 30 30 30 30 30 30 30 30 30 31 31 31 31 31 31 32 32 32 32 32 32 33 33 33 33 33 33 32 32 32 33 33 33 33 33 33 34 34 34 34 34 34 34 34 34 35 35 35 35 35 35 36 36 36 36 36 36 37 37 37 38 38 38 39 39 39 39 39 39 40 40 40 41 41 41 42 42 42 43 43 43 45 45 45 46 46 46 47 47 47 51 51 51 55 55 55 60 60 60 67 67 67 71 71 71 76 76 76 0 0 0 151 151 151 162 162 162 0 0 0 126 126 126 171 171 171 76 76 76 67 67 67 63 63 63 56 56 56 51 51 51 47 47 47 45 45 45 43 43 43 41 41 41 41 41 41 39 39 39 38 38 38 37 37 37 36 36 36 36 36 36 35 35 35 34 34 34 33 33 33 33 33 33 32 32 32 31 31 31 31 31 31 30 30 30 29 29 29 29 29 29 28 28 28 28 28 28 27 27 27 26 26 26 26 26 26 25 25 25 25 25 25 25 25 25 24 24 24 24 24 24 24 24 24 23 23 23 23 23 23 23 23 23 23 23 23 22 22 22 22 22 22 22 22 22 22 22 22 21 21 21 
17 17 17 17 17 17 17 17 17 18 18 18 18 18 18 18 18 18 18 18 18 18 18 18 18 18 18 24 24 24 24 24 24 24 24 24 25 25 25 25 25 25 25 25 25 26 26 26 26 26 26 24 24 24 24 24 24 24 24 24 24 24 24 25 25 25 25 25 25 25 25 25 25 25 25 25 25 25 26 26 26 26 26 26 26 26 26 26 26 26 27 27 27 27 27 27 27 27 27 27 27 27 28 28 28 28 28 28 28 28 28 28 28 28 29 29 29 29 29 29 29 29 29 30 30 30 30 30 30 30 30 30 31 31 31 31 31 31 31 31 31 32 32 32 32 32 32 33 33 33 33 33 33 33 33 33 33 33 33 33 33 33 34 34 34 34 34 34 35 35 35 35 35 35 36 36 36 36 36 36 37 37 37 37 37 37 38 38 38 39 39 39 40 40 40 40 40 40 42 42 42 43 43 43 44 44 44 45 45 45 46 46 46 47 47 47 51 51 51 54 54 54 63 63 63 69 69 69 131 131 131 89 89 89 87 87 87 102 102 102 144 144 144 0 0 0 0 0 0 0 0 0 137 137 137 84 84 84 75 75 75 71 71 71 66 66 66 54 54 54 48 48 48 46 46 46 44 44 44 42 42 42 41 41 41 40 40 40 40 40 40 39 39 39 38 38 38 37 37 37 36 36 36 35 35 35 34 34 34 33 33 33 33 33 33 32 32 32 31 31 31 30 30 30 30 30 30 29 29 29 29 29 29 28 28 28 27 27 27 27 27 27 26 26 26 26 26 26 25 25 25 25 25 25 25 25 25 24 24 24 24 24 24 24 24 24 23 23 23 23 23 23 23 23 23 23 23 23 22 22 22 22 22 22 22 22 22 22 22 22 
17 17 17 17 17 17 18 18 18 18 18 18 18 18 18 18 18 18 18 18 18 18 18 18 18 18 18 24 24 24 24 24 24 25 25 25 25 25 25 25 25 25 26 26 26 26 26 26 24 24 24 24 24 24 24 24 24 25 25 25 25 25 25 25 25 25 25 25 25 25 25 25 26 26 26 26 26 26 26 26 26 26 26 26 26 26 26 27 27 27 27 27 27 27 27 27 27 27 27 28 28 28 28 28 28 28 28 28 28 28 28 29 29 29 29 29 29 29 29 29 30 30 30 30 30 30 30 30 30 31 31 31 31 31 31 32 32 32 32 32 32 32 32 32 33 33 33 33 33 33 33 33 33 33 33 33 34 34 34 34 34 34 35 35 35 35 35 35 35 35 35 36 36 36 36 36 36 37 37 37 38 38 38 38 38 38 39 39 39 40 40 40 41 41 41 43 43 43 44 44 44 45 45 45 46 46 46 47 47 47 48 48 48 51 51 51 53 53 53 60 60 60 95 95 95 119 119 119 140 140 140 119 119 119 113 113 113 213 213 213 163 163 163 0 0 0 0 0 0 243 243 243 122 122 122 96 96 96 91 91 91 118 118 118 92 92 92 59 59 59 52 52 52 47 47 47 45 45 45 44 44 44 42 42 42 41 41 41 40 40 40 40 40 40 39 39 39 38 38 38 37 37 37 36 36 36 35 35 35 34 34 34 33 33 33 33 33 33 32 32 32 31 31 31 30 30 30 30 30 30 29 29 29 28 28 28 28 28 28 27 27 27 27 27 27 26 26 26 26 26 26 25 25 25 25 25 25 25 25 25 24 24 24 24 24 24 24 24 24 23 23 23 23 23 23 23 23 23 22 22 22 22 22 22 22 22 22 22 22 22 
17 17 17 17 17 17 18 18 18 18 18 18 18 18 18 18 18 18 18 18 18 18 18 18 24 24 24 24 24 24 24 24 24 25 25 25 25 25 25 26 26 26 26 26 26 24 24 24 24 24 24 24 24 24 25 25 25 25 25 25 25 25 25 25 25 25 25 25 25 26 26 26 26 26 26 26 26 26 26 26 26 27 27 27 27 27 27 27 27 27 27 27 27 27 27 27 28 28 28 28 28 28 28 28 28 29 29 29 29 29 29 29 29 29 29 29 29 30 30 30 30 30 30 30 30 30 31 31 31 31 31 31 32 32 32 32 32 32 33 33 33 33 33 33 33 33 33 33 33 33 34 34 34 34 34 34 35 35 35 35 35 35 35 35 35 36 36 36 36 36 36 37 37 37 37 37 37 38 38 38 39 39 39 39 39 39 40 40 40 41 41 41 43 43 43 44 44 44 46 46 46 47 47 47 48 48 48 49 49 49 51 51 51 53 53 53 57 57 57 65 65 65 84 84 84 104 104 104 175 175 175 164 164 164 169 169 169 0 0 0 0 0 0 0 0 0 0 0 0 0 0 0 233 233 233 126 126 126 118 118 118 131 131 131 80 80 80 62 62 62 55 55 55 51 51 51 47 47 47 45 45 45 44 44 44 43 43 43 41 41 41 40 40 40 41 41 41 40 40 40 38 38 38 37 37 37 36 36 36 35 35 35 34 34 34 33 33 33 32 32 32 32 32 32 31 31 31 30 30 30 29 29 29 29 29 29 28 28 28 28 28 28 27 27 27 27 27 27 26 26 26 26 26 26 25 25 25 25 25 25 24 24 24 24 24 24 24 24 24 24 24 24 23 23 23 23 23 23 23 23 23 22 22 22 22 22 22 22 22 22 
17 17 17 17 17 17 18 18 18 18 18 18 18 18 18 18 18 18 18 18 18 18 18 18 24 24 24 24 24 24 25 25 25 25 25 25 25 25 25 26 26 26 24 24 24 24 24 24 25 25 25 25 25 25 25 25 25 25 25 25 25 25 25 26 26 26 26 26 26 26 26 26 26 26 26 26 26 26 27 27 27 27 27 27 27 27 27 27 27 27 28 28 28 28 28 28 28 28 28 28 28 28 29 29 29 29 29 29 29 29 29 30 30 30 30 30 30 30 30 30 31 31 31 31 31 31 31 31 31 32 32 32 32 32 32 33 33 33 33 33 33 33 33 33 34 34 34 34 34 34 34 34 34 35 35 35 35 35 35 36 36 36 36 36 36 37 37 37 37 37 37 38 38 38 38 38 38 39 39 39 40 40 40 40 40 40 43 43 43 44 44 44 46 46 46 47 47 47 48 48 48 48 48 48 49 49 49 51 51 51 53 53 53 55 55 55 59 59 59 64 64 64 73 73 73 86 86 86 151 151 151 0 0 0 0 0 0 0 0 0 0 0 0 0 0 0 0 0 0 0 0 0 0 0 0 0 0 0 195 195 195 125 125 125 125 125 125 63 63 63 56 56 56 53 53 53 48 48 48 47 47 47 45 45 45 44 44 44 43 43 43 42 42 42 41 41 41 40 40 40 40 40 40 39 39 39 38 38 38 37 37 37 35 35 35 34 34 34 33 33 33 32 32 32 31 31 31 31 31 31 30 30 30 29 29 29 29 29 29 28 28 28 27 27 27 27 27 27 26 26 26 26 26 26 25 25 25 25 25 25 25 25 25 24 24 24 24 24 24 24 24 24 23 23 23 23 23 23 23 23 23 23 23 23 22 22 22 22 22 22 
17 17 17 18 18 18 18 18 18 18 18 18 18 18 18 18 18 18 18 18 18 24 24 24 24 24 24 25 25 25 25 25 25 25 25 25 26 26 26 24 24 24 24 24 24 25 25 25 25 25 25 25 25 25 25 25 25 25 25 25 26 26 26 26 26 26 26 26 26 26 26 26 27 27 27 27 27 27 27 27 27 27 27 27 27 27 27 28 28 28 28 28 28 28 28 28 29 29 29 29 29 29 29 29 29 29 29 29 30 30 30 30 30 30 30 30 30 31 31 31 31 31 31 31 31 31 32 32 32 32 32 32 33 33 33 33 33 33 34 34 34 34 34 34 34 34 34 35 35 35 35 35 35 36 36 36 36 36 36 37 37 37 37 37 37 38 38 38 38 38 38 39 39 39 39 39 39 40 40 40 41 41 41 44 44 44 45 45 45 47 47 47 48 48 48 48 48 48 49 49 49 50 50 50 52 52 52 53 53 53 55 55 55 57 57 57 61 61 61 65 65 65 73 73 73 91 91 91 123 123 123 209 209 209 0 0 0 0 0 0 0 0 0 0 0 0 0 0 0 0 0 0 0 0 0 0 0 0 0 0 0 101 101 101 78 78 78 65 65 65 59 59 59 56 56 56 52 52 52 50 50 50 47 47 47 46 46 46 45 45 45 44 44 44 43 43 43 42 42 42 41 41 41 41 41 41 39 39 39 38 38 38 37 37 37 35 35 35 34 34 34 33 33 33 32 32 32 31 31 31 30 30 30 30 30 30 29 29 29 28 28 28 28 28 28 27 27 27 27 27 27 26 26 26 26 26 26 25 25 25 25 25 25 25 25 25 24 24 24 24 24 24 24 24 24 23 23 23 23 23 23 23 23 23 22 22 22 22 22 22 
17 17 17 18 18 18 18 18 18 18 18 18 18 18 18 18 18 18 18 18 18 24 24 24 25 25 25 25 25 25 25 25 25 26 26 26 24 24 24 24 24 24 25 25 25 25 25 25 25 25 25 25 25 25 26 26 26 26 26 26 26 26 26 26 26 26 26 26 26 27 27 27 27 27 27 27 27 27 27 27 27 28 28 28 28 28 28 28 28 28 28 28 28 29 29 29 29 29 29 29 29 29 29 29 29 30 30 30 30 30 30 30 30 30 31 31 31 31 31 31 32 32 32 32 32 32 32 32 32 33 33 33 33 33 33 34 34 34 35 35 35 35 35 35 35 35 35 36 36 36 36 36 36 37 37 37 37 37 37 38 38 38 38 38 38 39 39 39 39 39 39 40 40 40 40 40 40 44 44 44 45 45 45 46 46 46 48 48 48 49 49 49 50 50 50 50 50 50 51 51 51 53 53 53 54 54 54 55 55 55 57 57 57 60 60 60 63 63 63 67 67 67 75 75 75 120 120 120 210 210 210 0 0 0 0 0 0 0 0 0 0 0 0 0 0 0 0 0 0 0 0 0 0 0 0 0 0 0 163 163 163 0 0 0 77 77 77 66 66 66 61 61 61 57 57 57 55 55 55 52 52 52 50 50 50 48 48 48 47 47 47 47 47 47 46 46 46 45 45 45 44 44 44 43 43 43 41 41 41 40 40 40 38 38 38 37 37 37 35 35 35 33 33 33 32 32 32 31 31 31 31 31 31 30 30 30 29 29 29 29 29 29 28 28 28 27 27 27 27 27 27 26 26 26 26 26 26 26 26 26 25 25 25 25 25 25 25 25 25 24 24 24 24 24 24 24 24 24 23 23 23 23 23 23 23 23 23 22 22 22 
18 18 18 18 18 18 18 18 18 18 18 18 18 18 18 18 18 18 18 18 18 24 24 24 25 25 25 25 25 25 26 26 26 24 24 24 25 25 25 25 25 25 25 25 25 25 25 25 25 25 25 26 26 26 26 26 26 26 26 26 26 26 26 27 27 27 27 27 27 27 27 27 27 27 27 28 28 28 28 28 28 28 28 28 28 28 28 28 28 28 29 29 29 29 29 29 29 29 29 30 30 30 30 30 30 30 30 30 31 31 31 31 31 31 31 31 31 32 32 32 32 32 32 32 32 32 33 33 33 33 33 33 35 35 35 35 35 35 35 35 35 36 36 36 36 36 36 37 37 37 37 37 37 38 38 38 38 38 38 39 39 39 39 39 39 40 40 40 40 40 40 41 41 41 44 44 44 46 46 46 47 47 47 51 51 51 52 52 52 53 53 53 53 53 53 54 54 54 55 55 55 56 56 56 57 57 57 58 58 58 60 60 60 62 62 62 67 67 67 71 71 71 79 79 79 95 95 95 131 131 131 0 0 0 0 0 0 0 0 0 0 0 0 0 0 0 0 0 0 0 0 0 0 0 0 0 0 0 0 0 0 0 0 0 79 79 79 69 69 69 64 64 64 61 61 61 58 58 58 55 55 55 52 52 52 51 51 51 49 49 49 48 48 48 48 48 48 48 48 48 47 47 47 46 46 46 45 45 45 43 43 43 40 40 40 38 38 38 37 37 37 35 35 35 33 33 33 32 32 32 31 31 31 30 30 30 30 30 30 29 29 29 28 28 28 28 28 28 27 27 27 27 27 27 26 26 26 26 26 26 26 26 26 25 25 25 25 25 25 24 24 24 24 24 24 24 24 24 23 23 23 23 23 23 23 23 23 23 23 23 
18 18 18 18 18 18 18 18 18 18 18 18 18 18 18 18 18 18 24 24 24 25 25 25 25 25 25 26 26 26 26 26 26 25 25 25 25 25 25 25 25 25 25 25 25 26 26 26 26 26 26 26 26 26 26 26 26 26 26 26 27 27 27 27 27 27 27 27 27 27 27 27 28 28 28 28 28 28 28 28 28 28 28 28 29 29 29 29 29 29 29 29 29 29 29 29 30 30 30 30 30 30 30 30 30 31 31 31 31 31 31 31 31 31 32 32 32 32 32 32 33 33 33 33 33 33 35 35 35 35 35 35 35 35 35 36 36 36 36 36 36 37 37 37 37 37 37 38 38 38 38 38 38 39 39 39 39 39 39 40 40 40 40 40 40 41 41 41 43 43 43 45 45 45 46 46 46 48 48 48 55 55 55 56 56 56 58 58 58 61 61 61 62 62 62 62 62 62 61 61 61 61 61 61 61 61 61 62 62 62 66 66 66 69 69 69 71 71 71 76 76 76 81 81 81 91 91 91 216 216 216 0 0 0 0 0 0 0 0 0 0 0 0 0 0 0 0 0 0 0 0 0 0 0 0 0 0 0 0 0 0 95 95 95 81 81 81 74 74 74 69 69 69 66 66 66 63 63 63 60 60 60 55 55 55 54 54 54 52 52 52 51 51 51 51 51 51 51 51 51 51 51 51 52 52 52 53 53 53 47 47 47 44 44 44 40 40 40 38 38 38 36 36 36 35 35 35 32 32 32 32 32 32 31 31 31 30 30 30 29 29 29 29 29 29 28 28 28 28 28 28 27 27 27 26 26 26 26 26 26 26 26 26 26 26 26 25 25 25 25 25 25 24 24 24 24 24 24 24 24 24 23 23 23 23 23 23 23 23 23 
18 18 18 18 18 18 18 18 18 18 18 18 18 18 18 18 18 18 25 25 25 25 25 25 25 25 25 26 26 26 25 25 25 25 25 25 25 25 25 25 25 25 26 26 26 26 26 26 26 26 26 26 26 26 27 27 27 27 27 27 27 27 27 27 27 27 28 28 28 28 28 28 28 28 28 28 28 28 29 29 29 29 29 29 29 29 29 29 29 29 30 30 30 30 30 30 30 30 30 30 30 30 31 31 31 31 31 31 32 32 32 32 32 32 32 32 32 33 33 33 33 33 33 35 35 35 35 35 35 36 36 36 36 36 36 37 37 37 37 37 37 38 38 38 38 38 38 39 39 39 39 39 39 40 40 40 40 40 40 41 41 41 42 42 42 44 44 44 45 45 45 47 47 47 51 51 51 60 60 60 72 72 72 71 71 71 69 69 69 76 76 76 153 153 153 77 77 77 67 67 67 66 66 66 68 68 68 70 70 70 77 77 77 80 80 80 81 81 81 82 82 82 88 88 88 97 97 97 111 111 111 168 168 168 0 0 0 0 0 0 0 0 0 0 0 0 0 0 0 0 0 0 0 0 0 0 0 0 119 119 119 98 98 98 87 87 87 81 81 81 75 75 75 74 74 74 81 81 81 72 72 72 63 63 63 59 59 59 56 56 56 55 55 55 55 55 55 55 55 55 56 56 56 63 63 63 99 99 99 63 63 63 49 49 49 44 44 44 39 39 39 37 37 37 36 36 36 33 33 33 32 32 32 31 31 31 30 30 30 30 30 30 29 29 29 28 28 28 28 28 28 27 27 27 27 27 27 26 26 26 26 26 26 26 26 26 25 25 25 25 25 25 25 25 25 24 24 24 24 24 24 24 24 24 23 23 23 23 23 23 
18 18 18 18 18 18 18 18 18 18 18 18 18 18 18 24 24 24 25 25 25 25 25 25 26 26 26 25 25 25 25 25 25 25 25 25 26 26 26 26 26 26 26 26 26 26 26 26 26 26 26 27 27 27 27 27 27 27 27 27 27 27 27 28 28 28 28 28 28 28 28 28 28 28 28 29 29 29 29 29 29 29 29 29 29 29 29 30 30 30 30 30 30 30 30 30 31 31 31 31 31 31 31 31 31 32 32 32 32 32 32 32 32 32 33 33 33 33 33 33 36 36 36 36 36 36 36 36 36 37 37 37 37 37 37 38 38 38 38 38 38 39 39 39 39 39 39 40 40 40 40 40 40 41 41 41 42 42 42 43 43 43 44 44 44 45 45 45 47 47 47 50 50 50 55 55 55 65 65 65 116 116 116 127 127 127 120 120 120 119 119 119 192 192 192 86 86 86 75 75 75 73 73 73 75 75 75 85 85 85 0 0 0 252 252 252 98 98 98 104 104 104 143 143 143 112 112 112 122 122 122 141 141 141 188 188 188 0 0 0 0 0 0 0 0 0 0 0 0 0 0 0 0 0 0 152 152 152 125 125 125 118 118 118 104 104 104 0 0 0 89 89 89 89 89 89 116 116 116 122 122 122 76 76 76 65 65 65 62 62 62 60 60 60 59 59 59 60 60 60 62 62 62 68 68 68 89 89 89 112 112 112 54 54 54 48 48 48 43 43 43 39 39 39 37 37 37 35 35 35 33 33 33 32 32 32 31 31 31 30 30 30 29 29 29 29 29 29 28 28 28 28 28 28 27 27 27 26 26 26 26 26 26 26 26 26 26 26 26 25 25 25 25 25 25 24 24 24 24 24 24 24 24 24 23 23 23 23 23 23 
18 18 18 18 18 18 18 18 18 18 18 18 18 18 18 25 25 25 25 25 25 25 25 25 26 26 26 25 25 25 25 25 25 26 26 26 26 26 26 26 26 26 26 26 26 27 27 27 27 27 27 27 27 27 27 27 27 28 28 28 28 28 28 28 28 28 28 28 28 29 29 29 29 29 29 29 29 29 29 29 29 30 30 30 30 30 30 30 30 30 30 30 30 31 31 31 31 31 31 31 31 31 32 32 32 32 32 32 33 33 33 33 33 33 33 33 33 36 36 36 37 37 37 37 37 37 37 37 37 38 38 38 38 38 38 39 39 39 40 40 40 40 40 40 41 41 41 40 40 40 41 41 41 42 42 42 43 43 43 44 44 44 45 45 45 47 47 47 49 49 49 52 52 52 56 56 56 64 64 64 80 80 80 112 112 112 0 0 0 175 175 175 118 118 118 101 101 101 100 100 100 85 85 85 86 86 86 183 183 183 218 218 218 0 0 0 137 137 137 204 204 204 0 0 0 224 224 224 227 227 227 0 0 0 0 0 0 0 0 0 0 0 0 0 0 0 0 0 0 0 0 0 0 0 0 0 0 0 0 0 0 0 0 0 160 160 160 0 0 0 153 153 153 115 115 115 168 168 168 0 0 0 102 102 102 72 72 72 69 69 69 67 67 67 67 67 67 68 68 68 70 70 70 78 78 78 192 192 192 78 78 78 59 59 59 51 51 51 45 45 45 40 40 40 38 38 38 36 36 36 33 33 33 32 32 32 31 31 31 30 30 30 30 30 30 29 29 29 28 28 28 28 28 28 27 27 27 27 27 27 26 26 26 26 26 26 26 26 26 25 25 25 25 25 25 25 25 25 24 24 24 24 24 24 24 24 24 23 23 23 
18 18 18 18 18 18 18 18 18 18 18 18 18 18 18 25 25 25 25 25 25 26 26 26 25 25 25 25 25 25 26 26 26 26 26 26 26 26 26 27 27 27 27 27 27 27 27 27 27 27 27 28 28 28 28 28 28 28 28 28 28 28 28 29 29 29 29 29 29 29 29 29 29 29 29 30 30 30 30 30 30 30 30 30 30 30 30 31 31 31 31 31 31 31 31 31 32 32 32 32 32 32 32 32 32 33 33 33 33 33 33 33 33 33 37 37 37 37 37 37 38 38 38 38 38 38 39 39 39 39 39 39 40 40 40 40 40 40 41 41 41 40 40 40 41 41 41 41 41 41 42 42 42 43 43 43 44 44 44 46 46 46 47 47 47 48 48 48 50 50 50 54 54 54 57 57 57 63 63 63 106 106 106 0 0 0 152 152 152 0 0 0 0 0 0 161 161 161 235 235 235 104 104 104 98 98 98 114 114 114 0 0 0 0 0 0 0 0 0 0 0 0 0 0 0 0 0 0 0 0 0 0 0 0 0 0 0 0 0 0 0 0 0 0 0 0 0 0 0 0 0 0 0 0 0 0 0 0 0 0 0 0 0 0 0 0 0 0 0 0 0 0 0 0 0 0 0 0 0 200 200 200 101 101 101 82 82 82 77 77 77 81 81 81 122 122 122 97 97 97 82 82 82 89 89 89 124 124 124 88 88 88 73 73 73 59 59 59 46 46 46 42 42 42 39 39 39 37 37 37 35 35 35 32 32 32 32 32 32 31 31 31 30 30 30 29 29 29 29 29 29 28 28 28 27 27 27 27 27 27 26 26 26 26 26 26 25 25 25 26 26 26 25 25 25 25 25 25 25 25 25 24 24 24 24 24 24 23 23 23 
18 18 18 18 18 18 18 18 18 18 18 18 25 25 25 25 25 25 26 26 26 25 25 25 26 26 26 26 26 26 26 26 26 26 26 26 27 27 27 27 27 27 27 27 27 27 27 27 28 28 28 28 28 28 28 28 28 28 28 28 29 29 29 29 29 29 29 29 29 29 29 29 30 30 30 30 30 30 30 30 30 31 31 31 31 31 31 31 31 31 31 31 31 32 32 32 32 32 32 32 32 32 33 33 33 33 33 33 37 37 37 37 37 37 38 38 38 38 38 38 39 39 39 39 39 39 40 40 40 41 41 41 39 39 39 40 40 40 40 40 40 41 41 41 42 42 42 42 42 42 43 43 43 44 44 44 46 46 46 47 47 47 47 47 47 49 49 49 52 52 52 55 55 55 59 59 59 66 66 66 84 84 84 99 99 99 128 128 128 0 0 0 0 0 0 0 0 0 0 0 0 132 132 132 159 159 159 0 0 0 0 0 0 0 0 0 0 0 0 0 0 0 0 0 0 0 0 0 0 0 0 0 0 0 0 0 0 0 0 0 0 0 0 0 0 0 0 0 0 0 0 0 0 0 0 0 0 0 0 0 0 0 0 0 0 0 0 0 0 0 0 0 0 0 0 0 0 0 0 176 176 176 123 123 123 102 102 102 89 89 89 96 96 96 133 133 133 187 187 187 114 114 114 114 114 114 133 133 133 175 175 175 121 121 121 61 61 61 47 47 47 43 43 43 40 40 40 38 38 38 36 36 36 33 33 33 32 32 32 31 31 31 30 30 30 30 30 30 29 29 29 28 28 28 28 28 28 27 27 27 27 27 27 26 26 26 26 26 26 25 25 25 26 26 26 25 25 25 25 25 25 24 24 24 24 24 24 24 24 24 
18 18 18 18 18 18 18 18 18 18 18 18 25 25 25 25 25 25 26 26 26 26 26 26 26 26 26 26 26 26 26 26 26 27 27 27 27 27 27 27 27 27 28 28 28 28 28 28 28 28 28 28 28 28 29 29 29 29 29 29 29 29 29 29 29 29 30 30 30 30 30 30 30 30 30 31 31 31 31 31 31 31 31 31 31 31 31 32 32 32 32 32 32 32 32 32 33 33 33 33 33 33 33 33 33 37 37 37 38 38 38 38 38 38 39 39 39 40 40 40 40 40 40 41 41 41 40 40 40 40 40 40 40 40 40 41 41 41 41 41 41 42 42 42 43 43 43 44 44 44 45 45 45 46 46 46 47 47 47 47 47 47 49 49 49 51 51 51 53 53 53 57 57 57 61 61 61 67 67 67 75 75 75 90 90 90 0 0 0 0 0 0 0 0 0 0 0 0 0 0 0 180 180 180 0 0 0 0 0 0 0 0 0 0 0 0 0 0 0 0 0 0 0 0 0 0 0 0 0 0 0 0 0 0 0 0 0 0 0 0 0 0 0 0 0 0 0 0 0 0 0 0 0 0 0 0 0 0 0 0 0 0 0 0 0 0 0 0 0 0 0 0 0 0 0 0 0 0 0 0 0 0 0 0 0 0 0 0 109 109 109 171 171 171 0 0 0 0 0 0 206 206 206 0 0 0 0 0 0 0 0 0 82 82 82 58 58 58 48 48 48 43 43 43 41 41 41 39 39 39 37 37 37 33 33 33 32 32 32 31 31 31 31 31 31 30 30 30 29 29 29 29 29 29 28 28 28 27 27 27 27 27 27 26 26 26 26 26 26 25 25 25 26 26 26 25 25 25 25 25 25 25 25 25 24 24 24 24 24 24 
18 18 18 18 18 18 18 18 18 18 18 18 25 25 25 26 26 26 26 26 26 26 26 26 26 26 26 27 27 27 27 27 27 27 27 27 27 27 27 28 28 28 28 28 28 28 28 28 29 29 29 29 29 29 29 29 29 29 29 29 30 30 30 30 30 30 30 30 30 30 30 30 31 31 31 31 31 31 31 31 31 32 32 32 32 32 32 32 32 32 33 33 33 33 33 33 33 33 33 37 37 37 38 38 38 39 39 39 39 39 39 40 40 40 41 41 41 40 40 40 40 40 40 40 40 40 41 41 41 41 41 41 42 42 42 42 42 42 43 43 43 43 43 43 44 44 44 45 45 45 46 46 46 47 47 47 48 48 48 49 49 49 50 50 50 52 52 52 55 55 55 59 59 59 63 63 63 69 69 69 75 75 75 100 100 100 216 216 216 0 0 0 0 0 0 0 0 0 0 0 0 0 0 0 0 0 0 0 0 0 0 0 0 0 0 0 0 0 0 0 0 0 0 0 0 0 0 0 0 0 0 0 0 0 0 0 0 0 0 0 0 0 0 0 0 0 0 0 0 0 0 0 0 0 0 0 0 0 0 0 0 0 0 0 0 0 0 0 0 0 0 0 0 0 0 0 0 0 0 0 0 0 0 0 0 0 0 0 145 145 145 0 0 0 0 0 0 0 0 0 0 0 0 0 0 0 240 240 240 89 89 89 83 83 83 55 55 55 48 48 48 44 44 44 41 41 41 40 40 40 38 38 38 36 36 36 33 33 33 32 32 32 31 31 31 30 30 30 29 29 29 29 29 29 28 28 28 28 28 28 27 27 27 27 27 27 26 26 26 26 26 26 25 25 25 26 26 26 25 25 25 25 25 25 24 24 24 24 24 24 
18 18 18 18 18 18 18 18 18 18 18 18 25 25 25 26 26 26 26 26 26 26 26 26 27 27 27 27 27 27 27 27 27 28 28 28 28 28 28 28 28 28 29 29 29 29 29 29 29 29 29 29 29 29 30 30 30 30 30 30 30 30 30 31 31 31 31 31 31 31 31 31 31 31 31 32 32 32 32 32 32 32 32 32 32 32 32 33 33 33 33 33 33 33 33 33 38 38 38 39 39 39 39 39 39 40 40 40 41 41 41 41 41 41 41 41 41 41 41 41 41 41 41 42 42 42 42 42 42 42 42 42 43 43 43 43 43 43 44 44 44 45 45 45 45 45 45 46 46 46 48 48 48 48 48 48 49 49 49 50 50 50 52 52 52 54 54 54 58 58 58 63 63 63 66 66 66 73 73 73 79 79 79 91 91 91 111 111 111 236 236 236 0 0 0 0 0 0 0 0 0 0 0 0 0 0 0 0 0 0 0 0 0 0 0 0 0 0 0 0 0 0 0 0 0 0 0 0 0 0 0 0 0 0 0 0 0 0 0 0 0 0 0 0 0 0 0 0 0 0 0 0 0 0 0 0 0 0 0 0 0 0 0 0 0 0 0 0 0 0 0 0 0 0 0 0 0 0 0 0 0 0 0 0 0 0 0 0 0 0 0 0 0 0 0 0 0 0 0 0 0 0 0 0 0 0 122 122 122 80 80 80 63 63 63 54 54 54 48 48 48 45 45 45 42 42 42 41 41 41 38 38 38 36 36 36 33 33 33 32 32 32 31 31 31 30 30 30 30 30 30 29 29 29 28 28 28 28 28 28 27 27 27 27 27 27 26 26 26 26 26 26 25 25 25 26 26 26 25 25 25 25 25 25 25 25 25 24 24 24 
18 18 18 18 18 18 18 18 18 25 25 25 26 26 26 26 26 26 26 26 26 27 27 27 27 27 27 27 27 27 28 28 28 28 28 28 28 28 28 29 29 29 29 29 29 29 29 29 30 30 30 30 30 30 30 30 30 31 31 31 31 31 31 31 31 31 31 31 31 32 32 32 32 32 32 32 32 32 32 32 32 33 33 33 33 33 33 33 33 33 38 38 38 39 39 39 39 39 39 40 40 40 41 41 41 43 43 43 43 43 43 43 43 43 43 43 43 43 43 43 43 43 43 43 43 43 43 43 43 44 44 44 44 44 44 45 45 45 45 45 45 46 46 46 47 47 47 48 48 48 49 49 49 50 50 50 51 51 51 52 52 52 54 54 54 56 56 56 62 62 62 68 68 68 77 77 77 84 84 84 88 88 88 97 97 97 120 120 120 163 163 163 0 0 0 0 0 0 0 0 0 0 0 0 0 0 0 0 0 0 0 0 0 0 0 0 0 0 0 0 0 0 0 0 0 0 0 0 0 0 0 0 0 0 0 0 0 0 0 0 0 0 0 0 0 0 0 0 0 0 0 0 0 0 0 0 0 0 0 0 0 0 0 0 0 0 0 0 0 0 0 0 0 0 0 0 0 0 0 0 0 0 0 0 0 0 0 0 0 0 0 0 0 0 0 0 0 0 0 0 0 0 0 0 0 0 167 167 167 73 73 73 60 60 60 53 53 53 49 49 49 46 46 46 43 43 43 40 40 40 39 39 39 37 37 37 35 35 35 33 33 33 32 32 32 31 31 31 30 30 30 29 29 29 29 29 29 28 28 28 27 27 27 27 27 27 26 26 26 26 26 26 25 25 25 25 25 25 26 26 26 25 25 25 25 25 25 24 24 24 
18 18 18 18 18 18 18 18 18 25 25 25 26 26 26 27 27 27 27 27 27 27 27 27 28 28 28 28 28 28 28 28 28 29 29 29 29 29 29 29 29 29 30 30 30 30 30 30 30 30 30 31 31 31 31 31 31 31 31 31 31 31 31 32 32 32 32 32 32 32 32 32 32 32 32 33 33 33 33 33 33 33 33 33 38 38 38 38 38 38 39 39 39 40 40 40 44 44 44 45 45 45 45 45 45 45 45 45 45 45 45 45 45 45 45 45 45 45 45 45 45 45 45 45 45 45 45 45 45 45 45 45 46 46 46 46 46 46 47 47 47 47 47 47 48 48 48 50 50 50 51 51 51 52 52 52 53 53 53 54 54 54 56 56 56 61 61 61 74 74 74 85 85 85 113 113 113 130 130 130 104 104 104 0 0 0 0 0 0 0 0 0 0 0 0 0 0 0 0 0 0 0 0 0 0 0 0 0 0 0 0 0 0 0 0 0 0 0 0 0 0 0 0 0 0 0 0 0 0 0 0 0 0 0 0 0 0 0 0 0 0 0 0 0 0 0 0 0 0 0 0 0 0 0 0 0 0 0 0 0 0 0 0 0 0 0 0 0 0 0 0 0 0 0 0 0 0 0 0 0 0 0 0 0 0 0 0 0 0 0 0 0 0 0 0 0 0 0 0 0 0 0 0 116 116 116 82 82 82 69 69 69 60 60 60 55 55 55 50 50 50 47 47 47 43 43 43 41 41 41 39 39 39 37 37 37 35 35 35 33 33 33 32 32 32 31 31 31 30 30 30 29 29 29 29 29 29 28 28 28 28 28 28 27 27 27 27 27 27 26 26 26 26 26 26 25 25 25 26 26 26 25 25 25 25 25 25 24 24 24 
18 18 18 18 18 18 18 18 18 25 25 25 27 27 27 27 27 27 27 27 27 28 28 28 28 28 28 29 29 29 29 29 29 29 29 29 30 30 30 30 30 30 30 30 30 31 31 31 31 31 31 31 31 31 32 32 32 32 32 32 32 32 32 32 32 32 33 33 33 33 33 33 33 33 33 33 33 33 37 37 37 38 38 38 39 39 39 40 40 40 41 41 41 47 47 47 49 49 49 48 48 48 47 47 47 47 47 47 48 48 48 48 48 48 47 47 47 47 47 47 46 46 46 46 46 46 47 47 47 47 47 47 47 47 47 48 48 48 48 48 48 50 50 50 51 51 51 52 52 52 53 53 53 54 54 54 55 55 55 57 57 57 61 61 61 67 67 67 91 91 91 0 0 0 0 0 0 167 167 167 0 0 0 152 152 152 0 0 0 0 0 0 0 0 0 0 0 0 0 0 0 0 0 0 0 0 0 0 0 0 0 0 0 0 0 0 0 0 0 0 0 0 0 0 0 0 0 0 0 0 0 0 0 0 0 0 0 0 0 0 0 0 0 0 0 0 0 0 0 0 0 0 0 0 0 0 0 0 0 0 0 0 0 0 0 0 0 0 0 0 0 0 0 0 0 0 0 0 0 0 0 0 0 0 0 0 0 0 0 0 0 0 0 0 0 0 0 0 0 0 136 136 136 98 98 98 82 82 82 69 69 69 61 61 61 56 56 56 52 52 52 48 48 48 44 44 44 41 41 41 40 40 40 37 37 37 36 36 36 33 33 33 32 32 32 31 31 31 30 30 30 30 30 30 29 29 29 28 28 28 28 28 28 27 27 27 27 27 27 26 26 26 26 26 26 25 25 25 25 25 25 25 25 25 25 25 25 25 25 25 
18 18 18 18 18 18 18 18 18 26 26 26 27 27 27 27 27 27 28 28 28 28 28 28 29 29 29 29 29 29 30 30 30 30 30 30 30 30 30 31 31 31 31 31 31 31 31 31 32 32 32 32 32 32 32 32 32 33 33 33 33 33 33 33 33 33 33 33 33 36 36 36 37 37 37 38 38 38 39 39 39 40 40 40 41 41 41 45 45 45 53 53 53 72 72 72 58 58 58 53 53 53 51 51 51 50 50 50 50 50 50 50 50 50 50 50 50 50 50 50 50 50 50 48 48 48 48 48 48 48 48 48 52 52 52 52 52 52 52 52 52 53 53 53 54 54 54 55 55 55 55 55 55 56 56 56 58 58 58 60 60 60 63 63 63 70 70 70 83 83 83 138 138 138 0 0 0 0 0 0 0 0 0 0 0 0 0 0 0 0 0 0 0 0 0 0 0 0 0 0 0 0 0 0 0 0 0 0 0 0 0 0 0 0 0 0 0 0 0 0 0 0 0 0 0 0 0 0 0 0 0 0 0 0 0 0 0 0 0 0 0 0 0 0 0 0 0 0 0 0 0 0 0 0 0 0 0 0 0 0 0 0 0 0 0 0 0 0 0 0 0 0 0 0 0 0 0 0 0 0 0 0 0 0 0 0 0 0 0 0 0 0 0 0 0 0 0 0 0 0 0 0 0 125 125 125 253 253 253 73 73 73 65 65 65 60 60 60 55 55 55 50 50 50 46 46 46 42 42 42 40 40 40 38 38 38 36 36 36 35 35 35 33 33 33 32 32 32 31 31 31 30 30 30 29 29 29 29 29 29 28 28 28 27 27 27 27 27 27 26 26 26 26 26 26 25 25 25 25 25 25 26 26 26 25 25 25 25 25 25 
18 18 18 18 18 18 25 25 25 26 26 26 27 27 27 28 28 28 28 28 28 29 29 29 29 29 29 30 30 30 30 30 30 31 31 31 31 31 31 31 31 31 32 32 32 32 32 32 32 32 32 33 33 33 33 33 33 33 33 33 35 35 35 36 36 36 36 36 36 37 37 37 38 38 38 39 39 39 40 40 40 42 42 42 45 45 45 48 48 48 55 55 55 87 87 87 92 92 92 87 87 87 56 56 56 55 55 55 54 54 54 54 54 54 54 54 54 54 54 54 54 54 54 55 55 55 55 55 55 55 55 55 55 55 55 55 55 55 56 56 56 55 55 55 55 55 55 56 56 56 57 57 57 58 58 58 60 60 60 63 63 63 65 65 65 71 71 71 81 81 81 99 99 99 0 0 0 0 0 0 0 0 0 0 0 0 0 0 0 0 0 0 0 0 0 0 0 0 0 0 0 0 0 0 0 0 0 0 0 0 0 0 0 0 0 0 0 0 0 0 0 0 0 0 0 0 0 0 0 0 0 0 0 0 0 0 0 0 0 0 0 0 0 0 0 0 0 0 0 0 0 0 0 0 0 0 0 0 0 0 0 0 0 0 0 0 0 0 0 0 0 0 0 0 0 0 0 0 0 0 0 0 0 0 0 0 0 0 0 0 0 0 0 0 0 0 0 0 0 0 0 0 0 0 0 0 221 221 221 81 81 81 72 72 72 68 68 68 70 70 70 54 54 54 47 47 47 43 43 43 40 40 40 38 38 38 36 36 36 35 35 35 33 33 33 32 32 32 31 31 31 30 30 30 29 29 29 29 29 29 28 28 28 28 28 28 27 27 27 26 26 26 26 26 26 25 25 25 25 25 25 26 26 26 25 25 25 25 25 25 
18 18 18 18 18 18 26 26 26 27 27 27 28 28 28 28 28 28 29 29 29 29 29 29 30 30 30 30 30 30 31 31 31 31 31 31 32 32 32 32 32 32 33 33 33 33 33 33 33 33 33 34 34 34 34 34 34 35 35 35 36 36 36 37 37 37 38 38 38 39 39 39 40 40 40 41 41 41 42 42 42 44 44 44 47 47 47 49 49 49 56 56 56 67 67 67 99 99 99 79 79 79 64 64 64 61 61 61 58 58 58 57 57 57 57 57 57 58 58 58 60 60 60 63 63 63 228 228 228 65 65 65 62 62 62 60 60 60 58 58 58 58 58 58 58 58 58 58 58 58 59 59 59 61 61 61 63 63 63 65 65 65 68 68 68 76 76 76 85 85 85 106 106 106 126 126 126 191 191 191 0 0 0 0 0 0 0 0 0 0 0 0 0 0 0 0 0 0 0 0 0 0 0 0 0 0 0 0 0 0 0 0 0 0 0 0 0 0 0 0 0 0 0 0 0 0 0 0 0 0 0 0 0 0 0 0 0 0 0 0 0 0 0 0 0 0 0 0 0 0 0 0 0 0 0 0 0 0 0 0 0 0 0 0 0 0 0 0 0 0 0 0 0 0 0 0 0 0 0 0 0 0 0 0 0 0 0 0 0 0 0 0 0 0 0 0 0 0 0 0 0 0 0 0 0 0 142 142 142 98 98 98 85 85 85 82 82 82 101 101 101 68 68 68 48 48 48 44 44 44 40 40 40 38 38 38 36 36 36 35 35 35 33 33 33 32 32 32 31 31 31 30 30 30 30 30 30 29 29 29 28 28 28 28 28 28 27 27 27 27 27 27 26 26 26 26 26 26 25 25 25 25 25 25 26 26 26 25 25 25 
18 18 18 18 18 18 26 26 26 28 28 28 29 29 29 29 29 29 30 30 30 30 30 30 31 31 31 31 31 31 32 32 32 32 32 32 33 33 33 33 33 33 33 33 33 33 33 33 34 34 34 34 34 34 35 35 35 36 36 36 37 37 37 38 38 38 39 39 39 40 40 40 40 40 40 41 41 41 43 43 43 46 46 46 47 47 47 50 50 50 55 55 55 72 72 72 118 118 118 86 86 86 70 70 70 67 67 67 63 63 63 61 61 61 61 61 61 63 63 63 66 66 66 76 76 76 105 105 105 85 85 85 68 68 68 65 65 65 62 62 62 61 61 61 61 61 61 61 61 61 62 62 62 64 64 64 66 66 66 68 68 68 73 73 73 87 87 87 196 196 196 160 160 160 165 165 165 0 0 0 0 0 0 0 0 0 0 0 0 0 0 0 0 0 0 0 0 0 0 0 0 0 0 0 0 0 0 0 0 0 0 0 0 0 0 0 0 0 0 0 0 0 0 0 0 0 0 0 0 0 0 0 0 0 0 0 0 0 0 0 0 0 0 0 0 0 0 0 0 0 0 0 0 0 0 0 0 0 0 0 0 0 0 0 0 0 0 0 0 0 0 0 0 0 0 0 0 0 0 0 0 0 0 0 0 0 0 0 0 0 0 0 0 0 0 0 0 0 0 0 0 0 0 0 0 0 171 171 171 0 0 0 0 0 0 108 108 108 142 142 142 67 67 67 51 51 51 45 45 45 40 40 40 38 38 38 37 37 37 35 35 35 34 34 34 32 32 32 31 31 31 31 31 31 30 30 30 29 29 29 28 28 28 28 28 28 27 27 27 27 27 27 26 26 26 26 26 26 25 25 25 25 25 25 26 26 26 25 25 25 
18 18 18 18 18 18 26 26 26 29 29 29 29 29 29 30 30 30 30 30 30 31 31 31 32 32 32 32 32 32 33 33 33 33 33 33 32 32 32 33 33 33 33 33 33 34 34 34 35 35 35 35 35 35 36 36 36 37 37 37 38 38 38 39 39 39 40 40 40 40 40 40 41 41 41 42 42 42 44 44 44 47 47 47 48 48 48 51 51 51 56 56 56 91 91 91 115 115 115 98 98 98 81 81 81 75 75 75 76 76 76 86 86 86 71 71 71 70 70 70 74 74 74 93 93 93 116 116 116 88 88 88 76 76 76 71 71 71 70 70 70 68 68 68 67 67 67 67 67 67 67 67 67 68 68 68 69 69 69 72 72 72 78 78 78 100 100 100 0 0 0 0 0 0 0 0 0 0 0 0 0 0 0 0 0 0 0 0 0 0 0 0 0 0 0 0 0 0 0 0 0 0 0 0 0 0 0 0 0 0 0 0 0 0 0 0 0 0 0 0 0 0 0 0 0 0 0 0 0 0 0 0 0 0 0 0 0 0 0 0 0 0 0 0 0 0 0 0 0 0 0 0 0 0 0 0 0 0 0 0 0 0 0 0 0 0 0 0 0 0 0 0 0 0 0 0 0 0 0 0 0 0 0 0 0 0 0 0 0 0 0 0 0 0 0 0 0 0 0 0 0 0 0 0 0 0 0 0 0 0 0 0 0 0 0 0 0 0 0 0 0 105 105 105 51 51 51 45 45 45 40 40 40 38 38 38 37 37 37 35 35 35 34 34 34 33 33 33 32 32 32 31 31 31 30 30 30 29 29 29 29 29 29 28 28 28 27 27 27 27 27 27 26 26 26 26 26 26 25 25 25 25 25 25 26 26 26 25 25 25 
18 18 18 18 18 18 29 29 29 29 29 29 30 30 30 31 31 31 31 31 31 32 32 32 33 33 33 33 33 33 32 32 32 32 32 32 33 33 33 33 33 33 34 34 34 35 35 35 35 35 35 36 36 36 37 37 37 38 38 38 39 39 39 41 41 41 39 39 39 41 41 41 42 42 42 43 43 43 45 45 45 48 48 48 50 50 50 53 53 53 59 59 59 67 67 67 102 102 102 157 157 157 123 123 123 171 171 171 100 100 100 112 112 112 85 85 85 78 78 78 84 84 84 96 96 96 159 159 159 175 175 175 226 226 226 84 84 84 84 84 84 104 104 104 76 76 76 72 72 72 71 71 71 71 71 71 73 73 73 77 77 77 82 82 82 95 95 95 126 126 126 0 0 0 0 0 0 0 0 0 0 0 0 0 0 0 0 0 0 0 0 0 0 0 0 0 0 0 0 0 0 0 0 0 0 0 0 0 0 0 0 0 0 0 0 0 0 0 0 0 0 0 0 0 0 0 0 0 0 0 0 0 0 0 0 0 0 0 0 0 0 0 0 0 0 0 0 0 0 0 0 0 0 0 0 0 0 0 0 0 0 0 0 0 0 0 0 0 0 0 0 0 0 0 0 0 0 0 0 0 0 0 0 0 0 0 0 0 0 0 0 0 0 0 0 0 0 0 0 0 0 0 0 0 0 0 0 0 0 0 0 0 0 0 0 119 119 119 97 97 97 61 61 61 50 50 50 45 45 45 41 41 41 38 38 38 37 37 37 35 35 35 34 34 34 33 33 33 32 32 32 31 31 31 30 30 30 29 29 29 29 29 29 28 28 28 28 28 28 27 27 27 26 26 26 26 26 26 25 25 25 25 25 25 25 25 25 26 26 26 
18 18 18 26 26 26 29 29 29 30 30 30 31 31 31 31 31 31 32 32 32 33 33 33 31 31 31 32 32 32 32 32 32 33 33 33 33 33 33 34 34 34 35 35 35 36 36 36 36 36 36 37 37 37 38 38 38 40 40 40 41 41 41 39 39 39 40 40 40 41 41 41 43 43 43 44 44 44 46 46 46 49 49 49 51 51 51 55 55 55 59 59 59 65 65 65 75 75 75 88 88 88 101 101 101 184 184 184 175 175 175 143 143 143 183 183 183 99 99 99 93 93 93 103 103 103 123 123 123 197 197 197 0 0 0 103 103 103 236 236 236 112 112 112 85 85 85 78 78 78 76 76 76 76 76 76 78 78 78 81 81 81 86 86 86 110 110 110 191 191 191 0 0 0 0 0 0 0 0 0 0 0 0 0 0 0 0 0 0 0 0 0 0 0 0 0 0 0 0 0 0 0 0 0 0 0 0 0 0 0 0 0 0 0 0 0 0 0 0 0 0 0 0 0 0 0 0 0 0 0 0 0 0 0 0 0 0 0 0 0 0 0 0 0 0 0 0 0 0 0 0 0 0 0 0 0 0 0 0 0 0 0 0 0 0 0 0 0 0 0 0 0 0 0 0 0 0 0 0 0 0 0 0 0 0 0 0 0 0 0 0 0 0 0 0 0 0 0 0 0 0 0 0 0 0 0 0 0 0 161 161 161 117 117 117 82 82 82 66 66 66 56 56 56 49 49 49 45 45 45 41 41 41 39 39 39 37 37 37 35 35 35 34 34 34 33 33 33 32 32 32 31 31 31 30 30 30 30 30 30 29 29 29 28 28 28 28 28 28 27 27 27 27 27 27 26 26 26 26 26 26 25 25 25 25 25 25 26 26 26 
18 18 18 26 26 26 30 30 30 31 31 31 31 31 31 32 32 32 33 33 33 31 31 31 32 32 32 32 32 32 33 33 33 34 34 34 34 34 34 35 35 35 36 36 36 36 36 36 37 37 37 38 38 38 40 40 40 39 39 39 40 40 40 40 40 40 41 41 41 43 43 43 44 44 44 45 45 45 47 47 47 50 50 50 53 53 53 55 55 55 59 59 59 65 65 65 71 71 71 80 80 80 91 91 91 117 117 117 209 209 209 0 0 0 0 0 0 123 123 123 0 0 0 131 131 131 186 186 186 0 0 0 0 0 0 139 139 139 141 141 141 0 0 0 105 105 105 102 102 102 88 88 88 84 84 84 84 84 84 87 87 87 95 95 95 0 0 0 0 0 0 0 0 0 0 0 0 0 0 0 0 0 0 0 0 0 0 0 0 0 0 0 0 0 0 0 0 0 0 0 0 0 0 0 0 0 0 0 0 0 0 0 0 0 0 0 0 0 0 0 0 0 0 0 0 0 0 0 0 0 0 0 0 0 0 0 0 0 0 0 0 0 0 0 0 0 0 0 0 0 0 0 0 0 0 0 0 0 0 0 0 0 0 0 0 0 0 0 0 0 0 0 0 0 0 0 0 0 0 0 0 0 0 0 0 0 0 0 0 0 0 0 0 0 0 0 0 0 0 0 0 0 0 0 0 0 0 0 0 213 213 213 106 106 106 76 76 76 64 64 64 56 56 56 49 49 49 45 45 45 41 41 41 39 39 39 37 37 37 35 35 35 34 34 34 33 33 33 32 32 32 31 31 31 31 31 31 30 30 30 29 29 29 28 28 28 28 28 28 27 27 27 27 27 27 26 26 26 26 26 26 25 25 25 25 25 25 26 26 26 
18 18 18 26 26 26 30 30 30 31 31 31 32 32 32 33 33 33 31 31 31 32 32 32 32 32 32 33 33 33 34 34 34 34 34 34 35 35 35 36 36 36 37 37 37 37 37 37 38 38 38 40 40 40 39 39 39 40 40 40 41 41 41 42 42 42 43 43 43 44 44 44 45 45 45 46 46 46 48 48 48 52 52 52 54 54 54 57 57 57 60 60 60 66 66 66 71 71 71 78 78 78 99 99 99 135 135 135 255 255 255 0 0 0 0 0 0 180 180 180 186 186 186 0 0 0 0 0 0 0 0 0 0 0 0 0 0 0 240 240 240 0 0 0 147 147 147 242 242 242 101 101 101 91 91 91 90 90 90 93 93 93 100 100 100 0 0 0 0 0 0 0 0 0 0 0 0 0 0 0 0 0 0 0 0 0 0 0 0 0 0 0 0 0 0 0 0 0 0 0 0 0 0 0 0 0 0 0 0 0 0 0 0 0 0 0 0 0 0 0 0 0 0 0 0 0 0 0 0 0 0 0 0 0 0 0 0 0 0 0 0 0 0 0 0 0 0 0 0 0 0 0 0 0 0 0 0 0 0 0 0 0 0 0 0 0 0 0 0 0 0 0 0 0 0 0 0 0 0 0 0 0 0 0 0 0 0 0 0 0 0 0 0 0 0 0 0 0 0 0 0 0 0 0 0 0 0 0 0 0 0 0 106 106 106 85 85 85 73 73 73 55 55 55 48 48 48 45 45 45 41 41 41 39 39 39 37 37 37 36 36 36 34 34 34 33 33 33 33 33 33 32 32 32 31 31 31 30 30 30 29 29 29 28 28 28 28 28 28 27 27 27 27 27 27 26 26 26 26 26 26 25 25 25 25 25 25 26 26 26 
18 18 18 30 30 30 31 31 31 32 32 32 33 33 33 32 32 32 32 32 32 33 33 33 33 33 33 34 34 34 34 34 34 35 35 35 36 36 36 37 37 37 37 37 37 38 38 38 40 40 40 41 41 41 40 40 40 41 41 41 42 42 42 43 43 43 44 44 44 45 45 45 46 46 46 47 47 47 52 52 52 55 55 55 56 56 56 59 59 59 61 61 61 69 69 69 75 75 75 85 85 85 109 109 109 136 136 136 0 0 0 0 0 0 0 0 0 0 0 0 0 0 0 0 0 0 0 0 0 0 0 0 0 0 0 0 0 0 0 0 0 0 0 0 0 0 0 0 0 0 151 151 151 112 112 112 100 100 100 101 101 101 111 111 111 175 175 175 0 0 0 0 0 0 0 0 0 0 0 0 0 0 0 0 0 0 0 0 0 0 0 0 0 0 0 0 0 0 0 0 0 0 0 0 0 0 0 0 0 0 0 0 0 0 0 0 0 0 0 0 0 0 0 0 0 0 0 0 0 0 0 0 0 0 0 0 0 0 0 0 0 0 0 0 0 0 0 0 0 0 0 0 0 0 0 0 0 0 0 0 0 0 0 0 0 0 0 0 0 0 0 0 0 0 0 0 0 0 0 0 0 0 0 0 0 0 0 0 0 0 0 0 0 0 0 0 0 0 0 0 0 0 0 0 0 0 0 0 0 0 0 0 0 0 0 132 132 132 178 178 178 54 54 54 48 48 48 44 44 44 41 41 41 39 39 39 37 37 37 36 36 36 34 34 34 33 33 33 33 33 33 32 32 32 31 31 31 30 30 30 29 29 29 29 29 29 28 28 28 27 27 27 27 27 27 26 26 26 26 26 26 25 25 25 25 25 25 24 24 24 
18 18 18 31 31 31 32 32 32 33 33 33 32 32 32 32 32 32 33 33 33 34 34 34 34 34 34 35 35 35 35 35 35 36 36 36 37 37 37 38 38 38 39 39 39 40 40 40 41 41 41 41 41 41 42 42 42 43 43 43 43 43 43 44 44 44 45 45 45 46 46 46 47 47 47 48 48 48 55 55 55 57 57 57 59 59 59 61 61 61 63 63 63 79 79 79 84 84 84 90 90 90 105 105 105 131 131 131 184 184 184 0 0 0 0 0 0 0 0 0 0 0 0 0 0 0 0 0 0 0 0 0 0 0 0 0 0 0 0 0 0 0 0 0 0 0 0 0 0 0 0 0 0 148 148 148 115 115 115 112 112 112 122 122 122 0 0 0 0 0 0 0 0 0 0 0 0 0 0 0 0 0 0 0 0 0 0 0 0 0 0 0 0 0 0 0 0 0 0 0 0 0 0 0 0 0 0 0 0 0 0 0 0 0 0 0 0 0 0 0 0 0 0 0 0 0 0 0 0 0 0 0 0 0 0 0 0 0 0 0 0 0 0 0 0 0 0 0 0 0 0 0 0 0 0 0 0 0 0 0 0 0 0 0 0 0 0 0 0 0 0 0 0 0 0 0 0 0 0 0 0 0 0 0 0 0 0 0 0 0 0 0 0 0 0 0 0 0 0 0 0 0 0 0 0 0 0 0 0 0 0 0 0 0 0 0 0 0 84 84 84 54 54 54 47 47 47 44 44 44 41 41 41 39 39 39 37 37 37 36 36 36 34 34 34 33 33 33 33 33 33 32 32 32 31 31 31 30 30 30 29 29 29 29 29 29 28 28 28 27 27 27 27 27 27 26 26 26 26 26 26 25 25 25 25 25 25 25 25 25 
18 18 18 31 31 31 33 33 33 32 32 32 33 33 33 33 33 33 34 34 34 35 35 35 35 35 35 36 36 36 36 36 36 37 37 37 38 38 38 39 39 39 40 40 40 41 41 41 42 42 42 43 43 43 44 44 44 44 44 44 45 45 45 46 46 46 46 46 46 47 47 47 48 48 48 55 55 55 61 61 61 63 63 63 64 64 64 67 67 67 73 73 73 97 97 97 114 114 114 119 119 119 144 144 144 0 0 0 0 0 0 0 0 0 0 0 0 0 0 0 0 0 0 0 0 0 0 0 0 0 0 0 0 0 0 0 0 0 0 0 0 0 0 0 0 0 0 0 0 0 0 0 0 0 0 0 163 163 163 126 126 126 134 134 134 0 0 0 0 0 0 0 0 0 0 0 0 0 0 0 0 0 0 0 0 0 0 0 0 0 0 0 0 0 0 0 0 0 0 0 0 0 0 0 0 0 0 0 0 0 0 0 0 0 0 0 0 0 0 0 0 0 0 0 0 0 0 0 0 0 0 0 0 0 0 0 0 0 0 0 0 0 0 0 0 0 0 0 0 0 0 0 0 0 0 0 0 0 0 0 0 0 0 0 0 0 0 0 0 0 0 0 0 0 0 0 0 0 0 0 0 0 0 0 0 0 0 0 0 0 0 0 0 0 0 0 0 0 0 0 0 0 0 0 0 0 0 0 0 0 0 0 101 101 101 77 77 77 61 61 61 52 52 52 46 46 46 43 43 43 41 41 41 39 39 39 37 37 37 36 36 36 34 34 34 33 33 33 33 33 33 32 32 32 31 31 31 30 30 30 30 30 30 29 29 29 28 28 28 28 28 28 27 27 27 26 26 26 26 26 26 25 25 25 25 25 25 25 25 25 
18 18 18 32 32 32 32 32 32 33 33 33 34 34 34 35 35 35 35 35 35 36 36 36 36 36 36 37 37 37 37 37 37 38 38 38 39 39 39 40 40 40 41 41 41 43 43 43 44 44 44 45 45 45 46 46 46 46 46 46 47 47 47 48 48 48 48 48 48 53 53 53 56 56 56 81 81 81 68 68 68 68 68 68 70 70 70 71 71 71 78 78 78 89 89 89 110 110 110 0 0 0 0 0 0 0 0 0 0 0 0 0 0 0 0 0 0 0 0 0 0 0 0 0 0 0 0 0 0 0 0 0 0 0 0 0 0 0 0 0 0 0 0 0 0 0 0 0 0 0 0 0 0 0 0 0 0 0 0 145 145 145 152 152 152 0 0 0 0 0 0 0 0 0 0 0 0 0 0 0 0 0 0 0 0 0 0 0 0 0 0 0 0 0 0 0 0 0 0 0 0 0 0 0 0 0 0 0 0 0 0 0 0 0 0 0 0 0 0 0 0 0 0 0 0 0 0 0 0 0 0 0 0 0 0 0 0 0 0 0 0 0 0 0 0 0 0 0 0 0 0 0 0 0 0 0 0 0 0 0 0 0 0 0 0 0 0 0 0 0 0 0 0 0 0 0 0 0 0 0 0 0 0 0 0 0 0 0 0 0 0 0 0 0 0 0 0 0 0 0 0 0 0 0 0 0 0 0 0 191 191 191 105 105 105 72 72 72 57 57 57 50 50 50 46 46 46 43 43 43 41 41 41 39 39 39 37 37 37 36 36 36 34 34 34 33 33 33 33 33 33 32 32 32 31 31 31 30 30 30 30 30 30 29 29 29 28 28 28 28 28 28 27 27 27 26 26 26 26 26 26 25 25 25 25 25 25 25 25 25 
18 18 18 33 33 33 34 34 34 35 35 35 35 35 35 36 36 36 36 36 36 37 37 37 37 37 37 38 38 38 38 38 38 39 39 39 40 40 40 41 41 41 45 45 45 46 46 46 47 47 47 48 48 48 47 47 47 49 49 49 50 50 50 52 52 52 54 54 54 57 57 57 63 63 63 82 82 82 97 97 97 78 78 78 76 76 76 77 77 77 85 85 85 91 91 91 110 110 110 151 151 151 0 0 0 0 0 0 0 0 0 0 0 0 0 0 0 0 0 0 0 0 0 0 0 0 0 0 0 0 0 0 0 0 0 0 0 0 0 0 0 0 0 0 0 0 0 0 0 0 0 0 0 0 0 0 0 0 0 190 190 190 173 173 173 0 0 0 0 0 0 0 0 0 0 0 0 0 0 0 0 0 0 0 0 0 0 0 0 0 0 0 0 0 0 0 0 0 0 0 0 0 0 0 0 0 0 0 0 0 0 0 0 0 0 0 0 0 0 0 0 0 0 0 0 0 0 0 0 0 0 0 0 0 0 0 0 0 0 0 0 0 0 0 0 0 0 0 0 0 0 0 0 0 0 0 0 0 0 0 0 0 0 0 0 0 0 0 0 0 0 0 0 0 0 0 0 0 0 0 0 0 0 0 0 0 0 0 0 0 0 0 0 0 0 0 0 0 0 0 0 0 0 0 0 0 0 0 0 0 0 0 0 0 0 67 67 67 54 54 54 48 48 48 45 45 45 43 43 43 41 41 41 39 39 39 37 37 37 36 36 36 35 35 35 33 33 33 33 33 33 32 32 32 31 31 31 30 30 30 30 30 30 29 29 29 28 28 28 28 28 28 27 27 27 27 27 27 26 26 26 26 26 26 25 25 25 25 25 25 
18 18 18 34 34 34 35 35 35 36 36 36 37 37 37 38 38 38 38 38 38 38 38 38 39 39 39 39 39 39 39 39 39 40 40 40 41 41 41 46 46 46 48 48 48 47 47 47 47 47 47 48 48 48 50 50 50 51 51 51 53 53 53 54 54 54 56 56 56 60 60 60 66 66 66 79 79 79 228 228 228 94 94 94 88 88 88 105 105 105 99 99 99 103 103 103 144 144 144 0 0 0 0 0 0 0 0 0 0 0 0 0 0 0 0 0 0 0 0 0 0 0 0 0 0 0 0 0 0 0 0 0 0 0 0 0 0 0 0 0 0 0 0 0 0 0 0 0 0 0 0 0 0 0 0 0 0 0 0 0 0 0 204 204 204 0 0 0 0 0 0 0 0 0 0 0 0 0 0 0 0 0 0 0 0 0 0 0 0 0 0 0 0 0 0 0 0 0 0 0 0 0 0 0 0 0 0 0 0 0 0 0 0 0 0 0 0 0 0 0 0 0 0 0 0 0 0 0 0 0 0 0 0 0 0 0 0 0 0 0 0 0 0 0 0 0 0 0 0 0 0 0 0 0 0 0 0 0 0 0 0 0 0 0 0 0 0 0 0 0 0 0 0 0 0 0 0 0 0 0 0 0 0 0 0 0 0 0 0 0 0 0 0 0 0 0 0 0 0 0 0 0 0 0 0 0 0 0 0 113 113 113 75 75 75 60 60 60 52 52 52 48 48 48 45 45 45 42 42 42 41 41 41 39 39 39 37 37 37 36 36 36 35 35 35 33 33 33 32 32 32 32 32 32 31 31 31 31 31 31 30 30 30 29 29 29 28 28 28 28 28 28 27 27 27 27 27 27 26 26 26 26 26 26 25 25 25 25 25 25 
18 18 18 36 36 36 38 38 38 39 39 39 40 40 40 40 40 40 40 40 40 40 40 40 40 40 40 40 40 40 40 40 40 47 47 47 48 48 48 49 49 49 49 49 49 50 50 50 50 50 50 51 51 51 53 53 53 55 55 55 55 55 55 57 57 57 59 59 59 63 63 63 71 71 71 78 78 78 94 94 94 195 195 195 114 114 114 126 126 126 123 123 123 124 124 124 0 0 0 0 0 0 0 0 0 0 0 0 0 0 0 0 0 0 0 0 0 0 0 0 0 0 0 0 0 0 0 0 0 0 0 0 0 0 0 0 0 0 0 0 0 0 0 0 0 0 0 0 0 0 0 0 0 0 0 0 0 0 0 0 0 0 254 254 254 0 0 0 0 0 0 0 0 0 0 0 0 0 0 0 0 0 0 0 0 0 0 0 0 0 0 0 0 0 0 0 0 0 0 0 0 0 0 0 0 0 0 0 0 0 0 0 0 0 0 0 0 0 0 0 0 0 0 0 0 0 0 0 0 0 0 0 0 0 0 0 0 0 0 0 0 0 0 0 0 0 0 0 0 0 0 0 0 0 0 0 0 0 0 0 0 0 0 0 0 0 0 0 0 0 0 0 0 0 0 0 0 0 0 0 0 0 0 0 0 0 0 0 0 0 0 0 0 0 0 0 0 0 0 0 0 0 0 0 0 0 203 203 203 212 212 212 65 65 65 56 56 56 51 51 51 47 47 47 44 44 44 42 42 42 41 41 41 39 39 39 37 37 37 36 36 36 35 35 35 33 33 33 32 32 32 32 32 32 31 31 31 31 31 31 30 30 30 29 29 29 28 28 28 28 28 28 27 27 27 27 27 27 26 26 26 26 26 26 25 25 25 25 25 25 
18 18 18 38 38 38 39 39 39 40 40 40 42 42 42 44 44 44 46 46 46 47 47 47 48 48 48 48 48 48 55 55 55 55 55 55 56 56 56 54 54 54 53 53 53 53 53 53 53 53 53 54 54 54 56 56 56 58 58 58 59 59 59 60 60 60 62 62 62 70 70 70 73 73 73 83 83 83 98 98 98 156 156 156 0 0 0 0 0 0 0 0 0 182 182 182 174 174 174 0 0 0 0 0 0 0 0 0 0 0 0 0 0 0 0 0 0 0 0 0 0 0 0 0 0 0 0 0 0 0 0 0 0 0 0 0 0 0 0 0 0 0 0 0 0 0 0 0 0 0 0 0 0 0 0 0 0 0 0 0 0 0 0 0 0 0 0 0 0 0 0 0 0 0 0 0 0 0 0 0 0 0 0 0 0 0 0 0 0 0 0 0 0 0 0 0 0 0 0 0 0 0 0 0 0 0 0 0 0 0 0 0 0 0 0 0 0 0 0 0 0 0 0 0 0 0 0 0 0 0 0 0 0 0 0 0 0 0 0 0 0 0 0 0 0 0 0 0 0 0 0 0 0 0 0 0 0 0 0 0 0 0 0 0 0 0 0 0 0 0 0 0 0 0 0 0 0 0 0 0 0 0 0 0 0 0 0 0 0 0 0 0 0 0 0 0 0 0 0 0 0 0 0 0 0 0 227 227 227 71 71 71 60 60 60 54 54 54 50 50 50 47 47 47 44 44 44 42 42 42 41 41 41 39 39 39 37 37 37 36 36 36 35 35 35 33 33 33 32 32 32 33 33 33 32 32 32 31 31 31 30 30 30 29 29 29 28 28 28 28 28 28 27 27 27 27 27 27 26 26 26 26 26 26 25 25 25 25 25 25 
18 18 18 40 40 40 42 42 42 44 44 44 46 46 46 48 48 48 49 49 49 51 51 51 54 54 54 59 59 59 89 89 89 63 63 63 59 59 59 59 59 59 60 60 60 61 61 61 61 61 61 63 63 63 63 63 63 63 63 63 66 66 66 70 70 70 90 90 90 81 81 81 85 85 85 123 123 123 115 115 115 168 168 168 0 0 0 0 0 0 0 0 0 0 0 0 0 0 0 0 0 0 0 0 0 0 0 0 0 0 0 0 0 0 0 0 0 0 0 0 0 0 0 0 0 0 0 0 0 0 0 0 0 0 0 0 0 0 0 0 0 0 0 0 0 0 0 0 0 0 0 0 0 0 0 0 0 0 0 0 0 0 0 0 0 0 0 0 0 0 0 0 0 0 0 0 0 0 0 0 0 0 0 0 0 0 0 0 0 0 0 0 0 0 0 0 0 0 0 0 0 0 0 0 0 0 0 0 0 0 0 0 0 0 0 0 0 0 0 0 0 0 0 0 0 0 0 0 0 0 0 0 0 0 0 0 0 0 0 0 0 0 0 0 0 0 0 0 0 0 0 0 0 0 0 0 0 0 0 0 0 0 0 0 0 0 0 0 0 0 0 0 0 0 0 0 0 0 0 0 0 0 0 0 0 0 0 0 0 0 0 0 0 0 0 0 0 0 0 0 0 0 0 150 150 150 77 77 77 64 64 64 57 57 57 53 53 53 49 49 49 47 47 47 44 44 44 42 42 42 41 41 41 39 39 39 37 37 37 36 36 36 35 35 35 33 33 33 33 33 33 33 33 33 32 32 32 31 31 31 30 30 30 29 29 29 28 28 28 28 28 28 27 27 27 27 27 27 26 26 26 26 26 26 25 25 25 25 25 25 
18 18 18 47 47 47 46 46 46 47 47 47 53 53 53 55 55 55 54 54 54 61 61 61 63 63 63 63 63 63 98 98 98 100 100 100 72 72 72 70 70 70 67 67 67 73 73 73 120 120 120 76 76 76 71 71 71 75 75 75 75 75 75 82 82 82 98 98 98 103 103 103 106 106 106 116 116 116 0 0 0 228 228 228 0 0 0 0 0 0 0 0 0 0 0 0 0 0 0 0 0 0 0 0 0 0 0 0 0 0 0 0 0 0 0 0 0 0 0 0 0 0 0 0 0 0 0 0 0 0 0 0 0 0 0 0 0 0 0 0 0 0 0 0 0 0 0 0 0 0 0 0 0 0 0 0 0 0 0 0 0 0 0 0 0 0 0 0 0 0 0 0 0 0 0 0 0 0 0 0 0 0 0 0 0 0 0 0 0 0 0 0 0 0 0 0 0 0 0 0 0 0 0 0 0 0 0 0 0 0 0 0 0 0 0 0 0 0 0 0 0 0 0 0 0 0 0 0 0 0 0 0 0 0 0 0 0 0 0 0 0 0 0 0 0 0 0 0 0 0 0 0 0 0 0 0 0 0 0 0 0 0 0 0 0 0 0 0 0 0 0 0 0 0 0 0 0 0 0 0 0 0 0 0 0 0 0 0 0 0 0 0 0 0 0 0 0 0 0 0 236 236 236 82 82 82 69 69 69 62 62 62 56 56 56 52 52 52 49 49 49 46 46 46 44 44 44 42 42 42 41 41 41 39 39 39 37 37 37 36 36 36 35 35 35 34 34 34 33 33 33 33 33 33 32 32 32 31 31 31 30 30 30 29 29 29 28 28 28 28 28 28 27 27 27 27 27 27 26 26 26 26 26 26 25 25 25 25 25 25 
0 0 0 0 0 0 0 0 0 0 0 0 0 0 0 0 0 0 0 0 0 0 0 0 0 0 0 0 0 0 0 0 0 0 0 0 0 0 0 0 0 0 0 0 0 0 0 0 0 0 0 0 0 0 0 0 0 0 0 0 0 0 0 0 0 0 0 0 0 0 0 0 0 0 0 0 0 0 0 0 0 0 0 0 0 0 0 0 0 0 0 0 0 0 0 0 0 0 0 0 0 0 0 0 0 0 0 0 0 0 0 0 0 0 0 0 0 0 0 0 0 0 0 0 0 0 0 0 0 0 0 0 0 0 0 0 0 0 0 0 0 0 0 0 0 0 0 0 0 0 0 0 0 0 0 0 0 0 0 0 0 0 0 0 0 0 0 0 0 0 0 0 0 0 0 0 0 0 0 0 0 0 0 0 0 0 0 0 0 0 0 0 0 0 0 0 0 0 0 0 0 0 0 0 0 0 0 0 0 0 0 0 0 0 0 0 0 0 0 0 0 0 0 0 0 0 0 0 0 0 0 0 0 0 0 0 0 0 0 0 0 0 0 0 0 0 0 0 0 0 0 0 0 0 0 0 0 0 0 0 0 0 0 0 0 0 0 0 0 0 0 0 0 0 0 0 0 0 0 0 0 0 0 0 0 0 0 0 0 0 0 0 0 0 213 213 213 120 120 120 93 93 93 78 78 78 68 68 68 61 61 61 56 56 56 52 52 52 49 49 49 46 46 46 44 44 44 42 42 42 41 41 41 39 39 39 37 37 37 36 36 36 35 35 35 34 34 34 33 33 33 33 33 33 32 32 32 31 31 31 30 30 30 29 29 29 28 28 28 28 28 28 27 27 27 27 27 27 26 26 26 26 26 26 25 25 25 25 25 25 
18 18 18 47 47 47 46 46 46 47 47 47 53 53 53 55 55 55 54 54 54 61 61 61 63 63 63 63 63 63 98 98 98 100 100 100 72 72 72 70 70 70 67 67 67 73 73 73 120 120 120 76 76 76 71 71 71 75 75 75 75 75 75 82 82 82 98 98 98 103 103 103 106 106 106 116 116 116 0 0 0 228 228 228 0 0 0 0 0 0 0 0 0 0 0 0 0 0 0 0 0 0 0 0 0 0 0 0 0 0 0 0 0 0 0 0 0 0 0 0 0 0 0 0 0 0 0 0 0 0 0 0 0 0 0 0 0 0 0 0 0 0 0 0 0 0 0 0 0 0 0 0 0 0 0 0 0 0 0 0 0 0 0 0 0 0 0 0 0 0 0 0 0 0 0 0 0 0 0 0 0 0 0 0 0 0 0 0 0 0 0 0 0 0 0 0 0 0 0 0 0 0 0 0 0 0 0 0 0 0 0 0 0 0 0 0 0 0 0 0 0 0 0 0 0 0 0 0 0 0 0 0 0 0 0 0 0 0 0 0 0 0 0 0 0 0 0 0 0 0 0 0 0 0 0 0 0 0 0 0 0 0 0 0 0 0 0 0 0 0 0 0 0 0 0 0 0 0 0 0 0 0 0 0 0 0 0 0 0 0 0 0 0 0 0 0 0 0 0 0 236 236 236 82 82 82 69 69 69 62 62 62 56 56 56 52 52 52 49 49 49 46 46 46 44 44 44 42 42 42 41 41 41 39 39 39 37 37 37 36 36 36 35 35 35 34 34 34 33 33 33 33 33 33 32 32 32 31 31 31 30 30 30 29 29 29 28 28 28 28 28 28 27 27 27 27 27 27 26 26 26 26 26 26 25 25 25 25 25 25 
18 18 18 40 40 40 42 42 42 44 44 44 46 46 46 48 48 48 49 49 49 51 51 51 54 54 54 59 59 59 89 89 89 63 63 63 59 59 59 59 59 59 60 60 60 61 61 61 61 61 61 63 63 63 63 63 63 63 63 63 66 66 66 70 70 70 90 90 90 81 81 81 85 85 85 123 123 123 115 115 115 168 168 168 0 0 0 0 0 0 0 0 0 0 0 0 0 0 0 0 0 0 0 0 0 0 0 0 0 0 0 0 0 0 0 0 0 0 0 0 0 0 0 0 0 0 0 0 0 0 0 0 0 0 0 0 0 0 0 0 0 0 0 0 0 0 0 0 0 0 0 0 0 0 0 0 0 0 0 0 0 0 0 0 0 0 0 0 0 0 0 0 0 0 0 0 0 0 0 0 0 0 0 0 0 0 0 0 0 0 0 0 0 0 0 0 0 0 0 0 0 0 0 0 0 0 0 0 0 0 0 0 0 0 0 0 0 0 0 0 0 0 0 0 0 0 0 0 0 0 0 0 0 0 0 0 0 0 0 0 0 0 0 0 0 0 0 0 0 0 0 0 0 0 0 0 0 0 0 0 0 0 0 0 0 0 0 0 0 0 0 0 0 0 0 0 0 0 0 0 0 0 0 0 0 0 0 0 0 0 0 0 0 0 0 0 0 0 0 0 0 0 0 150 150 150 77 77 77 64 64 64 57 57 57 53 53 53 49 49 49 47 47 47 44 44 44 42 42 42 41 41 41 39 39 39 37 37 37 36 36 36 35 35 35 33 33 33 33 33 33 33 33 33 32 32 32 31 31 31 30 30 30 29 29 29 28 28 28 28 28 28 27 27 27 27 27 27 26 26 26 26 26 26 25 25 25 25 25 25 
18 18 18 38 38 38 39 39 39 40 40 40 42 42 42 44 44 44 46 46 46 47 47 47 48 48 48 48 48 48 55 55 55 55 55 55 56 56 56 54 54 54 53 53 53 53 53 53 53 53 53 54 54 54 56 56 56 58 58 58 59 59 59 60 60 60 62 62 62 70 70 70 73 73 73 83 83 83 98 98 98 156 156 156 0 0 0 0 0 0 0 0 0 182 182 182 174 174 174 0 0 0 0 0 0 0 0 0 0 0 0 0 0 0 0 0 0 0 0 0 0 0 0 0 0 0 0 0 0 0 0 0 0 0 0 0 0 0 0 0 0 0 0 0 0 0 0 0 0 0 0 0 0 0 0 0 0 0 0 0 0 0 0 0 0 0 0 0 0 0 0 0 0 0 0 0 0 0 0 0 0 0 0 0 0 0 0 0 0 0 0 0 0 0 0 0 0 0 0 0 0 0 0 0 0 0 0 0 0 0 0 0 0 0 0 0 0 0 0 0 0 0 0 0 0 0 0 0 0 0 0 0 0 0 0 0 0 0 0 0 0 0 0 0 0 0 0 0 0 0 0 0 0 0 0 0 0 0 0 0 0 0 0 0 0 0 0 0 0 0 0 0 0 0 0 0 0 0 0 0 0 0 0 0 0 0 0 0 0 0 0 0 0 0 0 0 0 0 0 0 0 0 0 0 0 0 227 227 227 71 71 71 60 60 60 54 54 54 50 50 50 47 47 47 44 44 44 42 42 42 41 41 41 39 39 39 37 37 37 36 36 36 35 35 35 33 33 33 32 32 32 33 33 33 32 32 32 31 31 31 30 30 30 29 29 29 28 28 28 28 28 28 27 27 27 27 27 27 26 26 26 26 26 26 25 25 25 25 25 25 
18 18 18 36 36 36 38 38 38 39 39 39 40 40 40 40 40 40 40 40 40 40 40 40 40 40 40 40 40 40 40 40 40 47 47 47 48 48 48 49 49 49 49 49 49 50 50 50 50 50 50 51 51 51 53 53 53 55 55 55 55 55 55 57 57 57 59 59 59 63 63 63 71 71 71 78 78 78 94 94 94 195 195 195 114 114 114 126 126 126 123 123 123 124 124 124 0 0 0 0 0 0 0 0 0 0 0 0 0 0 0 0 0 0 0 0 0 0 0 0 0 0 0 0 0 0 0 0 0 0 0 0 0 0 0 0 0 0 0 0 0 0 0 0 0 0 0 0 0 0 0 0 0 0 0 0 0 0 0 0 0 0 254 254 254 0 0 0 0 0 0 0 0 0 0 0 0 0 0 0 0 0 0 0 0 0 0 0 0 0 0 0 0 0 0 0 0 0 0 0 0 0 0 0 0 0 0 0 0 0 0 0 0 0 0 0 0 0 0 0 0 0 0 0 0 0 0 0 0 0 0 0 0 0 0 0 0 0 0 0 0 0 0 0 0 0 0 0 0 0 0 0 0 0 0 0 0 0 0 0 0 0 0 0 0 0 0 0 0 0 0 0 0 0 0 0 0 0 0 0 0 0 0 0 0 0 0 0 0 0 0 0 0 0 0 0 0 0 0 0 0 0 0 0 0 0 203 203 203 212 212 212 65 65 65 56 56 56 51 51 51 47 47 47 44 44 44 42 42 42 41 41 41 39 39 39 37 37 37 36 36 36 35 35 35 33 33 33 32 32 32 32 32 32 31 31 31 31 31 31 30 30 30 29 29 29 28 28 28 28 28 28 27 27 27 27 27 27 26 26 26 26 26 26 25 25 25 25 25 25 
18 18 18 34 34 34 35 35 35 36 36 36 37 37 37 38 38 38 38 38 38 38 38 38 39 39 39 39 39 39 39 39 39 40 40 40 41 41 41 46 46 46 48 48 48 47 47 47 47 47 47 48 48 48 50 50 50 51 51 51 53 53 53 54 54 54 56 56 56 60 60 60 66 66 66 79 79 79 228 228 228 94 94 94 88 88 88 105 105 105 99 99 99 103 103 103 144 144 144 0 0 0 0 0 0 0 0 0 0 0 0 0 0 0 0 0 0 0 0 0 0 0 0 0 0 0 0 0 0 0 0 0 0 0 0 0 0 0 0 0 0 0 0 0 0 0 0 0 0 0 0 0 0 0 0 0 0 0 0 0 0 0 204 204 204 0 0 0 0 0 0 0 0 0 0 0 0 0 0 0 0 0 0 0 0 0 0 0 0 0 0 0 0 0 0 0 0 0 0 0 0 0 0 0 0 0 0 0 0 0 0 0 0 0 0 0 0 0 0 0 0 0 0 0 0 0 0 0 0 0 0 0 0 0 0 0 0 0 0 0 0 0 0 0 0 0 0 0 0 0 0 0 0 0 0 0 0 0 0 0 0 0 0 0 0 0 0 0 0 0 0 0 0 0 0 0 0 0 0 0 0 0 0 0 0 0 0 0 0 0 0 0 0 0 0 0 0 0 0 0 0 0 0 0 0 0 0 0 0 113 113 113 75 75 75 60 60 60 52 52 52 48 48 48 45 45 45 42 42 42 41 41 41 39 39 39 37 37 37 36 36 36 35 35 35 33 33 33 32 32 32 32 32 32 31 31 31 31 31 31 30 30 30 29 29 29 28 28 28 28 28 28 27 27 27 27 27 27 26 26 26 26 26 26 25 25 25 25 25 25 
18 18 18 33 33 33 34 34 34 35 35 35 35 35 35 36 36 36 36 36 36 37 37 37 37 37 37 38 38 38 38 38 38 39 39 39 40 40 40 41 41 41 45 45 45 46 46 46 47 47 47 48 48 48 47 47 47 49 49 49 50 50 50 52 52 52 54 54 54 57 57 57 63 63 63 82 82 82 97 97 97 78 78 78 76 76 76 77 77 77 85 85 85 91 91 91 110 110 110 151 151 151 0 0 0 0 0 0 0 0 0 0 0 0 0 0 0 0 0 0 0 0 0 0 0 0 0 0 0 0 0 0 0 0 0 0 0 0 0 0 0 0 0 0 0 0 0 0 0 0 0 0 0 0 0 0 0 0 0 190 190 190 173 173 173 0 0 0 0 0 0 0 0 0 0 0 0 0 0 0 0 0 0 0 0 0 0 0 0 0 0 0 0 0 0 0 0 0 0 0 0 0 0 0 0 0 0 0 0 0 0 0 0 0 0 0 0 0 0 0 0 0 0 0 0 0 0 0 0 0 0 0 0 0 0 0 0 0 0 0 0 0 0 0 0 0 0 0 0 0 0 0 0 0 0 0 0 0 0 0 0 0 0 0 0 0 0 0 0 0 0 0 0 0 0 0 0 0 0 0 0 0 0 0 0 0 0 0 0 0 0 0 0 0 0 0 0 0 0 0 0 0 0 0 0 0 0 0 0 0 0 0 0 0 0 67 67 67 54 54 54 48 48 48 45 45 45 43 43 43 41 41 41 39 39 39 37 37 37 36 36 36 35 35 35 33 33 33 33 33 33 32 32 32 31 31 31 30 30 30 30 30 30 29 29 29 28 28 28 28 28 28 27 27 27 27 27 27 26 26 26 26 26 26 25 25 25 25 25 25 
18 18 18 32 32 32 32 32 32 33 33 33 34 34 34 35 35 35 35 35 35 36 36 36 36 36 36 37 37 37 37 37 37 38 38 38 39 39 39 40 40 40 41 41 41 43 43 43 44 44 44 45 45 45 46 46 46 46 46 46 47 47 47 48 48 48 48 48 48 53 53 53 56 56 56 81 81 81 68 68 68 68 68 68 70 70 70 71 71 71 78 78 78 89 89 89 110 110 110 0 0 0 0 0 0 0 0 0 0 0 0 0 0 0 0 0 0 0 0 0 0 0 0 0 0 0 0 0 0 0 0 0 0 0 0 0 0 0 0 0 0 0 0 0 0 0 0 0 0 0 0 0 0 0 0 0 0 0 0 145 145 145 152 152 152 0 0 0 0 0 0 0 0 0 0 0 0 0 0 0 0 0 0 0 0 0 0 0 0 0 0 0 0 0 0 0 0 0 0 0 0 0 0 0 0 0 0 0 0 0 0 0 0 0 0 0 0 0 0 0 0 0 0 0 0 0 0 0 0 0 0 0 0 0 0 0 0 0 0 0 0 0 0 0 0 0 0 0 0 0 0 0 0 0 0 0 0 0 0 0 0 0 0 0 0 0 0 0 0 0 0 0 0 0 0 0 0 0 0 0 0 0 0 0 0 0 0 0 0 0 0 0 0 0 0 0 0 0 0 0 0 0 0 0 0 0 0 0 0 191 191 191 105 105 105 72 72 72 57 57 57 50 50 50 46 46 46 43 43 43 41 41 41 39 39 39 37 37 37 36 36 36 34 34 34 33 33 33 33 33 33 32 32 32 31 31 31 30 30 30 30 30 30 29 29 29 28 28 28 28 28 28 27 27 27 26 26 26 26 26 26 25 25 25 25 25 25 25 25 25 
18 18 18 31 31 31 33 33 33 32 32 32 33 33 33 33 33 33 34 34 34 35 35 35 35 35 35 36 36 36 36 36 36 37 37 37 38 38 38 39 39 39 40 40 40 41 41 41 42 42 42 43 43 43 44 44 44 44 44 44 45 45 45 46 46 46 46 46 46 47 47 47 48 48 48 55 55 55 61 61 61 63 63 63 64 64 64 67 67 67 73 73 73 97 97 97 114 114 114 119 119 119 144 144 144 0 0 0 0 0 0 0 0 0 0 0 0 0 0 0 0 0 0 0 0 0 0 0 0 0 0 0 0 0 0 0 0 0 0 0 0 0 0 0 0 0 0 0 0 0 0 0 0 0 0 0 163 163 163 126 126 126 134 134 134 0 0 0 0 0 0 0 0 0 0 0 0 0 0 0 0 0 0 0 0 0 0 0 0 0 0 0 0 0 0 0 0 0 0 0 0 0 0 0 0 0 0 0 0 0 0 0 0 0 0 0 0 0 0 0 0 0 0 0 0 0 0 0 0 0 0 0 0 0 0 0 0 0 0 0 0 0 0 0 0 0 0 0 0 0 0 0 0 0 0 0 0 0 0 0 0 0 0 0 0 0 0 0 0 0 0 0 0 0 0 0 0 0 0 0 0 0 0 0 0 0 0 0 0 0 0 0 0 0 0 0 0 0 0 0 0 0 0 0 0 0 0 0 0 0 0 0 101 101 101 77 77 77 61 61 61 52 52 52 46 46 46 43 43 43 41 41 41 39 39 39 37 37 37 36 36 36 34 34 34 33 33 33 33 33 33 32 32 32 31 31 31 30 30 30 30 30 30 29 29 29 28 28 28 28 28 28 27 27 27 26 26 26 26 26 26 25 25 25 25 25 25 25 25 25 
18 18 18 31 31 31 32 32 32 33 33 33 32 32 32 32 32 32 33 33 33 34 34 34 34 34 34 35 35 35 35 35 35 36 36 36 37 37 37 38 38 38 39 39 39 40 40 40 41 41 41 41 41 41 42 42 42 43 43 43 43 43 43 44 44 44 45 45 45 46 46 46 47 47 47 48 48 48 55 55 55 57 57 57 59 59 59 61 61 61 63 63 63 79 79 79 84 84 84 90 90 90 105 105 105 131 131 131 184 184 184 0 0 0 0 0 0 0 0 0 0 0 0 0 0 0 0 0 0 0 0 0 0 0 0 0 0 0 0 0 0 0 0 0 0 0 0 0 0 0 0 0 0 148 148 148 115 115 115 112 112 112 122 122 122 0 0 0 0 0 0 0 0 0 0 0 0 0 0 0 0 0 0 0 0 0 0 0 0 0 0 0 0 0 0 0 0 0 0 0 0 0 0 0 0 0 0 0 0 0 0 0 0 0 0 0 0 0 0 0 0 0 0 0 0 0 0 0 0 0 0 0 0 0 0 0 0 0 0 0 0 0 0 0 0 0 0 0 0 0 0 0 0 0 0 0 0 0 0 0 0 0 0 0 0 0 0 0 0 0 0 0 0 0 0 0 0 0 0 0 0 0 0 0 0 0 0 0 0 0 0 0 0 0 0 0 0 0 0 0 0 0 0 0 0 0 0 0 0 0 0 0 0 0 0 0 0 0 84 84 84 54 54 54 47 47 47 44 44 44 41 41 41 39 39 39 37 37 37 36 36 36 34 34 34 33 33 33 33 33 33 32 32 32 31 31 31 30 30 30 29 29 29 29 29 29 28 28 28 27 27 27 27 27 27 26 26 26 26 26 26 25 25 25 25 25 25 25 25 25 
18 18 18 30 30 30 31 31 31 32 32 32 33 33 33 32 32 32 32 32 32 33 33 33 33 33 33 34 34 34 34 34 34 35 35 35 36 36 36 37 37 37 37 37 37 38 38 38 40 40 40 41 41 41 40 40 40 41 41 41 42 42 42 43 43 43 44 44 44 45 45 45 46 46 46 47 47 47 52 52 52 55 55 55 56 56 56 59 59 59 61 61 61 69 69 69 75 75 75 85 85 85 109 109 109 136 136 136 0 0 0 0 0 0 0 0 0 0 0 0 0 0 0 0 0 0 0 0 0 0 0 0 0 0 0 0 0 0 0 0 0 0 0 0 0 0 0 0 0 0 151 151 151 112 112 112 100 100 100 101 101 101 111 111 111 175 175 175 0 0 0 0 0 0 0 0 0 0 0 0 0 0 0 0 0 0 0 0 0 0 0 0 0 0 0 0 0 0 0 0 0 0 0 0 0 0 0 0 0 0 0 0 0 0 0 0 0 0 0 0 0 0 0 0 0 0 0 0 0 0 0 0 0 0 0 0 0 0 0 0 0 0 0 0 0 0 0 0 0 0 0 0 0 0 0 0 0 0 0 0 0 0 0 0 0 0 0 0 0 0 0 0 0 0 0 0 0 0 0 0 0 0 0 0 0 0 0 0 0 0 0 0 0 0 0 0 0 0 0 0 0 0 0 0 0 0 0 0 0 0 0 0 0 0 0 132 132 132 178 178 178 54 54 54 48 48 48 44 44 44 41 41 41 39 39 39 37 37 37 36 36 36 34 34 34 33 33 33 33 33 33 32 32 32 31 31 31 30 30 30 29 29 29 29 29 29 28 28 28 27 27 27 27 27 27 26 26 26 26 26 26 25 25 25 25 25 25 24 24 24 
18 18 18 26 26 26 30 30 30 31 31 31 32 32 32 33 33 33 31 31 31 32 32 32 32 32 32 33 33 33 34 34 34 34 34 34 35 35 35 36 36 36 37 37 37 37 37 37 38 38 38 40 40 40 39 39 39 40 40 40 41 41 41 42 42 42 43 43 43 44 44 44 45 45 45 46 46 46 48 48 48 52 52 52 54 54 54 57 57 57 60 60 60 66 66 66 71 71 71 78 78 78 99 99 99 135 135 135 255 255 255 0 0 0 0 0 0 180 180 180 186 186 186 0 0 0 0 0 0 0 0 0 0 0 0 0 0 0 240 240 240 0 0 0 147 147 147 242 242 242 101 101 101 91 91 91 90 90 90 93 93 93 100 100 100 0 0 0 0 0 0 0 0 0 0 0 0 0 0 0 0 0 0 0 0 0 0 0 0 0 0 0 0 0 0 0 0 0 0 0 0 0 0 0 0 0 0 0 0 0 0 0 0 0 0 0 0 0 0 0 0 0 0 0 0 0 0 0 0 0 0 0 0 0 0 0 0 0 0 0 0 0 0 0 0 0 0 0 0 0 0 0 0 0 0 0 0 0 0 0 0 0 0 0 0 0 0 0 0 0 0 0 0 0 0 0 0 0 0 0 0 0 0 0 0 0 0 0 0 0 0 0 0 0 0 0 0 0 0 0 0 0 0 0 0 0 0 0 0 0 0 0 106 106 106 85 85 85 73 73 73 55 55 55 48 48 48 45 45 45 41 41 41 39 39 39 37 37 37 36 36 36 34 34 34 33 33 33 33 33 33 32 32 32 31 31 31 30 30 30 29 29 29 28 28 28 28 28 28 27 27 27 27 27 27 26 26 26 26 26 26 25 25 25 25 25 25 26 26 26 
18 18 18 26 26 26 30 30 30 31 31 31 31 31 31 32 32 32 33 33 33 31 31 31 32 32 32 32 32 32 33 33 33 34 34 34 34 34 34 35 35 35 36 36 36 36 36 36 37 37 37 38 38 38 40 40 40 39 39 39 40 40 40 40 40 40 41 41 41 43 43 43 44 44 44 45 45 45 47 47 47 50 50 50 53 53 53 55 55 55 59 59 59 65 65 65 71 71 71 80 80 80 91 91 91 117 117 117 209 209 209 0 0 0 0 0 0 123 123 123 0 0 0 131 131 131 186 186 186 0 0 0 0 0 0 139 139 139 141 141 141 0 0 0 105 105 105 102 102 102 88 88 88 84 84 84 84 84 84 87 87 87 95 95 95 0 0 0 0 0 0 0 0 0 0 0 0 0 0 0 0 0 0 0 0 0 0 0 0 0 0 0 0 0 0 0 0 0 0 0 0 0 0 0 0 0 0 0 0 0 0 0 0 0 0 0 0 0 0 0 0 0 0 0 0 0 0 0 0 0 0 0 0 0 0 0 0 0 0 0 0 0 0 0 0 0 0 0 0 0 0 0 0 0 0 0 0 0 0 0 0 0 0 0 0 0 0 0 0 0 0 0 0 0 0 0 0 0 0 0 0 0 0 0 0 0 0 0 0 0 0 0 0 0 0 0 0 0 0 0 0 0 0 0 0 0 0 0 0 213 213 213 106 106 106 76 76 76 64 64 64 56 56 56 49 49 49 45 45 45 41 41 41 39 39 39 37 37 37 35 35 35 34 34 34 33 33 33 32 32 32 31 31 31 31 31 31 30 30 30 29 29 29 28 28 28 28 28 28 27 27 27 27 27 27 26 26 26 26 26 26 25 25 25 25 25 25 26 26 26 
18 18 18 26 26 26 29 29 29 30 30 30 31 31 31 31 31 31 32 32 32 33 33 33 31 31 31 32 32 32 32 32 32 33 33 33 33 33 33 34 34 34 35 35 35 36 36 36 36 36 36 37 37 37 38 38 38 40 40 40 41 41 41 39 39 39 40 40 40 41 41 41 43 43 43 44 44 44 46 46 46 49 49 49 51 51 51 55 55 55 59 59 59 65 65 65 75 75 75 88 88 88 101 101 101 184 184 184 175 175 175 143 143 143 183 183 183 99 99 99 93 93 93 103 103 103 123 123 123 197 197 197 0 0 0 103 103 103 236 236 236 112 112 112 85 85 85 78 78 78 76 76 76 76 76 76 78 78 78 81 81 81 86 86 86 110 110 110 191 191 191 0 0 0 0 0 0 0 0 0 0 0 0 0 0 0 0 0 0 0 0 0 0 0 0 0 0 0 0 0 0 0 0 0 0 0 0 0 0 0 0 0 0 0 0 0 0 0 0 0 0 0 0 0 0 0 0 0 0 0 0 0 0 0 0 0 0 0 0 0 0 0 0 0 0 0 0 0 0 0 0 0 0 0 0 0 0 0 0 0 0 0 0 0 0 0 0 0 0 0 0 0 0 0 0 0 0 0 0 0 0 0 0 0 0 0 0 0 0 0 0 0 0 0 0 0 0 0 0 0 0 0 0 0 0 0 0 0 0 161 161 161 117 117 117 82 82 82 66 66 66 56 56 56 49 49 49 45 45 45 41 41 41 39 39 39 37 37 37 35 35 35 34 34 34 33 33 33 32 32 32 31 31 31 30 30 30 30 30 30 29 29 29 28 28 28 28 28 28 27 27 27 27 27 27 26 26 26 26 26 26 25 25 25 25 25 25 26 26 26 
18 18 18 18 18 18 29 29 29 29 29 29 30 30 30 31 31 31 31 31 31 32 32 32 33 33 33 33 33 33 32 32 32 32 32 32 33 33 33 33 33 33 34 34 34 35 35 35 35 35 35 36 36 36 37 37 37 38 38 38 39 39 39 41 41 41 39 39 39 41 41 41 42 42 42 43 43 43 45 45 45 48 48 48 50 50 50 53 53 53 59 59 59 67 67 67 102 102 102 157 157 157 123 123 123 171 171 171 100 100 100 112 112 112 85 85 85 78 78 78 84 84 84 96 96 96 159 159 159 175 175 175 226 226 226 84 84 84 84 84 84 104 104 104 76 76 76 72 72 72 71 71 71 71 71 71 73 73 73 77 77 77 82 82 82 95 95 95 126 126 126 0 0 0 0 0 0 0 0 0 0 0 0 0 0 0 0 0 0 0 0 0 0 0 0 0 0 0 0 0 0 0 0 0 0 0 0 0 0 0 0 0 0 0 0 0 0 0 0 0 0 0 0 0 0 0 0 0 0 0 0 0 0 0 0 0 0 0 0 0 0 0 0 0 0 0 0 0 0 0 0 0 0 0 0 0 0 0 0 0 0 0 0 0 0 0 0 0 0 0 0 0 0 0 0 0 0 0 0 0 0 0 0 0 0 0 0 0 0 0 0 0 0 0 0 0 0 0 0 0 0 0 0 0 0 0 0 0 0 0 0 0 0 0 0 119 119 119 97 97 97 61 61 61 50 50 50 45 45 45 41 41 41 38 38 38 37 37 37 35 35 35 34 34 34 33 33 33 32 32 32 31 31 31 30 30 30 29 29 29 29 29 29 28 28 28 28 28 28 27 27 27 26 26 26 26 26 26 25 25 25 25 25 25 25 25 25 26 26 26 
18 18 18 18 18 18 26 26 26 29 29 29 29 29 29 30 30 30 30 30 30 31 31 31 32 32 32 32 32 32 33 33 33 33 33 33 32 32 32 33 33 33 33 33 33 34 34 34 35 35 35 35 35 35 36 36 36 37 37 37 38 38 38 39 39 39 40 40 40 40 40 40 41 41 41 42 42 42 44 44 44 47 47 47 48 48 48 51 51 51 56 56 56 91 91 91 115 115 115 98 98 98 81 81 81 75 75 75 76 76 76 86 86 86 71 71 71 70 70 70 74 74 74 93 93 93 116 116 116 88 88 88 76 76 76 71 71 71 70 70 70 68 68 68 67 67 67 67 67 67 67 67 67 68 68 68 69 69 69 72 72 72 78 78 78 100 100 100 0 0 0 0 0 0 0 0 0 0 0 0 0 0 0 0 0 0 0 0 0 0 0 0 0 0 0 0 0 0 0 0 0 0 0 0 0 0 0 0 0 0 0 0 0 0 0 0 0 0 0 0 0 0 0 0 0 0 0 0 0 0 0 0 0 0 0 0 0 0 0 0 0 0 0 0 0 0 0 0 0 0 0 0 0 0 0 0 0 0 0 0 0 0 0 0 0 0 0 0 0 0 0 0 0 0 0 0 0 0 0 0 0 0 0 0 0 0 0 0 0 0 0 0 0 0 0 0 0 0 0 0 0 0 0 0 0 0 0 0 0 0 0 0 0 0 0 0 0 0 0 0 0 105 105 105 51 51 51 45 45 45 40 40 40 38 38 38 37 37 37 35 35 35 34 34 34 33 33 33 32 32 32 31 31 31 30 30 30 29 29 29 29 29 29 28 28 28 27 27 27 27 27 27 26 26 26 26 26 26 25 25 25 25 25 25 26 26 26 25 25 25 
18 18 18 18 18 18 26 26 26 28 28 28 29 29 29 29 29 29 30 30 30 30 30 30 31 31 31 31 31 31 32 32 32 32 32 32 33 33 33 33 33 33 33 33 33 33 33 33 34 34 34 34 34 34 35 35 35 36 36 36 37 37 37 38 38 38 39 39 39 40 40 40 40 40 40 41 41 41 43 43 43 46 46 46 47 47 47 50 50 50 55 55 55 72 72 72 118 118 118 86 86 86 70 70 70 67 67 67 63 63 63 61 61 61 61 61 61 63 63 63 66 66 66 76 76 76 105 105 105 85 85 85 68 68 68 65 65 65 62 62 62 61 61 61 61 61 61 61 61 61 62 62 62 64 64 64 66 66 66 68 68 68 73 73 73 87 87 87 196 196 196 160 160 160 165 165 165 0 0 0 0 0 0 0 0 0 0 0 0 0 0 0 0 0 0 0 0 0 0 0 0 0 0 0 0 0 0 0 0 0 0 0 0 0 0 0 0 0 0 0 0 0 0 0 0 0 0 0 0 0 0 0 0 0 0 0 0 0 0 0 0 0 0 0 0 0 0 0 0 0 0 0 0 0 0 0 0 0 0 0 0 0 0 0 0 0 0 0 0 0 0 0 0 0 0 0 0 0 0 0 0 0 0 0 0 0 0 0 0 0 0 0 0 0 0 0 0 0 0 0 0 0 0 0 0 0 171 171 171 0 0 0 0 0 0 108 108 108 142 142 142 67 67 67 51 51 51 45 45 45 40 40 40 38 38 38 37 37 37 35 35 35 34 34 34 32 32 32 31 31 31 31 31 31 30 30 30 29 29 29 28 28 28 28 28 28 27 27 27 27 27 27 26 26 26 26 26 26 25 25 25 25 25 25 26 26 26 25 25 25 
18 18 18 18 18 18 26 26 26 27 27 27 28 28 28 28 28 28 29 29 29 29 29 29 30 30 30 30 30 30 31 31 31 31 31 31 32 32 32 32 32 32 33 33 33 33 33 33 33 33 33 34 34 34 34 34 34 35 35 35 36 36 36 37 37 37 38 38 38 39 39 39 40 40 40 41 41 41 42 42 42 44 44 44 47 47 47 49 49 49 56 56 56 67 67 67 99 99 99 79 79 79 64 64 64 61 61 61 58 58 58 57 57 57 57 57 57 58 58 58 60 60 60 63 63 63 228 228 228 65 65 65 62 62 62 60 60 60 58 58 58 58 58 58 58 58 58 58 58 58 59 59 59 61 61 61 63 63 63 65 65 65 68 68 68 76 76 76 85 85 85 106 106 106 126 126 126 191 191 191 0 0 0 0 0 0 0 0 0 0 0 0 0 0 0 0 0 0 0 0 0 0 0 0 0 0 0 0 0 0 0 0 0 0 0 0 0 0 0 0 0 0 0 0 0 0 0 0 0 0 0 0 0 0 0 0 0 0 0 0 0 0 0 0 0 0 0 0 0 0 0 0 0 0 0 0 0 0 0 0 0 0 0 0 0 0 0 0 0 0 0 0 0 0 0 0 0 0 0 0 0 0 0 0 0 0 0 0 0 0 0 0 0 0 0 0 0 0 0 0 0 0 0 0 0 0 142 142 142 98 98 98 85 85 85 82 82 82 101 101 101 68 68 68 48 48 48 44 44 44 40 40 40 38 38 38 36 36 36 35 35 35 33 33 33 32 32 32 31 31 31 30 30 30 30 30 30 29 29 29 28 28 28 28 28 28 27 27 27 27 27 27 26 26 26 26 26 26 25 25 25 25 25 25 26 26 26 25 25 25 
18 18 18 18 18 18 25 25 25 26 26 26 27 27 27 28 28 28 28 28 28 29 29 29 29 29 29 30 30 30 30 30 30 31 31 31 31 31 31 31 31 31 32 32 32 32 32 32 32 32 32 33 33 33 33 33 33 33 33 33 35 35 35 36 36 36 36 36 36 37 37 37 38 38 38 39 39 39 40 40 40 42 42 42 45 45 45 48 48 48 55 55 55 87 87 87 92 92 92 87 87 87 56 56 56 55 55 55 54 54 54 54 54 54 54 54 54 54 54 54 54 54 54 55 55 55 55 55 55 55 55 55 55 55 55 55 55 55 56 56 56 55 55 55 55 55 55 56 56 56 57 57 57 58 58 58 60 60 60 63 63 63 65 65 65 71 71 71 81 81 81 99 99 99 0 0 0 0 0 0 0 0 0 0 0 0 0 0 0 0 0 0 0 0 0 0 0 0 0 0 0 0 0 0 0 0 0 0 0 0 0 0 0 0 0 0 0 0 0 0 0 0 0 0 0 0 0 0 0 0 0 0 0 0 0 0 0 0 0 0 0 0 0 0 0 0 0 0 0 0 0 0 0 0 0 0 0 0 0 0 0 0 0 0 0 0 0 0 0 0 0 0 0 0 0 0 0 0 0 0 0 0 0 0 0 0 0 0 0 0 0 0 0 0 0 0 0 0 0 0 0 0 0 0 0 0 221 221 221 81 81 81 72 72 72 68 68 68 70 70 70 54 54 54 47 47 47 43 43 43 40 40 40 38 38 38 36 36 36 35 35 35 33 33 33 32 32 32 31 31 31 30 30 30 29 29 29 29 29 29 28 28 28 28 28 28 27 27 27 26 26 26 26 26 26 25 25 25 25 25 25 26 26 26 25 25 25 25 25 25 
18 18 18 18 18 18 18 18 18 26 26 26 27 27 27 27 27 27 28 28 28 28 28 28 29 29 29 29 29 29 30 30 30 30 30 30 30 30 30 31 31 31 31 31 31 31 31 31 32 32 32 32 32 32 32 32 32 33 33 33 33 33 33 33 33 33 33 33 33 36 36 36 37 37 37 38 38 38 39 39 39 40 40 40 41 41 41 45 45 45 53 53 53 72 72 72 58 58 58 53 53 53 51 51 51 50 50 50 50 50 50 50 50 50 50 50 50 50 50 50 50 50 50 48 48 48 48 48 48 48 48 48 52 52 52 52 52 52 52 52 52 53 53 53 54 54 54 55 55 55 55 55 55 56 56 56 58 58 58 60 60 60 63 63 63 70 70 70 83 83 83 138 138 138 0 0 0 0 0 0 0 0 0 0 0 0 0 0 0 0 0 0 0 0 0 0 0 0 0 0 0 0 0 0 0 0 0 0 0 0 0 0 0 0 0 0 0 0 0 0 0 0 0 0 0 0 0 0 0 0 0 0 0 0 0 0 0 0 0 0 0 0 0 0 0 0 0 0 0 0 0 0 0 0 0 0 0 0 0 0 0 0 0 0 0 0 0 0 0 0 0 0 0 0 0 0 0 0 0 0 0 0 0 0 0 0 0 0 0 0 0 0 0 0 0 0 0 0 0 0 0 0 0 125 125 125 253 253 253 73 73 73 65 65 65 60 60 60 55 55 55 50 50 50 46 46 46 42 42 42 40 40 40 38 38 38 36 36 36 35 35 35 33 33 33 32 32 32 31 31 31 30 30 30 29 29 29 29 29 29 28 28 28 27 27 27 27 27 27 26 26 26 26 26 26 25 25 25 25 25 25 26 26 26 25 25 25 25 25 25 
18 18 18 18 18 18 18 18 18 25 25 25 27 27 27 27 27 27 27 27 27 28 28 28 28 28 28 29 29 29 29 29 29 29 29 29 30 30 30 30 30 30 30 30 30 31 31 31 31 31 31 31 31 31 32 32 32 32 32 32 32 32 32 32 32 32 33 33 33 33 33 33 33 33 33 33 33 33 37 37 37 38 38 38 39 39 39 40 40 40 41 41 41 47 47 47 49 49 49 48 48 48 47 47 47 47 47 47 48 48 48 48 48 48 47 47 47 47 47 47 46 46 46 46 46 46 47 47 47 47 47 47 47 47 47 48 48 48 48 48 48 50 50 50 51 51 51 52 52 52 53 53 53 54 54 54 55 55 55 57 57 57 61 61 61 67 67 67 91 91 91 0 0 0 0 0 0 167 167 167 0 0 0 152 152 152 0 0 0 0 0 0 0 0 0 0 0 0 0 0 0 0 0 0 0 0 0 0 0 0 0 0 0 0 0 0 0 0 0 0 0 0 0 0 0 0 0 0 0 0 0 0 0 0 0 0 0 0 0 0 0 0 0 0 0 0 0 0 0 0 0 0 0 0 0 0 0 0 0 0 0 0 0 0 0 0 0 0 0 0 0 0 0 0 0 0 0 0 0 0 0 0 0 0 0 0 0 0 0 0 0 0 0 0 0 0 0 0 0 0 136 136 136 98 98 98 82 82 82 69 69 69 61 61 61 56 56 56 52 52 52 48 48 48 44 44 44 41 41 41 40 40 40 37 37 37 36 36 36 33 33 33 32 32 32 31 31 31 30 30 30 30 30 30 29 29 29 28 28 28 28 28 28 27 27 27 27 27 27 26 26 26 26 26 26 25 25 25 25 25 25 25 25 25 25 25 25 25 25 25 
18 18 18 18 18 18 18 18 18 25 25 25 26 26 26 27 27 27 27 27 27 27 27 27 28 28 28 28 28 28 28 28 28 29 29 29 29 29 29 29 29 29 30 30 30 30 30 30 30 30 30 31 31 31 31 31 31 31 31 31 31 31 31 32 32 32 32 32 32 32 32 32 32 32 32 33 33 33 33 33 33 33 33 33 38 38 38 38 38 38 39 39 39 40 40 40 44 44 44 45 45 45 45 45 45 45 45 45 45 45 45 45 45 45 45 45 45 45 45 45 45 45 45 45 45 45 45 45 45 45 45 45 46 46 46 46 46 46 47 47 47 47 47 47 48 48 48 50 50 50 51 51 51 52 52 52 53 53 53 54 54 54 56 56 56 61 61 61 74 74 74 85 85 85 113 113 113 130 130 130 104 104 104 0 0 0 0 0 0 0 0 0 0 0 0 0 0 0 0 0 0 0 0 0 0 0 0 0 0 0 0 0 0 0 0 0 0 0 0 0 0 0 0 0 0 0 0 0 0 0 0 0 0 0 0 0 0 0 0 0 0 0 0 0 0 0 0 0 0 0 0 0 0 0 0 0 0 0 0 0 0 0 0 0 0 0 0 0 0 0 0 0 0 0 0 0 0 0 0 0 0 0 0 0 0 0 0 0 0 0 0 0 0 0 0 0 0 0 0 0 0 0 0 116 116 116 82 82 82 69 69 69 60 60 60 55 55 55 50 50 50 47 47 47 43 43 43 41 41 41 39 39 39 37 37 37 35 35 35 33 33 33 32 32 32 31 31 31 30 30 30 29 29 29 29 29 29 28 28 28 28 28 28 27 27 27 27 27 27 26 26 26 26 26 26 25 25 25 26 26 26 25 25 25 25 25 25 24 24 24 
18 18 18 18 18 18 18 18 18 25 25 25 26 26 26 26 26 26 26 26 26 27 27 27 27 27 27 27 27 27 28 28 28 28 28 28 28 28 28 29 29 29 29 29 29 29 29 29 30 30 30 30 30 30 30 30 30 31 31 31 31 31 31 31 31 31 31 31 31 32 32 32 32 32 32 32 32 32 32 32 32 33 33 33 33 33 33 33 33 33 38 38 38 39 39 39 39 39 39 40 40 40 41 41 41 43 43 43 43 43 43 43 43 43 43 43 43 43 43 43 43 43 43 43 43 43 43 43 43 44 44 44 44 44 44 45 45 45 45 45 45 46 46 46 47 47 47 48 48 48 49 49 49 50 50 50 51 51 51 52 52 52 54 54 54 56 56 56 62 62 62 68 68 68 77 77 77 84 84 84 88 88 88 97 97 97 120 120 120 163 163 163 0 0 0 0 0 0 0 0 0 0 0 0 0 0 0 0 0 0 0 0 0 0 0 0 0 0 0 0 0 0 0 0 0 0 0 0 0 0 0 0 0 0 0 0 0 0 0 0 0 0 0 0 0 0 0 0 0 0 0 0 0 0 0 0 0 0 0 0 0 0 0 0 0 0 0 0 0 0 0 0 0 0 0 0 0 0 0 0 0 0 0 0 0 0 0 0 0 0 0 0 0 0 0 0 0 0 0 0 0 0 0 0 0 0 167 167 167 73 73 73 60 60 60 53 53 53 49 49 49 46 46 46 43 43 43 40 40 40 39 39 39 37 37 37 35 35 35 33 33 33 32 32 32 31 31 31 30 30 30 29 29 29 29 29 29 28 28 28 27 27 27 27 27 27 26 26 26 26 26 26 25 25 25 25 25 25 26 26 26 25 25 25 25 25 25 24 24 24 
18 18 18 18 18 18 18 18 18 18 18 18 25 25 25 26 26 26 26 26 26 26 26 26 27 27 27 27 27 27 27 27 27 28 28 28 28 28 28 28 28 28 29 29 29 29 29 29 29 29 29 29 29 29 30 30 30 30 30 30 30 30 30 31 31 31 31 31 31 31 31 31 31 31 31 32 32 32 32 32 32 32 32 32 32 32 32 33 33 33 33 33 33 33 33 33 38 38 38 39 39 39 39 39 39 40 40 40 41 41 41 41 41 41 41 41 41 41 41 41 41 41 41 42 42 42 42 42 42 42 42 42 43 43 43 43 43 43 44 44 44 45 45 45 45 45 45 46 46 46 48 48 48 48 48 48 49 49 49 50 50 50 52 52 52 54 54 54 58 58 58 63 63 63 66 66 66 73 73 73 79 79 79 91 91 91 111 111 111 236 236 236 0 0 0 0 0 0 0 0 0 0 0 0 0 0 0 0 0 0 0 0 0 0 0 0 0 0 0 0 0 0 0 0 0 0 0 0 0 0 0 0 0 0 0 0 0 0 0 0 0 0 0 0 0 0 0 0 0 0 0 0 0 0 0 0 0 0 0 0 0 0 0 0 0 0 0 0 0 0 0 0 0 0 0 0 0 0 0 0 0 0 0 0 0 0 0 0 0 0 0 0 0 0 0 0 0 0 0 0 0 0 0 0 0 0 122 122 122 80 80 80 63 63 63 54 54 54 48 48 48 45 45 45 42 42 42 41 41 41 38 38 38 36 36 36 33 33 33 32 32 32 31 31 31 30 30 30 30 30 30 29 29 29 28 28 28 28 28 28 27 27 27 27 27 27 26 26 26 26 26 26 25 25 25 26 26 26 25 25 25 25 25 25 25 25 25 24 24 24 
18 18 18 18 18 18 18 18 18 18 18 18 25 25 25 26 26 26 26 26 26 26 26 26 26 26 26 27 27 27 27 27 27 27 27 27 27 27 27 28 28 28 28 28 28 28 28 28 29 29 29 29 29 29 29 29 29 29 29 29 30 30 30 30 30 30 30 30 30 30 30 30 31 31 31 31 31 31 31 31 31 32 32 32 32 32 32 32 32 32 33 33 33 33 33 33 33 33 33 37 37 37 38 38 38 39 39 39 39 39 39 40 40 40 41 41 41 40 40 40 40 40 40 40 40 40 41 41 41 41 41 41 42 42 42 42 42 42 43 43 43 43 43 43 44 44 44 45 45 45 46 46 46 47 47 47 48 48 48 49 49 49 50 50 50 52 52 52 55 55 55 59 59 59 63 63 63 69 69 69 75 75 75 100 100 100 216 216 216 0 0 0 0 0 0 0 0 0 0 0 0 0 0 0 0 0 0 0 0 0 0 0 0 0 0 0 0 0 0 0 0 0 0 0 0 0 0 0 0 0 0 0 0 0 0 0 0 0 0 0 0 0 0 0 0 0 0 0 0 0 0 0 0 0 0 0 0 0 0 0 0 0 0 0 0 0 0 0 0 0 0 0 0 0 0 0 0 0 0 0 0 0 0 0 0 0 0 0 145 145 145 0 0 0 0 0 0 0 0 0 0 0 0 0 0 0 240 240 240 89 89 89 83 83 83 55 55 55 48 48 48 44 44 44 41 41 41 40 40 40 38 38 38 36 36 36 33 33 33 32 32 32 31 31 31 30 30 30 29 29 29 29 29 29 28 28 28 28 28 28 27 27 27 27 27 27 26 26 26 26 26 26 25 25 25 26 26 26 25 25 25 25 25 25 24 24 24 24 24 24 
18 18 18 18 18 18 18 18 18 18 18 18 25 25 25 25 25 25 26 26 26 26 26 26 26 26 26 26 26 26 26 26 26 27 27 27 27 27 27 27 27 27 28 28 28 28 28 28 28 28 28 28 28 28 29 29 29 29 29 29 29 29 29 29 29 29 30 30 30 30 30 30 30 30 30 31 31 31 31 31 31 31 31 31 31 31 31 32 32 32 32 32 32 32 32 32 33 33 33 33 33 33 33 33 33 37 37 37 38 38 38 38 38 38 39 39 39 40 40 40 40 40 40 41 41 41 40 40 40 40 40 40 40 40 40 41 41 41 41 41 41 42 42 42 43 43 43 44 44 44 45 45 45 46 46 46 47 47 47 47 47 47 49 49 49 51 51 51 53 53 53 57 57 57 61 61 61 67 67 67 75 75 75 90 90 90 0 0 0 0 0 0 0 0 0 0 0 0 0 0 0 180 180 180 0 0 0 0 0 0 0 0 0 0 0 0 0 0 0 0 0 0 0 0 0 0 0 0 0 0 0 0 0 0 0 0 0 0 0 0 0 0 0 0 0 0 0 0 0 0 0 0 0 0 0 0 0 0 0 0 0 0 0 0 0 0 0 0 0 0 0 0 0 0 0 0 0 0 0 0 0 0 0 0 0 0 0 0 109 109 109 171 171 171 0 0 0 0 0 0 206 206 206 0 0 0 0 0 0 0 0 0 82 82 82 58 58 58 48 48 48 43 43 43 41 41 41 39 39 39 37 37 37 33 33 33 32 32 32 31 31 31 31 31 31 30 30 30 29 29 29 29 29 29 28 28 28 27 27 27 27 27 27 26 26 26 26 26 26 25 25 25 26 26 26 25 25 25 25 25 25 25 25 25 24 24 24 24 24 24 
18 18 18 18 18 18 18 18 18 18 18 18 25 25 25 25 25 25 26 26 26 25 25 25 26 26 26 26 26 26 26 26 26 26 26 26 27 27 27 27 27 27 27 27 27 27 27 27 28 28 28 28 28 28 28 28 28 28 28 28 29 29 29 29 29 29 29 29 29 29 29 29 30 30 30 30 30 30 30 30 30 31 31 31 31 31 31 31 31 31 31 31 31 32 32 32 32 32 32 32 32 32 33 33 33 33 33 33 37 37 37 37 37 37 38 38 38 38 38 38 39 39 39 39 39 39 40 40 40 41 41 41 39 39 39 40 40 40 40 40 40 41 41 41 42 42 42 42 42 42 43 43 43 44 44 44 46 46 46 47 47 47 47 47 47 49 49 49 52 52 52 55 55 55 59 59 59 66 66 66 84 84 84 99 99 99 128 128 128 0 0 0 0 0 0 0 0 0 0 0 0 132 132 132 159 159 159 0 0 0 0 0 0 0 0 0 0 0 0 0 0 0 0 0 0 0 0 0 0 0 0 0 0 0 0 0 0 0 0 0 0 0 0 0 0 0 0 0 0 0 0 0 0 0 0 0 0 0 0 0 0 0 0 0 0 0 0 0 0 0 0 0 0 0 0 0 0 0 0 176 176 176 123 123 123 102 102 102 89 89 89 96 96 96 133 133 133 187 187 187 114 114 114 114 114 114 133 133 133 175 175 175 121 121 121 61 61 61 47 47 47 43 43 43 40 40 40 38 38 38 36 36 36 33 33 33 32 32 32 31 31 31 30 30 30 30 30 30 29 29 29 28 28 28 28 28 28 27 27 27 27 27 27 26 26 26 26 26 26 25 25 25 26 26 26 25 25 25 25 25 25 24 24 24 24 24 24 24 24 24 
18 18 18 18 18 18 18 18 18 18 18 18 18 18 18 25 25 25 25 25 25 26 26 26 25 25 25 25 25 25 26 26 26 26 26 26 26 26 26 27 27 27 27 27 27 27 27 27 27 27 27 28 28 28 28 28 28 28 28 28 28 28 28 29 29 29 29 29 29 29 29 29 29 29 29 30 30 30 30 30 30 30 30 30 30 30 30 31 31 31 31 31 31 31 31 31 32 32 32 32 32 32 32 32 32 33 33 33 33 33 33 33 33 33 37 37 37 37 37 37 38 38 38 38 38 38 39 39 39 39 39 39 40 40 40 40 40 40 41 41 41 40 40 40 41 41 41 41 41 41 42 42 42 43 43 43 44 44 44 46 46 46 47 47 47 48 48 48 50 50 50 54 54 54 57 57 57 63 63 63 106 106 106 0 0 0 152 152 152 0 0 0 0 0 0 161 161 161 235 235 235 104 104 104 98 98 98 114 114 114 0 0 0 0 0 0 0 0 0 0 0 0 0 0 0 0 0 0 0 0 0 0 0 0 0 0 0 0 0 0 0 0 0 0 0 0 0 0 0 0 0 0 0 0 0 0 0 0 0 0 0 0 0 0 0 0 0 0 0 0 0 0 0 0 0 0 0 0 0 200 200 200 101 101 101 82 82 82 77 77 77 81 81 81 122 122 122 97 97 97 82 82 82 89 89 89 124 124 124 88 88 88 73 73 73 59 59 59 46 46 46 42 42 42 39 39 39 37 37 37 35 35 35 32 32 32 32 32 32 31 31 31 30 30 30 29 29 29 29 29 29 28 28 28 27 27 27 27 27 27 26 26 26 26 26 26 25 25 25 26 26 26 25 25 25 25 25 25 25 25 25 24 24 24 24 24 24 23 23 23 
18 18 18 18 18 18 18 18 18 18 18 18 18 18 18 25 25 25 25 25 25 25 25 25 26 26 26 25 25 25 25 25 25 26 26 26 26 26 26 26 26 26 26 26 26 27 27 27 27 27 27 27 27 27 27 27 27 28 28 28 28 28 28 28 28 28 28 28 28 29 29 29 29 29 29 29 29 29 29 29 29 30 30 30 30 30 30 30 30 30 30 30 30 31 31 31 31 31 31 31 31 31 32 32 32 32 32 32 33 33 33 33 33 33 33 33 33 36 36 36 37 37 37 37 37 37 37 37 37 38 38 38 38 38 38 39 39 39 40 40 40 40 40 40 41 41 41 40 40 40 41 41 41 42 42 42 43 43 43 44 44 44 45 45 45 47 47 47 49 49 49 52 52 52 56 56 56 64 64 64 80 80 80 112 112 112 0 0 0 175 175 175 118 118 118 101 101 101 100 100 100 85 85 85 86 86 86 183 183 183 218 218 218 0 0 0 137 137 137 204 204 204 0 0 0 224 224 224 227 227 227 0 0 0 0 0 0 0 0 0 0 0 0 0 0 0 0 0 0 0 0 0 0 0 0 0 0 0 0 0 0 0 0 0 160 160 160 0 0 0 153 153 153 115 115 115 168 168 168 0 0 0 102 102 102 72 72 72 69 69 69 67 67 67 67 67 67 68 68 68 70 70 70 78 78 78 192 192 192 78 78 78 59 59 59 51 51 51 45 45 45 40 40 40 38 38 38 36 36 36 33 33 33 32 32 32 31 31 31 30 30 30 30 30 30 29 29 29 28 28 28 28 28 28 27 27 27 27 27 27 26 26 26 26 26 26 26 26 26 25 25 25 25 25 25 25 25 25 24 24 24 24 24 24 24 24 24 23 23 23 
18 18 18 18 18 18 18 18 18 18 18 18 18 18 18 24 24 24 25 25 25 25 25 25 26 26 26 25 25 25 25 25 25 25 25 25 26 26 26 26 26 26 26 26 26 26 26 26 26 26 26 27 27 27 27 27 27 27 27 27 27 27 27 28 28 28 28 28 28 28 28 28 28 28 28 29 29 29 29 29 29 29 29 29 29 29 29 30 30 30 30 30 30 30 30 30 31 31 31 31 31 31 31 31 31 32 32 32 32 32 32 32 32 32 33 33 33 33 33 33 36 36 36 36 36 36 36 36 36 37 37 37 37 37 37 38 38 38 38 38 38 39 39 39 39 39 39 40 40 40 40 40 40 41 41 41 42 42 42 43 43 43 44 44 44 45 45 45 47 47 47 50 50 50 55 55 55 65 65 65 116 116 116 127 127 127 120 120 120 119 119 119 192 192 192 86 86 86 75 75 75 73 73 73 75 75 75 85 85 85 0 0 0 252 252 252 98 98 98 104 104 104 143 143 143 112 112 112 122 122 122 141 141 141 188 188 188 0 0 0 0 0 0 0 0 0 0 0 0 0 0 0 0 0 0 152 152 152 125 125 125 118 118 118 104 104 104 0 0 0 89 89 89 89 89 89 116 116 116 122 122 122 76 76 76 65 65 65 62 62 62 60 60 60 59 59 59 60 60 60 62 62 62 68 68 68 89 89 89 112 112 112 54 54 54 48 48 48 43 43 43 39 39 39 37 37 37 35 35 35 33 33 33 32 32 32 31 31 31 30 30 30 29 29 29 29 29 29 28 28 28 28 28 28 27 27 27 26 26 26 26 26 26 26 26 26 26 26 26 25 25 25 25 25 25 24 24 24 24 24 24 24 24 24 23 23 23 23 23 23 
18 18 18 18 18 18 18 18 18 18 18 18 18 18 18 18 18 18 25 25 25 25 25 25 25 25 25 26 26 26 25 25 25 25 25 25 25 25 25 25 25 25 26 26 26 26 26 26 26 26 26 26 26 26 27 27 27 27 27 27 27 27 27 27 27 27 28 28 28 28 28 28 28 28 28 28 28 28 29 29 29 29 29 29 29 29 29 29 29 29 30 30 30 30 30 30 30 30 30 30 30 30 31 31 31 31 31 31 32 32 32 32 32 32 32 32 32 33 33 33 33 33 33 35 35 35 35 35 35 36 36 36 36 36 36 37 37 37 37 37 37 38 38 38 38 38 38 39 39 39 39 39 39 40 40 40 40 40 40 41 41 41 42 42 42 44 44 44 45 45 45 47 47 47 51 51 51 60 60 60 72 72 72 71 71 71 69 69 69 76 76 76 153 153 153 77 77 77 67 67 67 66 66 66 68 68 68 70 70 70 77 77 77 80 80 80 81 81 81 82 82 82 88 88 88 97 97 97 111 111 111 168 168 168 0 0 0 0 0 0 0 0 0 0 0 0 0 0 0 0 0 0 0 0 0 0 0 0 119 119 119 98 98 98 87 87 87 81 81 81 75 75 75 74 74 74 81 81 81 72 72 72 63 63 63 59 59 59 56 56 56 55 55 55 55 55 55 55 55 55 56 56 56 63 63 63 99 99 99 63 63 63 49 49 49 44 44 44 39 39 39 37 37 37 36 36 36 33 33 33 32 32 32 31 31 31 30 30 30 30 30 30 29 29 29 28 28 28 28 28 28 27 27 27 27 27 27 26 26 26 26 26 26 26 26 26 25 25 25 25 25 25 25 25 25 24 24 24 24 24 24 24 24 24 23 23 23 23 23 23 
18 18 18 18 18 18 18 18 18 18 18 18 18 18 18 18 18 18 24 24 24 25 25 25 25 25 25 26 26 26 26 26 26 25 25 25 25 25 25 25 25 25 25 25 25 26 26 26 26 26 26 26 26 26 26 26 26 26 26 26 27 27 27 27 27 27 27 27 27 27 27 27 28 28 28 28 28 28 28 28 28 28 28 28 29 29 29 29 29 29 29 29 29 29 29 29 30 30 30 30 30 30 30 30 30 31 31 31 31 31 31 31 31 31 32 32 32 32 32 32 33 33 33 33 33 33 35 35 35 35 35 35 35 35 35 36 36 36 36 36 36 37 37 37 37 37 37 38 38 38 38 38 38 39 39 39 39 39 39 40 40 40 40 40 40 41 41 41 43 43 43 45 45 45 46 46 46 48 48 48 55 55 55 56 56 56 58 58 58 61 61 61 62 62 62 62 62 62 61 61 61 61 61 61 61 61 61 62 62 62 66 66 66 69 69 69 71 71 71 76 76 76 81 81 81 91 91 91 216 216 216 0 0 0 0 0 0 0 0 0 0 0 0 0 0 0 0 0 0 0 0 0 0 0 0 0 0 0 0 0 0 95 95 95 81 81 81 74 74 74 69 69 69 66 66 66 63 63 63 60 60 60 55 55 55 54 54 54 52 52 52 51 51 51 51 51 51 51 51 51 51 51 51 52 52 52 53 53 53 47 47 47 44 44 44 40 40 40 38 38 38 36 36 36 35 35 35 32 32 32 32 32 32 31 31 31 30 30 30 29 29 29 29 29 29 28 28 28 28 28 28 27 27 27 26 26 26 26 26 26 26 26 26 26 26 26 25 25 25 25 25 25 24 24 24 24 24 24 24 24 24 23 23 23 23 23 23 23 23 23 
18 18 18 18 18 18 18 18 18 18 18 18 18 18 18 18 18 18 18 18 18 24 24 24 25 25 25 25 25 25 26 26 26 24 24 24 25 25 25 25 25 25 25 25 25 25 25 25 25 25 25 26 26 26 26 26 26 26 26 26 26 26 26 27 27 27 27 27 27 27 27 27 27 27 27 28 28 28 28 28 28 28 28 28 28 28 28 28 28 28 29 29 29 29 29 29 29 29 29 30 30 30 30 30 30 30 30 30 31 31 31 31 31 31 31 31 31 32 32 32 32 32 32 32 32 32 33 33 33 33 33 33 35 35 35 35 35 35 35 35 35 36 36 36 36 36 36 37 37 37 37 37 37 38 38 38 38 38 38 39 39 39 39 39 39 40 40 40 40 40 40 41 41 41 44 44 44 46 46 46 47 47 47 51 51 51 52 52 52 53 53 53 53 53 53 54 54 54 55 55 55 56 56 56 57 57 57 58 58 58 60 60 60 62 62 62 67 67 67 71 71 71 79 79 79 95 95 95 131 131 131 0 0 0 0 0 0 0 0 0 0 0 0 0 0 0 0 0 0 0 0 0 0 0 0 0 0 0 0 0 0 0 0 0 79 79 79 69 69 69 64 64 64 61 61 61 58 58 58 55 55 55 52 52 52 51 51 51 49 49 49 48 48 48 48 48 48 48 48 48 47 47 47 46 46 46 45 45 45 43 43 43 40 40 40 38 38 38 37 37 37 35 35 35 33 33 33 32 32 32 31 31 31 30 30 30 30 30 30 29 29 29 28 28 28 28 28 28 27 27 27 27 27 27 26 26 26 26 26 26 26 26 26 25 25 25 25 25 25 24 24 24 24 24 24 24 24 24 23 23 23 23 23 23 23 23 23 23 23 23 
17 17 17 18 18 18 18 18 18 18 18 18 18 18 18 18 18 18 18 18 18 24 24 24 25 25 25 25 25 25 25 25 25 26 26 26 24 24 24 24 24 24 25 25 25 25 25 25 25 25 25 25 25 25 26 26 26 26 26 26 26 26 26 26 26 26 26 26 26 27 27 27 27 27 27 27 27 27 27 27 27 28 28 28 28 28 28 28 28 28 28 28 28 29 29 29 29 29 29 29 29 29 29 29 29 30 30 30 30 30 30 30 30 30 31 31 31 31 31 31 32 32 32 32 32 32 32 32 32 33 33 33 33 33 33 34 34 34 35 35 35 35 35 35 35 35 35 36 36 36 36 36 36 37 37 37 37 37 37 38 38 38 38 38 38 39 39 39 39 39 39 40 40 40 40 40 40 44 44 44 45 45 45 46 46 46 48 48 48 49 49 49 50 50 50 50 50 50 51 51 51 53 53 53 54 54 54 55 55 55 57 57 57 60 60 60 63 63 63 67 67 67 75 75 75 120 120 120 210 210 210 0 0 0 0 0 0 0 0 0 0 0 0 0 0 0 0 0 0 0 0 0 0 0 0 0 0 0 163 163 163 0 0 0 77 77 77 66 66 66 61 61 61 57 57 57 55 55 55 52 52 52 50 50 50 48 48 48 47 47 47 47 47 47 46 46 46 45 45 45 44 44 44 43 43 43 41 41 41 40 40 40 38 38 38 37 37 37 35 35 35 33 33 33 32 32 32 31 31 31 31 31 31 30 30 30 29 29 29 29 29 29 28 28 28 27 27 27 27 27 27 26 26 26 26 26 26 26 26 26 25 25 25 25 25 25 25 25 25 24 24 24 24 24 24 24 24 24 23 23 23 23 23 23 23 23 23 22 22 22 
17 17 17 18 18 18 18 18 18 18 18 18 18 18 18 18 18 18 18 18 18 24 24 24 24 24 24 25 25 25 25 25 25 25 25 25 26 26 26 24 24 24 24 24 24 25 25 25 25 25 25 25 25 25 25 25 25 25 25 25 26 26 26 26 26 26 26 26 26 26 26 26 27 27 27 27 27 27 27 27 27 27 27 27 27 27 27 28 28 28 28 28 28 28 28 28 29 29 29 29 29 29 29 29 29 29 29 29 30 30 30 30 30 30 30 30 30 31 31 31 31 31 31 31 31 31 32 32 32 32 32 32 33 33 33 33 33 33 34 34 34 34 34 34 34 34 34 35 35 35 35 35 35 36 36 36 36 36 36 37 37 37 37 37 37 38 38 38 38 38 38 39 39 39 39 39 39 40 40 40 41 41 41 44 44 44 45 45 45 47 47 47 48 48 48 48 48 48 49 49 49 50 50 50 52 52 52 53 53 53 55 55 55 57 57 57 61 61 61 65 65 65 73 73 73 91 91 91 123 123 123 209 209 209 0 0 0 0 0 0 0 0 0 0 0 0 0 0 0 0 0 0 0 0 0 0 0 0 0 0 0 101 101 101 78 78 78 65 65 65 59 59 59 56 56 56 52 52 52 50 50 50 47 47 47 46 46 46 45 45 45 44 44 44 43 43 43 42 42 42 41 41 41 41 41 41 39 39 39 38 38 38 37 37 37 35 35 35 34 34 34 33 33 33 32 32 32 31 31 31 30 30 30 30 30 30 29 29 29 28 28 28 28 28 28 27 27 27 27 27 27 26 26 26 26 26 26 25 25 25 25 25 25 25 25 25 24 24 24 24 24 24 24 24 24 23 23 23 23 23 23 23 23 23 22 22 22 22 22 22 
17 17 17 17 17 17 18 18 18 18 18 18 18 18 18 18 18 18 18 18 18 18 18 18 24 24 24 24 24 24 25 25 25 25 25 25 25 25 25 26 26 26 24 24 24 24 24 24 25 25 25 25 25 25 25 25 25 25 25 25 25 25 25 26 26 26 26 26 26 26 26 26 26 26 26 26 26 26 27 27 27 27 27 27 27 27 27 27 27 27 28 28 28 28 28 28 28 28 28 28 28 28 29 29 29 29 29 29 29 29 29 30 30 30 30 30 30 30 30 30 31 31 31 31 31 31 31 31 31 32 32 32 32 32 32 33 33 33 33 33 33 33 33 33 34 34 34 34 34 34 34 34 34 35 35 35 35 35 35 36 36 36 36 36 36 37 37 37 37 37 37 38 38 38 38 38 38 39 39 39 40 40 40 40 40 40 43 43 43 44 44 44 46 46 46 47 47 47 48 48 48 48 48 48 49 49 49 51 51 51 53 53 53 55 55 55 59 59 59 64 64 64 73 73 73 86 86 86 151 151 151 0 0 0 0 0 0 0 0 0 0 0 0 0 0 0 0 0 0 0 0 0 0 0 0 0 0 0 195 195 195 125 125 125 125 125 125 63 63 63 56 56 56 53 53 53 48 48 48 47 47 47 45 45 45 44 44 44 43 43 43 42 42 42 41 41 41 40 40 40 40 40 40 39 39 39 38 38 38 37 37 37 35 35 35 34 34 34 33 33 33 32 32 32 31 31 31 31 31 31 30 30 30 29 29 29 29 29 29 28 28 28 27 27 27 27 27 27 26 26 26 26 26 26 25 25 25 25 25 25 25 25 25 24 24 24 24 24 24 24 24 24 23 23 23 23 23 23 23 23 23 23 23 23 22 22 22 22 22 22 
17 17 17 17 17 17 18 18 18 18 18 18 18 18 18 18 18 18 18 18 18 18 18 18 24 24 24 24 24 24 24 24 24 25 25 25 25 25 25 26 26 26 26 26 26 24 24 24 24 24 24 24 24 24 25 25 25 25 25 25 25 25 25 25 25 25 25 25 25 26 26 26 26 26 26 26 26 26 26 26 26 27 27 27 27 27 27 27 27 27 27 27 27 27 27 27 28 28 28 28 28 28 28 28 28 29 29 29 29 29 29 29 29 29 29 29 29 30 30 30 30 30 30 30 30 30 31 31 31 31 31 31 32 32 32 32 32 32 33 33 33 33 33 33 33 33 33 33 33 33 34 34 34 34 34 34 35 35 35 35 35 35 35 35 35 36 36 36 36 36 36 37 37 37 37 37 37 38 38 38 39 39 39 39 39 39 40 40 40 41 41 41 43 43 43 44 44 44 46 46 46 47 47 47 48 48 48 49 49 49 51 51 51 53 53 53 57 57 57 65 65 65 84 84 84 104 104 104 175 175 175 164 164 164 169 169 169 0 0 0 0 0 0 0 0 0 0 0 0 0 0 0 233 233 233 126 126 126 118 118 118 131 131 131 80 80 80 62 62 62 55 55 55 51 51 51 47 47 47 45 45 45 44 44 44 43 43 43 41 41 41 40 40 40 41 41 41 40 40 40 38 38 38 37 37 37 36 36 36 35 35 35 34 34 34 33 33 33 32 32 32 32 32 32 31 31 31 30 30 30 29 29 29 29 29 29 28 28 28 28 28 28 27 27 27 27 27 27 26 26 26 26 26 26 25 25 25 25 25 25 24 24 24 24 24 24 24 24 24 24 24 24 23 23 23 23 23 23 23 23 23 22 22 22 22 22 22 22 22 22 
17 17 17 17 17 17 18 18 18 18 18 18 18 18 18 18 18 18 18 18 18 18 18 18 18 18 18 24 24 24 24 24 24 25 25 25 25 25 25 25 25 25 26 26 26 26 26 26 24 24 24 24 24 24 24 24 24 25 25 25 25 25 25 25 25 25 25 25 25 25 25 25 26 26 26 26 26 26 26 26 26 26 26 26 26 26 26 27 27 27 27 27 27 27 27 27 27 27 27 28 28 28 28 28 28 28 28 28 28 28 28 29 29 29 29 29 29 29 29 29 30 30 30 30 30 30 30 30 30 31 31 31 31 31 31 32 32 32 32 32 32 32 32 32 33 33 33 33 33 33 33 33 33 33 33 33 34 34 34 34 34 34 35 35 35 35 35 35 35 35 35 36 36 36 36 36 36 37 37 37 38 38 38 38 38 38 39 39 39 40 40 40 41 41 41 43 43 43 44 44 44 45 45 45 46 46 46 47 47 47 48 48 48 51 51 51 53 53 53 60 60 60 95 95 95 119 119 119 140 140 140 119 119 119 113 113 113 213 213 213 163 163 163 0 0 0 0 0 0 243 243 243 122 122 122 96 96 96 91 91 91 118 118 118 92 92 92 59 59 59 52 52 52 47 47 47 45 45 45 44 44 44 42 42 42 41 41 41 40 40 40 40 40 40 39 39 39 38 38 38 37 37 37 36 36 36 35 35 35 34 34 34 33 33 33 33 33 33 32 32 32 31 31 31 30 30 30 30 30 30 29 29 29 28 28 28 28 28 28 27 27 27 27 27 27 26 26 26 26 26 26 25 25 25 25 25 25 25 25 25 24 24 24 24 24 24 24 24 24 23 23 23 23 23 23 23 23 23 22 22 22 22 22 22 22 22 22 22 22 22 
17 17 17 17 17 17 17 17 17 18 18 18 18 18 18 18 18 18 18 18 18 18 18 18 18 18 18 24 24 24 24 24 24 24 24 24 25 25 25 25 25 25 25 25 25 26 26 26 26 26 26 24 24 24 24 24 24 24 24 24 24 24 24 25 25 25 25 25 25 25 25 25 25 25 25 25 25 25 26 26 26 26 26 26 26 26 26 26 26 26 27 27 27 27 27 27 27 27 27 27 27 27 28 28 28 28 28 28 28 28 28 28 28 28 29 29 29 29 29 29 29 29 29 30 30 30 30 30 30 30 30 30 31 31 31 31 31 31 31 31 31 32 32 32 32 32 32 33 33 33 33 33 33 33 33 33 33 33 33 33 33 33 34 34 34 34 34 34 35 35 35 35 35 35 36 36 36 36 36 36 37 37 37 37 37 37 38 38 38 39 39 39 40 40 40 40 40 40 42 42 42 43 43 43 44 44 44 45 45 45 46 46 46 47 47 47 51 51 51 54 54 54 63 63 63 69 69 69 131 131 131 89 89 89 87 87 87 102 102 102 144 144 144 0 0 0 0 0 0 0 0 0 137 137 137 84 84 84 75 75 75 71 71 71 66 66 66 54 54 54 48 48 48 46 46 46 44 44 44 42 42 42 41 41 41 40 40 40 40 40 40 39 39 39 38 38 38 37 37 37 36 36 36 35 35 35 34 34 34 33 33 33 33 33 33 32 32 32 31 31 31 30 30 30 30 30 30 29 29 29 29 29 29 28 28 28 27 27 27 27 27 27 26 26 26 26 26 26 25 25 25 25 25 25 25 25 25 24 24 24 24 24 24 24 24 24 23 23 23 23 23 23 23 23 23 23 23 23 22 22 22 22 22 22 22 22 22 22 22 22 
17 17 17 17 17 17 17 17 17 18 18 18 18 18 18 18 18 18 18 18 18 18 18 18 18 18 18 18 18 18 24 24 24 24 24 24 24 24 24 25 25 25 25 25 25 25 25 25 26 26 26 26 26 26 24 24 24 24 24 24 24 24 24 24 24 24 25 25 25 25 25 25 25 25 25 25 25 25 25 25 25 26 26 26 26 26 26 26 26 26 26 26 26 26 26 26 27 27 27 27 27 27 27 27 27 27 27 27 28 28 28 28 28 28 28 28 28 28 28 28 29 29 29 29 29 29 29 29 29 30 30 30 30 30 30 30 30 30 31 31 31 31 31 31 32 32 32 32 32 32 33 33 33 33 33 33 32 32 32 33 33 33 33 33 33 34 34 34 34 34 34 34 34 34 35 35 35 35 35 35 36 36 36 36 36 36 37 37 37 38 38 38 39 39 39 39 39 39 40 40 40 41 41 41 42 42 42 43 43 43 45 45 45 46 46 46 47 47 47 51 51 51 55 55 55 60 60 60 67 67 67 71 71 71 76 76 76 0 0 0 151 151 151 162 162 162 0 0 0 126 126 126 171 171 171 76 76 76 67 67 67 63 63 63 56 56 56 51 51 51 47 47 47 45 45 45 43 43 43 41 41 41 41 41 41 39 39 39 38 38 38 37 37 37 36 36 36 36 36 36 35 35 35 34 34 34 33 33 33 33 33 33 32 32 32 31 31 31 31 31 31 30 30 30 29 29 29 29 29 29 28 28 28 28 28 28 27 27 27 26 26 26 26 26 26 25 25 25 25 25 25 25 25 25 24 24 24 24 24 24 24 24 24 23 23 23 23 23 23 23 23 23 23 23 23 22 22 22 22 22 22 22 22 22 22 22 22 21 21 21 
17 17 17 17 17 17 17 17 17 17 17 17 18 18 18 18 18 18 18 18 18 18 18 18 18 18 18 18 18 18 23 23 23 24 24 24 24 24 24 24 24 24 25 25 25 25 25 25 25 25 25 26 26 26 26 26 26 24 24 24 24 24 24 24 24 24 24 24 24 25 25 25 25 25 25 25 25 25 25 25 25 25 25 25 25 25 25 26 26 26 26 26 26 26 26 26 26 26 26 27 27 27 27 27 27 27 27 27 27 27 27 28 28 28 28 28 28 28 28 28 28 28 28 29 29 29 29 29 29 29 29 29 30 30 30 30 30 30 30 30 30 31 31 31 31 31 31 32 32 32 32 32 32 33 33 33 33 33 33 32 32 32 33 33 33 33 33 33 33 33 33 34 34 34 34 34 34 35 35 35 35 35 35 36 36 36 36 36 36 37 37 37 38 38 38 38 38 38 39 39 39 40 40 40 41 41 41 42 42 42 43 43 43 44 44 44 46 46 46 47 47 47 52 52 52 55 55 55 59 59 59 63 63 63 68 68 68 76 76 76 91 91 91 111 111 111 0 0 0 113 113 113 85 85 85 72 72 72 64 64 64 58 58 58 54 54 54 49 49 49 46 46 46 43 43 43 41 41 41 40 40 40 39 39 39 38 38 38 37 37 37 36 36 36 35 35 35 34 34 34 34 34 34 33 33 33 33 33 33 32 32 32 32 32 32 31 31 31 30 30 30 29 29 29 29 29 29 28 28 28 28 28 28 27 27 27 26 26 26 26 26 26 25 25 25 25 25 25 25 25 25 24 24 24 24 24 24 24 24 24 23 23 23 23 23 23 23 23 23 23 23 23 22 22 22 22 22 22 22 22 22 22 22 22 21 21 21 21 21 21 
17 17 17 17 17 17 17 17 17 17 17 17 18 18 18 18 18 18 18 18 18 18 18 18 18 18 18 18 18 18 18 18 18 23 23 23 24 24 24 24 24 24 24 24 24 25 25 25 25 25 25 25 25 25 26 26 26 26 26 26 24 24 24 24 24 24 24 24 24 24 24 24 24 24 24 25 25 25 25 25 25 25 25 25 25 25 25 25 25 25 26 26 26 26 26 26 26 26 26 26 26 26 26 26 26 27 27 27 27 27 27 27 27 27 27 27 27 28 28 28 28 28 28 28 28 28 29 29 29 29 29 29 29 29 29 30 30 30 30 30 30 30 30 30 31 31 31 31 31 31 31 31 31 32 32 32 32 32 32 33 33 33 32 32 32 32 32 32 33 33 33 33 33 33 33 33 33 34 34 34 34 34 34 35 35 35 35 35 35 36 36 36 37 37 37 38 38 38 38 38 38 39 39 39 41 41 41 41 41 41 42 42 42 43 43 43 44 44 44 46 46 46 48 48 48 53 53 53 56 56 56 60 60 60 64 64 64 70 70 70 80 80 80 93 93 93 148 148 148 105 105 105 84 84 84 72 72 72 62 62 62 56 56 56 51 51 51 48 48 48 45 45 45 42 42 42 40 40 40 39 39 39 38 38 38 37 37 37 36 36 36 35 35 35 34 34 34 34 34 34 33 33 33 32 32 32 33 33 33 32 32 32 31 31 31 30 30 30 30 30 30 29 29 29 28 28 28 28 28 28 27 27 27 26 26 26 26 26 26 25 25 25 25 25 25 25 25 25 24 24 24 24 24 24 24 24 24 23 23 23 23 23 23 23 23 23 23 23 23 22 22 22 22 22 22 22 22 22 22 22 22 21 21 21 21 21 21 21 21 21 
17 17 17 17 17 17 17 17 17 17 17 17 17 17 17 18 18 18 18 18 18 18 18 18 18 18 18 18 18 18 18 18 18 23 23 23 23 23 23 24 24 24 24 24 24 24 24 24 25 25 25 25 25 25 25 25 25 26 26 26 26 26 26 24 24 24 24 24 24 24 24 24 24 24 24 24 24 24 25 25 25 25 25 25 25 25 25 25 25 25 25 25 25 26 26 26 26 26 26 26 26 26 26 26 26 26 26 26 27 27 27 27 27 27 27 27 27 27 27 27 28 28 28 28 28 28 28 28 28 28 28 28 29 29 29 29 29 29 29 29 29 30 30 30 30 30 30 30 30 30 31 31 31 31 31 31 32 32 32 32 32 32 33 33 33 33 33 33 32 32 32 32 32 32 33 33 33 33 33 33 34 34 34 34 34 34 35 35 35 35 35 35 36 36 36 37 37 37 37 37 37 38 38 38 39 39 39 41 41 41 41 41 41 42 42 42 43 43 43 45 45 45 47 47 47 51 51 51 54 54 54 58 58 58 62 62 62 70 70 70 80 80 80 103 103 103 147 147 147 131 131 131 113 113 113 86 86 86 66 66 66 56 56 56 50 50 50 47 47 47 43 43 43 40 40 40 39 39 39 38 38 38 37 37 37 36 36 36 35 35 35 34 34 34 33 33 33 33 33 33 32 32 32 33 33 33 32 32 32 31 31 31 30 30 30 30 30 30 29 29 29 28 28 28 28 28 28 27 27 27 26 26 26 26 26 26 25 25 25 25 25 25 25 25 25 24 24 24 24 24 24 24 24 24 23 23 23 23 23 23 23 23 23 23 23 23 22 22 22 22 22 22 22 22 22 22 22 22 22 22 22 21 21 21 21 21 21 21 21 21 
17 17 17 17 17 17 17 17 17 17 17 17 17 17 17 18 18 18 18 18 18 18 18 18 18 18 18 18 18 18 18 18 18 18 18 18 23 23 23 23 23 23 24 24 24 24 24 24 24 24 24 25 25 25 25 25 25 25 25 25 25 25 25 26 26 26 24 24 24 24 24 24 24 24 24 24 24 24 24 24 24 24 24 24 25 25 25 25 25 25 25 25 25 25 25 25 25 25 25 26 26 26 26 26 26 26 26 26 26 26 26 26 26 26 27 27 27 27 27 27 27 27 27 27 27 27 28 28 28 28 28 28 28 28 28 29 29 29 29 29 29 29 29 29 30 30 30 30 30 30 30 30 30 31 31 31 31 31 31 32 32 32 32 32 32 33 33 33 33 33 33 32 32 32 32 32 32 33 33 33 33 33 33 33 33 33 34 34 34 35 35 35 35 35 35 36 36 36 37 37 37 37 37 37 38 38 38 40 40 40 40 40 40 41 41 41 42 42 42 44 44 44 46 46 46 48 48 48 52 52 52 56 56 56 63 63 63 71 71 71 86 86 86 160 160 160 86 86 86 80 80 80 151 151 151 117 117 117 80 80 80 59 59 59 48 48 48 45 45 45 40 40 40 39 39 39 38 38 38 36 36 36 36 36 36 35 35 35 34 34 34 33 33 33 33 33 33 32 32 32 33 33 33 32 32 32 31 31 31 30 30 30 30 30 30 29 29 29 29 29 29 28 28 28 28 28 28 26 26 26 25 25 25 25 25 25 25 25 25 25 25 25 24 24 24 24 24 24 24 24 24 23 23 23 23 23 23 23 23 23 23 23 23 22 22 22 22 22 22 22 22 22 22 22 22 22 22 22 21 21 21 21 21 21 21 21 21 21 21 21 
17 17 17 17 17 17 17 17 17 17 17 17 17 17 17 17 17 17 18 18 18 18 18 18 18 18 18 18 18 18 18 18 18 18 18 18 23 23 23 23 23 23 23 23 23 24 24 24 24 24 24 24 24 24 25 25 25 25 25 25 25 25 25 25 25 25 26 26 26 23 23 23 24 24 24 24 24 24 24 24 24 24 24 24 24 24 24 25 25 25 25 25 25 25 25 25 25 25 25 25 25 25 26 26 26 26 26 26 26 26 26 26 26 26 26 26 26 27 27 27 27 27 27 27 27 27 27 27 27 28 28 28 28 28 28 28 28 28 28 28 28 29 29 29 29 29 29 29 29 29 30 30 30 30 30 30 31 31 31 31 31 31 31 31 31 32 32 32 32 32 32 33 33 33 33 33 33 32 32 32 32 32 32 33 33 33 33 33 33 34 34 34 34 34 34 35 35 35 36 36 36 36 36 36 37 37 37 39 39 39 40 40 40 40 40 40 41 41 41 43 43 43 45 45 45 47 47 47 50 50 50 54 54 54 62 62 62 90 90 90 103 103 103 114 114 114 71 71 71 66 66 66 63 63 63 70 70 70 100 100 100 56 56 56 47 47 47 40 40 40 39 39 39 38 38 38 36 36 36 35 35 35 35 35 35 34 34 34 33 33 33 32 32 32 33 33 33 33 33 33 32 32 32 31 31 31 30 30 30 30 30 30 29 29 29 29 29 29 28 28 28 28 28 28 26 26 26 25 25 25 25 25 25 25 25 25 25 25 25 24 24 24 24 24 24 24 24 24 23 23 23 23 23 23 23 23 23 23 23 23 22 22 22 22 22 22 22 22 22 22 22 22 22 22 22 21 21 21 21 21 21 21 21 21 21 21 21 21 21 21 
17 17 17 17 17 17 17 17 17 17 17 17 17 17 17 17 17 17 18 18 18 18 18 18 18 18 18 18 18 18 18 18 18 18 18 18 18 18 18 23 23 23 23 23 23 23 23 23 24 24 24 24 24 24 24 24 24 24 24 24 25 25 25 25 25 25 25 25 25 26 26 26 26 26 26 24 24 24 24 24 24 24 24 24 24 24 24 24 24 24 24 24 24 25 25 25 25 25 25 25 25 25 25 25 25 25 25 25 26 26 26 26 26 26 26 26 26 26 26 26 26 26 26 27 27 27 27 27 27 27 27 27 27 27 27 28 28 28 28 28 28 28 28 28 29 29 29 29 29 29 29 29 29 30 30 30 30 30 30 30 30 30 31 31 31 31 31 31 32 32 32 32 32 32 33 33 33 33 33 33 32 32 32 32 32 32 33 33 33 33 33 33 34 34 34 34 34 34 35 35 35 36 36 36 36 36 36 37 37 37 39 39 39 40 40 40 40 40 40 42 42 42 44 44 44 47 47 47 49 49 49 53 53 53 63 63 63 92 92 92 0 0 0 74 74 74 61 61 61 56 56 56 55 55 55 56 56 56 72 72 72 47 47 47 41 41 41 39 39 39 38 38 38 36 36 36 35 35 35 34 34 34 34 34 34 33 33 33 32 32 32 33 33 33 32 32 32 32 32 32 31 31 31 30 30 30 30 30 30 29 29 29 29 29 29 28 28 28 26 26 26 26 26 26 25 25 25 25 25 25 25 25 25 24 24 24 24 24 24 24 24 24 24 24 24 23 23 23 23 23 23 23 23 23 23 23 23 23 23 23 22 22 22 22 22 22 22 22 22 22 22 22 21 21 21 21 21 21 21 21 21 21 21 21 21 21 21 20 20 20 
17 17 17 17 17 17 17 17 17 17 17 17 17 17 17 17 17 17 17 17 17 18 18 18 18 18 18 18 18 18 18 18 18 18 18 18 18 18 18 18 18 18 23 23 23 23 23 23 23 23 23 24 24 24 24 24 24 24 24 24 24 24 24 25 25 25 25 25 25 25 25 25 25 25 25 26 26 26 23 23 23 24 24 24 24 24 24 24 24 24 24 24 24 24 24 24 25 25 25 25 25 25 25 25 25 25 25 25 25 25 25 25 25 25 26 26 26 26 26 26 26 26 26 26 26 26 27 27 27 27 27 27 27 27 27 27 27 27 28 28 28 28 28 28 28 28 28 28 28 28 29 29 29 29 29 29 29 29 29 30 30 30 30 30 30 31 31 31 31 31 31 31 31 31 32 32 32 32 32 32 33 33 33 33 33 33 32 32 32 32 32 32 33 33 33 33 33 33 34 34 34 35 35 35 35 35 35 36 36 36 37 37 37 39 39 39 40 40 40 40 40 40 43 43 43 46 46 46 49 49 49 54 54 54 65 65 65 99 99 99 76 76 76 60 60 60 53 53 53 50 50 50 49 49 49 48 48 48 46 46 46 43 43 43 39 39 39 38 38 38 36 36 36 35 35 35 34 34 34 33 33 33 33 33 33 32 32 32 33 33 33 32 32 32 32 32 32 31 31 31 30 30 30 30 30 30 29 29 29 29 29 29 28 28 28 26 26 26 25 25 25 25 25 25 25 25 25 25 25 25 24 24 24 24 24 24 24 24 24 24 24 24 23 23 23 23 23 23 23 23 23 23 23 23 22 22 22 22 22 22 22 22 22 22 22 22 22 22 22 21 21 21 21 21 21 21 21 21 21 21 21 21 21 21 20 20 20 20 20 20 
17 17 17 17 17 17 17 17 17 17 17 17 17 17 17 17 17 17 17 17 17 17 17 17 18 18 18 18 18 18 18 18 18 18 18 18 18 18 18 18 18 18 23 23 23 23 23 23 23 23 23 23 23 23 24 24 24 24 24 24 24 24 24 24 24 24 25 25 25 25 25 25 25 25 25 25 25 25 26 26 26 26 26 26 24 24 24 24 24 24 24 24 24 24 24 24 24 24 24 24 24 24 25 25 25 25 25 25 25 25 25 25 25 25 25 25 25 26 26 26 26 26 26 26 26 26 26 26 26 26 26 26 27 27 27 27 27 27 27 27 27 27 27 27 28 28 28 28 28 28 28 28 28 29 29 29 29 29 29 29 29 29 30 30 30 30 30 30 30 30 30 31 31 31 31 31 31 31 31 31 32 32 32 32 32 32 33 33 33 33 33 33 32 32 32 33 33 33 33 33 33 34 34 34 34 34 34 35 35 35 36 36 36 37 37 37 39 39 39 40 40 40 41 41 41 44 44 44 48 48 48 55 55 55 70 70 70 133 133 133 67 67 67 55 55 55 49 49 49 47 47 47 45 45 45 43 43 43 42 42 42 39 39 39 38 38 38 36 36 36 35 35 35 34 34 34 33 33 33 33 33 33 33 33 33 33 33 33 32 32 32 31 31 31 31 31 31 30 30 30 30 30 30 29 29 29 29 29 29 26 26 26 26 26 26 25 25 25 25 25 25 25 25 25 25 25 25 24 24 24 24 24 24 24 24 24 24 24 24 23 23 23 23 23 23 23 23 23 23 23 23 22 22 22 22 22 22 22 22 22 22 22 22 22 22 22 21 21 21 21 21 21 21 21 21 21 21 21 21 21 21 20 20 20 20 20 20 20 20 20 
17 17 17 17 17 17 17 17 17 17 17 17 17 17 17 17 17 17 17 17 17 17 17 17 18 18 18 18 18 18 18 18 18 18 18 18 18 18 18 18 18 18 18 18 18 23 23 23 23 23 23 23 23 23 23 23 23 24 24 24 24 24 24 24 24 24 24 24 24 24 24 24 25 25 25 25 25 25 25 25 25 25 25 25 26 26 26 26 26 26 24 24 24 24 24 24 24 24 24 24 24 24 24 24 24 25 25 25 25 25 25 25 25 25 25 25 25 25 25 25 25 25 25 26 26 26 26 26 26 26 26 26 26 26 26 27 27 27 27 27 27 27 27 27 27 27 27 28 28 28 28 28 28 28 28 28 28 28 28 29 29 29 29 29 29 29 29 29 30 30 30 30 30 30 30 30 30 31 31 31 31 31 31 32 32 32 32 32 32 32 32 32 33 33 33 33 33 33 32 32 32 33 33 33 34 34 34 34 34 34 35 35 35 36 36 36 37 37 37 38 38 38 40 40 40 42 42 42 47 47 47 63 63 63 79 79 79 63 63 63 74 74 74 48 48 48 45 45 45 43 43 43 41 41 41 40 40 40 39 39 39 37 37 37 36 36 36 35 35 35 34 34 34 33 33 33 32 32 32 33 33 33 32 32 32 32 32 32 31 31 31 30 30 30 30 30 30 29 29 29 29 29 29 26 26 26 26 26 26 25 25 25 25 25 25 25 25 25 25 25 25 24 24 24 24 24 24 24 24 24 24 24 24 24 24 24 23 23 23 23 23 23 23 23 23 23 23 23 22 22 22 22 22 22 22 22 22 22 22 22 22 22 22 21 21 21 21 21 21 21 21 21 21 21 21 21 21 21 20 20 20 20 20 20 20 20 20 20 20 20 
16 16 16 17 17 17 17 17 17 17 17 17 17 17 17 17 17 17 17 17 17 17 17 17 17 17 17 18 18 18 18 18 18 18 18 18 18 18 18 18 18 18 18 18 18 18 18 18 23 23 23 23 23 23 23 23 23 23 23 23 23 23 23 24 24 24 24 24 24 24 24 24 24 24 24 25 25 25 25 25 25 25 25 25 25 25 25 26 26 26 26 26 26 24 24 24 24 24 24 24 24 24 24 24 24 24 24 24 24 24 24 25 25 25 25 25 25 25 25 25 25 25 25 25 25 25 26 26 26 26 26 26 26 26 26 26 26 26 26 26 26 27 27 27 27 27 27 27 27 27 27 27 27 28 28 28 28 28 28 28 28 28 28 28 28 29 29 29 29 29 29 29 29 29 30 30 30 30 30 30 30 30 30 31 31 31 31 31 31 32 32 32 32 32 32 32 32 32 33 33 33 33 33 33 33 33 33 33 33 33 34 34 34 35 35 35 36 36 36 37 37 37 38 38 38 39 39 39 41 41 41 48 48 48 50 50 50 49 49 49 46 46 46 43 43 43 41 41 41 40 40 40 40 40 40 38 38 38 37 37 37 36 36 36 35 35 35 34 34 34 33 33 33 33 33 33 32 32 32 32 32 32 31 31 31 31 31 31 30 30 30 30 30 30 29 29 29 29 29 29 26 26 26 26 26 26 25 25 25 25 25 25 25 25 25 25 25 25 24 24 24 24 24 24 24 24 24 24 24 24 23 23 23 23 23 23 23 23 23 23 23 23 23 23 23 22 22 22 22 22 22 22 22 22 22 22 22 22 22 22 21 21 21 21 21 21 21 21 21 21 21 21 21 21 21 20 20 20 20 20 20 20 20 20 20 20 20 20 20 20 
16 16 16 17 17 17 17 17 17 17 17 17 17 17 17 17 17 17 17 17 17 17 17 17 17 17 17 18 18 18 18 18 18 18 18 18 18 18 18 18 18 18 18 18 18 18 18 18 22 22 22 23 23 23 23 23 23 23 23 23 23 23 23 23 23 23 24 24 24 24 24 24 24 24 24 24 24 24 24 24 24 25 25 25 25 25 25 25 25 25 25 25 25 26 26 26 26 26 26 24 24 24 24 24 24 24 24 24 24 24 24 24 24 24 24 24 24 25 25 25 25 25 25 25 25 25 25 25 25 25 25 25 26 26 26 26 26 26 26 26 26 26 26 26 26 26 26 27 27 27 27 27 27 27 27 27 27 27 27 28 28 28 28 28 28 28 28 28 29 29 29 29 29 29 29 29 29 29 29 29 30 30 30 30 30 30 30 30 30 31 31 31 31 31 31 31 31 31 32 32 32 32 32 32 33 33 33 33 33 33 33 33 33 34 34 34 34 34 34 35 35 35 36 36 36 37 37 37 38 38 38 39 39 39 40 40 40 41 41 41 41 41 41 40 40 40 39 39 39 38 38 38 37 37 37 36 36 36 35 35 35 34 34 34 33 33 33 33 33 33 32 32 32 32 32 32 31 31 31 31 31 31 30 30 30 30 30 30 29 29 29 29 29 29 26 26 26 26 26 26 25 25 25 25 25 25 25 25 25 25 25 25 24 24 24 24 24 24 24 24 24 24 24 24 24 24 24 23 23 23 23 23 23 23 23 23 23 23 23 23 23 23 22 22 22 22 22 22 22 22 22 22 22 22 22 22 22 21 21 21 21 21 21 21 21 21 21 21 21 21 21 21 21 21 21 20 20 20 20 20 20 20 20 20 20 20 20 20 20 20 
16 16 16 16 16 16 17 17 17 17 17 17 17 17 17 17 17 17 17 17 17 17 17 17 17 17 17 17 17 17 18 18 18 18 18 18 18 18 18 18 18 18 18 18 18 18 18 18 18 18 18 22 22 22 23 23 23 23 23 23 23 23 23 23 23 23 23 23 23 24 24 24 24 24 24 24 24 24 24 24 24 24 24 24 25 25 25 25 25 25 25 25 25 25 25 25 25 25 25 26 26 26 26 26 26 24 24 24 24 24 24 24 24 24 24 24 24 24 24 24 25 25 25 25 25 25 25 25 25 25 25 25 25 25 25 25 25 25 26 26 26 26 26 26 26 26 26 26 26 26 27 27 27 27 27 27 27 27 27 27 27 27 27 27 27 28 28 28 28 28 28 28 28 28 29 29 29 29 29 29 29 29 29 29 29 29 30 30 30 30 30 30 30 30 30 31 31 31 31 31 31 31 31 31 32 32 32 32 32 32 32 32 32 32 32 32 33 33 33 33 33 33 33 33 33 33 33 33 36 36 36 36 36 36 37 37 37 37 37 37 37 37 37 37 37 37 36 36 36 33 33 33 33 33 33 33 33 33 33 33 33 32 32 32 32 32 32 32 32 32 31 31 31 31 31 31 30 30 30 30 30 30 30 30 30 29 29 29 26 26 26 26 26 26 25 25 25 25 25 25 25 25 25 25 25 25 25 25 25 24 24 24 24 24 24 24 24 24 24 24 24 24 24 24 23 23 23 23 23 23 23 23 23 23 23 23 23 23 23 22 22 22 22 22 22 22 22 22 22 22 22 22 22 22 21 21 21 21 21 21 21 21 21 21 21 21 21 21 21 20 20 20 20 20 20 20 20 20 20 20 20 20 20 20 20 20 20 20 20 20 
16 16 16 16 16 16 17 17 17 17 17 17 17 17 17 17 17 17 17 17 17 17 17 17 17 17 17 17 17 17 17 17 17 18 18 18 18 18 18 18 18 18 18 18 18 18 18 18 18 18 18 18 18 18 22 22 22 22 22 22 23 23 23 23 23 23 23 23 23 23 23 23 23 23 23 24 24 24 24 24 24 24 24 24 24 24 24 24 24 24 25 25 25 25 25 25 25 25 25 25 25 25 25 25 25 26 26 26 26 26 26 26 26 26 24 24 24 24 24 24 24 24 24 24 24 24 25 25 25 25 25 25 25 25 25 25 25 25 25 25 25 26 26 26 26 26 26 26 26 26 26 26 26 26 26 26 27 27 27 27 27 27 27 27 27 27 27 27 27 27 27 28 28 28 28 28 28 28 28 28 28 28 28 29 29 29 29 29 29 29 29 29 30 30 30 30 30 30 30 30 30 30 30 30 31 31 31 31 31 31 31 31 31 31 31 31 32 32 32 32 32 32 32 32 32 32 32 32 32 32 32 32 32 32 32 32 32 32 32 32 32 32 32 32 32 32 32 32 32 32 32 32 32 32 32 32 32 32 31 31 31 31 31 31 31 31 31 31 31 31 30 30 30 30 30 30 29 29 29 26 26 26 26 26 26 26 26 26 25 25 25 25 25 25 25 25 25 25 25 25 25 25 25 24 24 24 24 24 24 24 24 24 24 24 24 24 24 24 23 23 23 23 23 23 23 23 23 23 23 23 23 23 23 22 22 22 22 22 22 22 22 22 22 22 22 22 22 22 22 22 22 21 21 21 21 21 21 21 21 21 21 21 21 21 21 21 20 20 20 20 20 20 20 20 20 20 20 20 20 20 20 20 20 20 20 20 20 19 19 19 
16 16 16 16 16 16 16 16 16 17 17 17 17 17 17 17 17 17 17 17 17 17 17 17 17 17 17 17 17 17 17 17 17 18 18 18 18 18 18 18 18 18 18 18 18 18 18 18 18 18 18 18 18 18 18 18 18 22 22 22 22 22 22 23 23 23 23 23 23 23 23 23 23 23 23 23 23 23 23 23 23 24 24 24 24 24 24 24 24 24 24 24 24 24 24 24 25 25 25 25 25 25 25 25 25 25 25 25 25 25 25 25 25 25 26 26 26 26 26 26 24 24 24 24 24 24 24 24 24 24 24 24 25 25 25 25 25 25 25 25 25 25 25 25 25 25 25 26 26 26 26 26 26 26 26 26 26 26 26 26 26 26 27 27 27 27 27 27 27 27 27 27 27 27 27 27 27 28 28 28 28 28 28 28 28 28 28 28 28 29 29 29 29 29 29 29 29 29 29 29 29 30 30 30 30 30 30 30 30 30 30 30 30 30 30 30 31 31 31 31 31 31 31 31 31 31 31 31 31 31 31 31 31 31 31 31 31 31 31 31 31 31 31 31 31 31 31 31 31 31 31 31 31 31 31 31 31 31 30 30 30 30 30 30 30 30 30 30 30 30 29 29 29 26 26 26 26 26 26 25 25 25 25 25 25 25 25 25 25 25 25 25 25 25 25 25 25 24 24 24 24 24 24 24 24 24 24 24 24 24 24 24 23 23 23 23 23 23 23 23 23 23 23 23 23 23 23 23 23 23 22 22 22 22 22 22 22 22 22 22 22 22 22 22 22 21 21 21 21 21 21 21 21 21 21 21 21 21 21 21 21 21 21 20 20 20 20 20 20 20 20 20 20 20 20 20 20 20 20 20 20 20 20 20 19 19 19 19 19 19 
16 16 16 16 16 16 16 16 16 16 16 16 17 17 17 17 17 17 17 17 17 17 17 17 17 17 17 17 17 17 17 17 17 17 17 17 18 18 18 18 18 18 18 18 18 18 18 18 18 18 18 18 18 18 18 18 18 22 22 22 22 22 22 22 22 22 22 22 22 23 23 23 23 23 23 23 23 23 23 23 23 23 23 23 24 24 24 24 24 24 24 24 24 24 24 24 24 24 24 24 24 24 25 25 25 25 25 25 25 25 25 25 25 25 25 25 25 25 25 25 26 26 26 26 26 26 26 26 26 24 24 24 24 24 24 24 24 24 25 25 25 25 25 25 25 25 25 25 25 25 25 25 25 26 26 26 26 26 26 26 26 26 26 26 26 26 26 26 27 27 27 27 27 27 27 27 27 27 27 27 27 27 27 28 28 28 28 28 28 28 28 28 28 28 28 28 28 28 29 29 29 29 29 29 29 29 29 29 29 29 29 29 29 30 30 30 30 30 30 30 30 30 30 30 30 30 30 30 30 30 30 30 30 30 30 30 30 30 30 30 30 30 30 30 30 30 30 30 30 30 30 30 30 30 30 30 30 30 29 29 29 29 29 29 26 26 26 26 26 26 26 26 26 25 25 25 25 25 25 25 25 25 25 25 25 25 25 25 25 25 25 24 24 24 24 24 24 24 24 24 24 24 24 24 24 24 24 24 24 23 23 23 23 23 23 23 23 23 23 23 23 23 23 23 22 22 22 22 22 22 22 22 22 22 22 22 22 22 22 22 22 22 21 21 21 21 21 21 21 21 21 21 21 21 21 21 21 21 21 21 20 20 20 20 20 20 20 20 20 20 20 20 20 20 20 20 20 20 20 20 20 19 19 19 19 19 19 19 19 19 
16 16 16 16 16 16 16 16 16 16 16 16 17 17 17 17 17 17 17 17 17 17 17 17 17 17 17 17 17 17 17 17 17 17 17 17 17 17 17 18 18 18 18 18 18 18 18 18 18 18 18 18 18 18 18 18 18 18 18 18 22 22 22 22 22 22 22 22 22 22 22 22 23 23 23 23 23 23 23 23 23 23 23 23 23 23 23 23 23 23 24 24 24 24 24 24 24 24 24 24 24 24 24 24 24 24 24 24 25 25 25 25 25 25 25 25 25 25 25 25 25 25 25 25 25 25 25 25 25 26 26 26 26 26 26 26 26 26 26 26 26 24 24 24 25 25 25 25 25 25 25 25 25 25 25 25 25 25 25 26 26 26 26 26 26 26 26 26 26 26 26 26 26 26 26 26 26 27 27 27 27 27 27 27 27 27 27 27 27 27 27 27 28 28 28 28 28 28 28 28 28 28 28 28 28 28 28 28 28 28 29 29 29 29 29 29 29 29 29 29 29 29 29 29 29 29 29 29 29 29 29 29 29 29 29 29 29 29 29 29 29 29 29 29 29 29 29 29 29 29 29 29 26 26 26 26 26 26 26 26 26 26 26 26 25 25 25 25 25 25 25 25 25 25 25 25 25 25 25 25 25 25 25 25 25 24 24 24 24 24 24 24 24 24 24 24 24 24 24 24 24 24 24 23 23 23 23 23 23 23 23 23 23 23 23 23 23 23 23 23 23 22 22 22 22 22 22 22 22 22 22 22 22 22 22 22 22 22 22 21 21 21 21 21 21 21 21 21 21 21 21 21 21 21 21 21 21 20 20 20 20 20 20 20 20 20 20 20 20 20 20 20 20 20 20 20 20 20 19 19 19 19 19 19 19 19 19 19 19 19 
16 16 16 16 16 16 16 16 16 16 16 16 16 16 16 17 17 17 17 17 17 17 17 17 17 17 17 17 17 17 17 17 17 17 17 17 17 17 17 17 17 17 18 18 18 18 18 18 18 18 18 18 18 18 18 18 18 18 18 18 18 18 18 22 22 22 22 22 22 22 22 22 22 22 22 22 22 22 23 23 23 23 23 23 23 23 23 23 23 23 23 23 23 23 23 23 24 24 24 24 24 24 24 24 24 24 24 24 24 24 24 24 24 24 24 24 24 25 25 25 25 25 25 25 25 25 25 25 25 25 25 25 25 25 25 25 25 25 25 25 25 26 26 26 26 26 26 26 26 26 26 26 26 25 25 25 25 25 25 25 25 25 25 25 25 25 25 25 26 26 26 26 26 26 26 26 26 26 26 26 26 26 26 27 27 27 27 27 27 27 27 27 27 27 27 27 27 27 27 27 27 28 28 28 28 28 28 28 28 28 28 28 28 28 28 28 28 28 28 28 28 28 28 28 28 28 28 28 29 29 29 29 29 29 29 29 29 29 29 29 26 26 26 26 26 26 26 26 26 26 26 26 25 25 25 25 25 25 25 25 25 25 25 25 25 25 25 25 25 25 25 25 25 25 25 25 24 24 24 24 24 24 24 24 24 24 24 24 24 24 24 24 24 24 24 24 24 23 23 23 23 23 23 23 23 23 23 23 23 23 23 23 23 23 23 22 22 22 22 22 22 22 22 22 22 22 22 22 22 22 22 22 22 21 21 21 21 21 21 21 21 21 21 21 21 21 21 21 21 21 21 21 21 21 20 20 20 20 20 20 20 20 20 20 20 20 20 20 20 20 20 20 20 20 20 19 19 19 19 19 19 19 19 19 19 19 19 19 19 19 
16 16 16 16 16 16 16 16 16 16 16 16 16 16 16 16 16 16 17 17 17 17 17 17 17 17 17 17 17 17 17 17 17 17 17 17 17 17 17 17 17 17 18 18 18 18 18 18 18 18 18 18 18 18 18 18 18 18 18 18 18 18 18 18 18 18 22 22 22 22 22 22 22 22 22 22 22 22 22 22 22 22 22 22 23 23 23 23 23 23 23 23 23 23 23 23 23 23 23 23 23 23 24 24 24 24 24 24 24 24 24 24 24 24 24 24 24 24 24 24 24 24 24 24 24 24 25 25 25 25 25 25 25 25 25 25 25 25 25 25 25 25 25 25 25 25 25 25 25 25 25 25 25 26 26 26 26 26 26 26 26 26 26 26 26 26 26 26 26 26 26 26 26 26 26 26 26 26 26 26 26 26 26 26 26 26 26 26 26 26 26 26 27 27 27 27 27 27 27 27 27 27 27 27 27 27 27 27 27 27 27 27 27 27 27 27 28 28 28 26 26 26 26 26 26 26 26 26 26 26 26 26 26 26 26 26 26 26 26 26 25 25 25 25 25 25 25 25 25 25 25 25 25 25 25 25 25 25 25 25 25 25 25 25 25 25 25 24 24 24 24 24 24 24 24 24 24 24 24 24 24 24 24 24 24 24 24 24 24 24 24 23 23 23 23 23 23 23 23 23 23 23 23 23 23 23 23 23 23 22 22 22 22 22 22 22 22 22 22 22 22 22 22 22 22 22 22 22 22 22 21 21 21 21 21 21 21 21 21 21 21 21 21 21 21 21 21 21 21 21 21 20 20 20 20 20 20 20 20 20 20 20 20 20 20 20 20 20 20 19 19 19 19 19 19 19 19 19 19 19 19 19 19 19 19 19 19 19 19 19 
16 16 16 16 16 16 16 16 16 16 16 16 16 16 16 16 16 16 17 17 17 17 17 17 17 17 17 17 17 17 17 17 17 17 17 17 17 17 17 17 17 17 17 17 17 18 18 18 18 18 18 18 18 18 18 18 18 18 18 18 18 18 18 18 18 18 18 18 18 22 22 22 22 22 22 22 22 22 22 22 22 22 22 22 22 22 22 22 22 22 23 23 23 23 23 23 23 23 23 23 23 23 23 23 23 23 23 23 23 23 23 24 24 24 24 24 24 24 24 24 24 24 24 24 24 24 24 24 24 24 24 24 24 24 24 25 25 25 25 25 25 25 25 25 25 25 25 25 25 25 25 25 25 25 25 25 25 25 25 25 25 25 25 25 25 25 25 25 25 25 25 25 25 25 26 26 26 26 26 26 26 26 26 26 26 26 26 26 26 26 26 26 26 26 26 26 26 26 26 26 26 26 26 26 26 26 26 26 26 26 26 26 26 26 26 26 26 26 26 25 25 25 25 25 25 25 25 25 25 25 25 25 25 25 25 25 25 25 25 25 25 25 25 25 25 25 25 25 25 25 25 25 25 25 25 25 25 25 24 24 24 24 24 24 24 24 24 24 24 24 24 24 24 24 24 24 24 24 24 24 24 24 23 23 23 23 23 23 23 23 23 23 23 23 23 23 23 23 23 23 23 23 23 22 22 22 22 22 22 22 22 22 22 22 22 22 22 22 22 22 22 22 22 22 21 21 21 21 21 21 21 21 21 21 21 21 21 21 21 21 21 21 21 21 21 20 20 20 20 20 20 20 20 20 20 20 20 20 20 20 20 20 20 20 20 20 19 19 19 19 19 19 19 19 19 19 19 19 19 19 19 19 19 19 19 19 19 19 19 19 
16 16 16 16 16 16 16 16 16 16 16 16 16 16 16 16 16 16 16 16 16 17 17 17 17 17 17 17 17 17 17 17 17 17 17 17 17 17 17 17 17 17 17 17 17 17 17 17 18 18 18 18 18 18 18 18 18 18 18 18 18 18 18 18 18 18 18 18 18 18 18 18 22 22 22 22 22 22 22 22 22 22 22 22 22 22 22 22 22 22 22 22 22 22 22 22 23 23 23 23 23 23 23 23 23 23 23 23 23 23 23 23 23 23 23 23 23 23 23 23 24 24 24 24 24 24 24 24 24 24 24 24 24 24 24 24 24 24 24 24 24 24 24 24 24 24 24 25 25 25 25 25 25 25 25 25 25 25 25 25 25 25 25 25 25 25 25 25 25 25 25 25 25 25 25 25 25 25 25 25 25 25 25 25 25 25 25 25 25 25 25 25 25 25 25 25 25 25 25 25 25 25 25 25 25 25 25 25 25 25 25 25 25 25 25 25 25 25 25 25 25 25 25 25 25 25 25 25 25 25 25 25 25 25 25 25 25 25 25 25 25 25 25 25 25 25 24 24 24 24 24 24 24 24 24 24 24 24 24 24 24 24 24 24 24 24 24 24 24 24 24 24 24 23 23 23 23 23 23 23 23 23 23 23 23 23 23 23 23 23 23 23 23 23 23 23 23 22 22 22 22 22 22 22 22 22 22 22 22 22 22 22 22 22 22 22 22 22 22 22 22 21 21 21 21 21 21 21 21 21 21 21 21 21 21 21 21 21 21 21 21 21 20 20 20 20 20 20 20 20 20 20 20 20 20 20 20 20 20 20 20 20 20 19 19 19 19 19 19 19 19 19 19 19 19 19 19 19 19 19 19 19 19 19 19 19 19 18 18 18 
16 16 16 16 16 16 16 16 16 16 16 16 16 16 16 16 16 16 16 16 16 16 16 16 17 17 17 17 17 17 17 17 17 17 17 17 17 17 17 17 17 17 17 17 17 17 17 17 17 17 17 18 18 18 18 18 18 18 18 18 18 18 18 18 18 18 18 18 18 18 18 18 18 18 18 21 21 21 22 22 22 22 22 22 22 22 22 22 22 22 22 22 22 22 22 22 22 22 22 22 22 22 23 23 23 23 23 23 23 23 23 23 23 23 23 23 23 23 23 23 23 23 23 23 23 23 23 23 23 24 24 24 24 24 24 24 24 24 24 24 24 24 24 24 24 24 24 24 24 24 24 24 24 24 24 24 24 24 24 24 24 24 24 24 24 25 25 25 25 25 25 25 25 25 25 25 25 25 25 25 25 25 25 25 25 25 25 25 25 25 25 25 25 25 25 25 25 25 25 25 25 25 25 25 25 25 25 25 25 25 25 25 25 25 25 25 25 25 25 25 25 25 25 25 25 25 25 25 24 24 24 24 24 24 24 24 24 24 24 24 24 24 24 24 24 24 24 24 24 24 24 24 24 24 24 24 24 24 24 24 24 24 24 24 23 23 23 23 23 23 23 23 23 23 23 23 23 23 23 23 23 23 23 23 23 23 23 23 23 23 23 22 22 22 22 22 22 22 22 22 22 22 22 22 22 22 22 22 22 22 22 22 22 22 22 21 21 21 21 21 21 21 21 21 21 21 21 21 21 21 21 21 21 21 21 21 20 20 20 20 20 20 20 20 20 20 20 20 20 20 20 20 20 20 20 20 20 20 20 20 19 19 19 19 19 19 19 19 19 19 19 19 19 19 19 19 19 19 19 19 19 19 19 19 18 18 18 18 18 18 
16 16 16 16 16 16 16 16 16 16 16 16 16 16 16 16 16 16 16 16 16 16 16 16 16 16 16 17 17 17 17 17 17 17 17 17 17 17 17 17 17 17 17 17 17 17 17 17 17 17 17 17 17 17 18 18 18 18 18 18 18 18 18 18 18 18 18 18 18 18 18 18 18 18 18 18 18 18 21 21 21 21 21 21 22 22 22 22 22 22 22 22 22 22 22 22 22 22 22 22 22 22 22 22 22 22 22 22 23 23 23 23 23 23 23 23 23 23 23 23 23 23 23 23 23 23 23 23 23 23 23 23 23 23 23 23 23 23 24 24 24 24 24 24 24 24 24 24 24 24 24 24 24 24 24 24 24 24 24 24 24 24 24 24 24 24 24 24 24 24 24 24 24 24 24 24 24 24 24 24 24 24 24 24 24 24 24 24 24 24 24 24 24 24 24 24 24 24 24 24 24 24 24 24 24 24 24 24 24 24 24 24 24 24 24 24 24 24 24 24 24 24 24 24 24 24 24 24 24 24 24 24 24 24 24 24 24 24 24 24 24 24 24 24 24 24 24 24 24 24 24 24 24 24 24 23 23 23 23 23 23 23 23 23 23 23 23 23 23 23 23 23 23 23 23 23 23 23 23 23 23 23 23 23 23 22 22 22 22 22 22 22 22 22 22 22 22 22 22 22 22 22 22 22 22 22 22 22 22 21 21 21 21 21 21 21 21 21 21 21 21 21 21 21 21 21 21 21 21 21 21 21 21 20 20 20 20 20 20 20 20 20 20 20 20 20 20 20 20 20 20 20 20 20 20 20 20 19 19 19 19 19 19 19 19 19 19 19 19 19 19 19 19 19 19 19 19 19 19 19 19 18 18 18 18 18 18 18 18 18 
16 16 16 16 16 16 16 16 16 16 16 16 16 16 16 16 16 16 16 16 16 16 16 16 16 16 16 17 17 17 17 17 17 17 17 17 17 17 17 17 17 17 17 17 17 17 17 17 17 17 17 17 17 17 17 17 17 18 18 18 18 18 18 18 18 18 18 18 18 18 18 18 18 18 18 18 18 18 18 18 18 21 21 21 21 21 21 21 21 21 22 22 22 22 22 22 22 22 22 22 22 22 22 22 22 22 22 22 22 22 22 22 22 22 22 22 22 23 23 23 23 23 23 23 23 23 23 23 23 23 23 23 23 23 23 23 23 23 23 23 23 23 23 23 23 23 23 23 23 23 23 23 23 24 24 24 24 24 24 24 24 24 24 24 24 24 24 24 24 24 24 24 24 24 24 24 24 24 24 24 24 24 24 24 24 24 24 24 24 24 24 24 24 24 24 24 24 24 24 24 24 24 24 24 24 24 24 24 24 24 24 24 24 24 24 24 24 24 24 24 24 24 24 24 24 24 24 24 24 24 24 24 24 24 24 24 24 24 24 24 23 23 23 23 23 23 23 23 23 23 23 23 23 23 23 23 23 23 23 23 23 23 23 23 23 23 23 23 23 23 23 23 23 23 23 23 22 22 22 22 22 22 22 22 22 22 22 22 22 22 22 22 22 22 22 22 22 22 22 22 22 22 22 21 21 21 21 21 21 21 21 21 21 21 21 21 21 21 21 21 21 21 21 21 21 21 21 20 20 20 20 20 20 20 20 20 20 20 20 20 20 20 20 20 20 20 20 20 20 20 20 19 19 19 19 19 19 19 19 19 19 19 19 19 19 19 19 19 19 19 19 19 19 19 19 19 19 19 18 18 18 18 18 18 18 18 18 18 18 18 
16 16 16 16 16 16 16 16 16 16 16 16 16 16 16 16 16 16 16 16 16 16 16 16 16 16 16 16 16 16 17 17 17 17 17 17 17 17 17 17 17 17 17 17 17 17 17 17 17 17 17 17 17 17 17 17 17 18 18 18 18 18 18 18 18 18 18 18 18 18 18 18 18 18 18 18 18 18 18 18 18 18 18 18 21 21 21 21 21 21 21 21 21 21 21 21 22 22 22 22 22 22 22 22 22 22 22 22 22 22 22 22 22 22 22 22 22 22 22 22 22 22 22 22 22 22 23 23 23 23 23 23 23 23 23 23 23 23 23 23 23 23 23 23 23 23 23 23 23 23 23 23 23 23 23 23 23 23 23 23 23 23 23 23 23 23 23 23 23 23 23 23 23 23 24 24 24 24 24 24 24 24 24 24 24 24 24 24 24 24 24 24 24 24 24 24 24 24 24 24 24 24 24 24 24 24 24 24 24 24 24 24 24 24 24 24 24 24 24 23 23 23 23 23 23 23 23 23 23 23 23 23 23 23 23 23 23 23 23 23 23 23 23 23 23 23 23 23 23 23 23 23 23 23 23 23 23 23 23 23 23 23 23 23 23 23 23 22 22 22 22 22 22 22 22 22 22 22 22 22 22 22 22 22 22 22 22 22 22 22 22 22 22 22 22 22 22 21 21 21 21 21 21 21 21 21 21 21 21 21 21 21 21 21 21 21 21 21 21 21 21 20 20 20 20 20 20 20 20 20 20 20 20 20 20 20 20 20 20 20 20 20 20 20 20 20 20 20 19 19 19 19 19 19 19 19 19 19 19 19 19 19 19 19 19 19 19 19 19 19 19 19 18 18 18 18 18 18 18 18 18 18 18 18 18 18 18 18 18 18 
16 16 16 16 16 16 16 16 16 16 16 16 16 16 16 16 16 16 16 16 16 16 16 16 16 16 16 16 16 16 16 16 16 17 17 17 17 17 17 17 17 17 17 17 17 17 17 17 17 17 17 17 17 17 17 17 17 17 17 17 18 18 18 18 18 18 18 18 18 18 18 18 18 18 18 18 18 18 18 18 18 18 18 18 18 18 18 21 21 21 21 21 21 21 21 21 21 21 21 21 21 21 21 21 21 22 22 22 22 22 22 22 22 22 22 22 22 22 22 22 22 22 22 22 22 22 22 22 22 22 22 22 22 22 22 22 22 22 23 23 23 23 23 23 23 23 23 23 23 23 23 23 23 23 23 23 23 23 23 23 23 23 23 23 23 23 23 23 23 23 23 23 23 23 23 23 23 23 23 23 23 23 23 23 23 23 23 23 23 23 23 23 23 23 23 23 23 23 23 23 23 23 23 23 23 23 23 23 23 23 23 23 23 23 23 23 23 23 23 23 23 23 23 23 23 23 23 23 23 23 23 23 23 23 23 23 23 23 23 23 23 23 23 23 23 23 23 23 23 23 23 23 23 23 23 22 22 22 22 22 22 22 22 22 22 22 22 22 22 22 22 22 22 22 22 22 22 22 22 22 22 22 22 22 22 22 22 22 21 21 21 21 21 21 21 21 21 21 21 21 21 21 21 21 21 21 21 21 21 21 21 21 21 21 21 21 21 21 20 20 20 20 20 20 20 20 20 20 20 20 20 20 20 20 20 20 20 20 20 20 20 20 19 19 19 19 19 19 19 19 19 19 19 19 19 19 19 19 19 19 19 19 19 19 19 19 19 19 19 18 18 18 18 18 18 18 18 18 18 18 18 18 18 18 18 18 18 18 18 18 
